(G-CODE GENERATED BY FLATCAM v8.994 - www.flatcam.org - Version Date: 2020/11/7)

(Name: RECEPTOR AM_copperBottom.gbl_iso_combined_cnc)
(Type: G-code from Geometry)
(Units: MM)

(Created on Tuesday, 10 September 2024 at 13:47)

(This preprocessor is the default preprocessor used by FlatCAM.)
(It is made to work with MACH3 compatible motion controllers.)

(TOOL DIAMETER: 0.1 mm)
(Feedrate_XY: 120.0 mm/min)
(Feedrate_Z: 60.0 mm/min)
(Feedrate rapids 1500.0 mm/min)

(Z_Cut: 0.0 mm)
(Z_Move: 2.0 mm)
(Z Start: None mm)
(Z End: 15.0 mm)
(X,Y End: None mm)
(Steps per circle: 64)
(Preprocessor Geometry: default)

(X range:    2.1088 ...   41.6425  mm)
(Y range:    2.0834 ...   41.1220  mm)

(Spindle Speed: 0.0 RPM)
G21
G90
G94

G01 F120.00

M5
G00 Z15.0000
G00 X0.0000 Y0.0000
T1
M6    
(MSG, Change to Tool Dia = 0.1000)
M0
G00 Z15.0000

M03
G01 F120.00
G00 X5.2227 Y2.5174
G01 F60.00
G01 Z0.0000
G01 F120.00
G01 X5.2288 Y2.4768
G01 X5.2396 Y2.4333
G01 X5.2547 Y2.3911
G01 X5.2738 Y2.3506
G01 X5.2968 Y2.3121
G01 X5.3234 Y2.2761
G01 X5.3535 Y2.2429
G01 X5.3848 Y2.2143
G01 X5.4247 Y2.1847
G01 X5.4611 Y2.1629
G01 X5.5038 Y2.1428
G01 X5.5437 Y2.1286
G01 X5.5872 Y2.1177
G01 X5.6315 Y2.1110
G01 X5.6750 Y2.1088
G01 X31.0254 Y2.0834
G01 X31.0681 Y2.0854
G01 X31.1124 Y2.0917
G01 X31.1536 Y2.1017
G01 X31.1603 Y2.1037
G01 X31.1959 Y2.1163
G01 X31.2025 Y2.1190
G01 X31.2407 Y2.1371
G01 X31.2792 Y2.1601
G01 X31.3136 Y2.1854
G01 X31.3460 Y2.2145
G01 X33.2998 Y4.1462
G01 X33.3957 Y4.1222
G01 X33.4955 Y4.1075
G01 X33.5913 Y4.1029
G01 X33.6871 Y4.1075
G01 X33.7869 Y4.1222
G01 X33.8846 Y4.1468
G01 X33.9749 Y4.1792
G01 X34.0617 Y4.2202
G01 X34.1483 Y4.2719
G01 X34.2291 Y4.3321
G01 X34.3002 Y4.3965
G01 X34.3646 Y4.4676
G01 X34.4234 Y4.5464
G01 X34.4754 Y4.6328
G01 X34.5175 Y4.7218
G01 X34.5513 Y4.8168
G01 X34.5745 Y4.9098
G01 X34.5887 Y5.0047
G01 X34.5938 Y5.1054
G01 X34.5890 Y5.2037
G01 X34.5740 Y5.3034
G01 X34.5506 Y5.3964
G01 X34.5184 Y5.4867
G01 X34.4754 Y5.5780
G01 X34.4248 Y5.6624
G01 X34.3662 Y5.7414
G01 X34.2984 Y5.8160
G01 X34.2273 Y5.8803
G01 X34.1503 Y5.9375
G01 X34.0639 Y5.9895
G01 X33.9726 Y6.0325
G01 X33.8823 Y6.0647
G01 X33.7893 Y6.0881
G01 X33.6896 Y6.1031
G01 X33.5913 Y6.1079
G01 X33.4906 Y6.1028
G01 X33.3957 Y6.0886
G01 X33.3027 Y6.0654
G01 X33.2077 Y6.0316
G01 X33.1166 Y5.9883
G01 X33.0343 Y5.9389
G01 X32.9553 Y5.8803
G01 X32.8824 Y5.8143
G01 X32.8180 Y5.7432
G01 X32.7564 Y5.6603
G01 X32.7072 Y5.5780
G01 X32.6647 Y5.4879
G01 X32.6320 Y5.3964
G01 X32.6081 Y5.3010
G01 X32.5936 Y5.2037
G01 X32.5888 Y5.1066
G01 X32.5936 Y5.0071
G01 X32.6078 Y4.9110
G01 X32.6316 Y4.8156
G01 X32.6436 Y4.7817
G01 X30.8385 Y2.9968
G01 X5.7221 Y3.0220
G01 X3.4662 Y5.2778
G01 X3.4662 Y9.1829
G01 X4.0662 Y9.1830
G01 X4.0735 Y9.1839
G01 X4.0806 Y9.1858
G01 X4.0874 Y9.1888
G01 X4.0936 Y9.1927
G01 X4.0991 Y9.1975
G01 X4.1047 Y9.2041
G01 X4.1085 Y9.2104
G01 X4.1113 Y9.2172
G01 X4.1131 Y9.2244
G01 X4.1138 Y9.2329
G01 X4.1138 Y11.1379
G01 X4.1134 Y11.1440
G01 X4.1126 Y11.1489
G01 X4.1095 Y11.1582
G01 X4.1060 Y11.1646
G01 X4.1017 Y11.1706
G01 X4.0974 Y11.1749
G01 X4.0916 Y11.1795
G01 X4.0863 Y11.1826
G01 X4.0795 Y11.1854
G01 X4.0723 Y11.1872
G01 X4.0650 Y11.1879
G01 X2.1588 Y11.1879
G01 X2.1503 Y11.1872
G01 X2.1420 Y11.1850
G01 X2.1342 Y11.1814
G01 X2.1280 Y11.1773
G01 X2.1226 Y11.1724
G01 X2.1179 Y11.1667
G01 X2.1141 Y11.1604
G01 X2.1113 Y11.1536
G01 X2.1095 Y11.1464
G01 X2.1088 Y11.1391
G01 X2.1088 Y9.2329
G01 X2.1093 Y9.2256
G01 X2.1110 Y9.2184
G01 X2.1136 Y9.2115
G01 X2.1179 Y9.2041
G01 X2.1226 Y9.1984
G01 X2.1280 Y9.1935
G01 X2.1342 Y9.1894
G01 X2.1408 Y9.1863
G01 X2.1490 Y9.1839
G01 X2.1563 Y9.1830
G01 X2.7563 Y9.1829
G01 X2.7563 Y5.1308
G01 X2.7581 Y5.0960
G01 X2.7627 Y5.0640
G01 X2.7724 Y5.0254
G01 X2.7844 Y4.9927
G01 X2.7983 Y4.9635
G01 X2.8149 Y4.9357
G01 X2.8369 Y4.9056
G01 X2.8603 Y4.8798
G01 X5.2227 Y2.5174
G00 Z2.0000
G00 X14.8089 Y7.6479
G01 F60.00
G01 Z0.0000
G01 F120.00
G01 X14.8136 Y7.5471
G01 X14.8281 Y7.4498
G01 X14.8520 Y7.3544
G01 X14.8851 Y7.2618
G01 X14.9272 Y7.1728
G01 X14.9778 Y7.0884
G01 X15.0364 Y7.0094
G01 X15.1024 Y6.9365
G01 X15.1753 Y6.8705
G01 X15.2543 Y6.8119
G01 X15.3387 Y6.7613
G01 X15.4277 Y6.7192
G01 X15.5203 Y6.6861
G01 X15.6157 Y6.6622
G01 X15.7130 Y6.6477
G01 X15.8113 Y6.6429
G01 X15.9096 Y6.6477
G01 X16.0069 Y6.6622
G01 X16.1023 Y6.6861
G01 X16.1949 Y6.7192
G01 X16.2839 Y6.7613
G01 X16.3683 Y6.8119
G01 X16.4473 Y6.8705
G01 X16.5202 Y6.9365
G01 X16.5862 Y7.0094
G01 X16.6448 Y7.0884
G01 X16.6954 Y7.1728
G01 X16.7375 Y7.2618
G01 X16.7706 Y7.3544
G01 X16.7945 Y7.4498
G01 X16.8090 Y7.5471
G01 X16.8138 Y7.6454
G01 X16.8090 Y7.7437
G01 X16.7945 Y7.8410
G01 X16.7706 Y7.9364
G01 X16.7375 Y8.0290
G01 X16.6954 Y8.1180
G01 X16.6448 Y8.2024
G01 X16.5862 Y8.2814
G01 X16.5202 Y8.3543
G01 X16.4473 Y8.4203
G01 X16.3683 Y8.4789
G01 X16.2839 Y8.5295
G01 X16.1949 Y8.5716
G01 X16.1023 Y8.6047
G01 X16.0069 Y8.6286
G01 X15.9096 Y8.6431
G01 X15.8113 Y8.6479
G01 X15.7130 Y8.6431
G01 X15.6157 Y8.6286
G01 X15.5203 Y8.6047
G01 X15.4277 Y8.5716
G01 X15.3387 Y8.5295
G01 X15.2543 Y8.4789
G01 X15.1753 Y8.4203
G01 X15.1024 Y8.3543
G01 X15.0364 Y8.2814
G01 X14.9778 Y8.2024
G01 X14.9272 Y8.1180
G01 X14.8851 Y8.0290
G01 X14.8520 Y7.9364
G01 X14.8281 Y7.8410
G01 X14.8136 Y7.7437
G01 X14.8089 Y7.6479
G00 Z2.0000
G00 X14.9196 Y13.1820
G01 F60.00
G01 Z0.0000
G01 F120.00
G01 X13.2701 Y13.1820
G01 X13.2241 Y13.1795
G01 X13.1822 Y13.1732
G01 X13.1411 Y13.1630
G01 X13.0966 Y13.1472
G01 X13.0550 Y13.1275
G01 X13.0176 Y13.1050
G01 X12.9836 Y13.0799
G01 X12.9484 Y13.0483
G01 X10.5665 Y10.6664
G01 X6.5419 Y10.6445
G01 X6.5342 Y10.6601
G01 X6.4834 Y10.7444
G01 X6.4262 Y10.8214
G01 X6.3602 Y10.8943
G01 X6.2853 Y10.9619
G01 X6.2083 Y11.0189
G01 X6.1239 Y11.0695
G01 X6.0326 Y11.1125
G01 X5.9423 Y11.1447
G01 X5.8469 Y11.1686
G01 X5.7496 Y11.1831
G01 X5.6538 Y11.1878
G01 X5.5518 Y11.1829
G01 X5.4557 Y11.1686
G01 X5.3580 Y11.1440
G01 X5.2677 Y11.1116
G01 X5.1809 Y11.0706
G01 X5.0964 Y11.0203
G01 X5.0153 Y10.9603
G01 X4.9424 Y10.8943
G01 X4.8764 Y10.8214
G01 X4.8178 Y10.7424
G01 X4.7672 Y10.6580
G01 X4.7242 Y10.5667
G01 X4.6920 Y10.4764
G01 X4.6686 Y10.3834
G01 X4.6539 Y10.2861
G01 X4.6488 Y10.1854
G01 X4.6536 Y10.0871
G01 X4.6681 Y9.9898
G01 X4.6923 Y9.8932
G01 X4.7251 Y9.8018
G01 X4.7661 Y9.7150
G01 X4.8192 Y9.6264
G01 X4.8764 Y9.5494
G01 X4.9424 Y9.4765
G01 X5.0153 Y9.4105
G01 X5.0923 Y9.3533
G01 X5.1809 Y9.3002
G01 X5.2677 Y9.2592
G01 X5.3603 Y9.2261
G01 X5.4581 Y9.2017
G01 X5.5530 Y9.1877
G01 X5.6501 Y9.1829
G01 X5.7520 Y9.1880
G01 X5.8469 Y9.2022
G01 X5.9423 Y9.2261
G01 X6.0372 Y9.2602
G01 X6.1239 Y9.3013
G01 X6.2062 Y9.3505
G01 X6.2891 Y9.4121
G01 X6.3602 Y9.4765
G01 X6.4246 Y9.5476
G01 X6.4848 Y9.6284
G01 X6.5348 Y9.7118
G01 X6.5442 Y9.7313
G01 X10.2976 Y9.7517
G01 X10.2772 Y5.9983
G01 X10.2576 Y5.9889
G01 X10.1733 Y5.9383
G01 X10.0953 Y5.8803
G01 X10.0224 Y5.8143
G01 X9.9564 Y5.7414
G01 X9.8992 Y5.6644
G01 X9.8472 Y5.5780
G01 X9.8051 Y5.4890
G01 X9.7727 Y5.3987
G01 X9.7481 Y5.3010
G01 X9.7336 Y5.2037
G01 X9.7289 Y5.1079
G01 X9.7338 Y5.0059
G01 X9.7481 Y4.9098
G01 X9.7727 Y4.8121
G01 X9.8051 Y4.7218
G01 X9.8461 Y4.6350
G01 X9.8964 Y4.5505
G01 X9.9564 Y4.4694
G01 X10.0224 Y4.3965
G01 X10.0953 Y4.3305
G01 X10.1743 Y4.2719
G01 X10.2587 Y4.2213
G01 X10.3499 Y4.1783
G01 X10.4403 Y4.1461
G01 X10.5333 Y4.1227
G01 X10.6306 Y4.1080
G01 X10.7313 Y4.1029
G01 X10.8296 Y4.1077
G01 X10.9269 Y4.1222
G01 X11.0235 Y4.1464
G01 X11.1149 Y4.1792
G01 X11.2017 Y4.2202
G01 X11.2903 Y4.2733
G01 X11.3673 Y4.3305
G01 X11.4402 Y4.3965
G01 X11.5062 Y4.4694
G01 X11.5634 Y4.5464
G01 X11.6165 Y4.6350
G01 X11.6575 Y4.7218
G01 X11.6906 Y4.8144
G01 X11.7150 Y4.9122
G01 X11.7290 Y5.0071
G01 X11.7338 Y5.1042
G01 X11.7287 Y5.2061
G01 X11.7145 Y5.3010
G01 X11.6906 Y5.3964
G01 X11.6565 Y5.4913
G01 X11.6154 Y5.5780
G01 X11.5662 Y5.6603
G01 X11.5046 Y5.7432
G01 X11.4402 Y5.8143
G01 X11.3691 Y5.8787
G01 X11.2883 Y5.9389
G01 X11.2049 Y5.9889
G01 X11.1904 Y5.9960
G01 X11.2123 Y10.0206
G01 X13.4604 Y12.2688
G01 X14.9196 Y12.2688
G01 X14.9278 Y12.2518
G01 X14.9778 Y12.1684
G01 X15.0380 Y12.0876
G01 X15.1024 Y12.0165
G01 X15.1735 Y11.9521
G01 X15.2564 Y11.8905
G01 X15.3387 Y11.8413
G01 X15.4254 Y11.8002
G01 X15.5203 Y11.7661
G01 X15.6157 Y11.7422
G01 X15.7106 Y11.7280
G01 X15.8113 Y11.7229
G01 X15.9120 Y11.7280
G01 X16.0069 Y11.7422
G01 X16.0999 Y11.7654
G01 X16.1949 Y11.7992
G01 X16.2860 Y11.8425
G01 X16.3683 Y11.8919
G01 X16.4453 Y11.9489
G01 X16.5202 Y12.0165
G01 X16.5862 Y12.0894
G01 X16.6434 Y12.1664
G01 X16.6954 Y12.2528
G01 X16.7375 Y12.3418
G01 X16.7706 Y12.4344
G01 X16.7945 Y12.5298
G01 X16.8090 Y12.6271
G01 X16.8138 Y12.7254
G01 X16.8090 Y12.8237
G01 X16.7945 Y12.9210
G01 X16.7706 Y13.0164
G01 X16.7375 Y13.1090
G01 X16.6954 Y13.1980
G01 X16.6448 Y13.2824
G01 X16.5862 Y13.3614
G01 X16.5202 Y13.4343
G01 X16.4473 Y13.5003
G01 X16.3683 Y13.5589
G01 X16.2839 Y13.6095
G01 X16.1949 Y13.6516
G01 X16.1023 Y13.6847
G01 X16.0069 Y13.7086
G01 X15.9096 Y13.7231
G01 X15.8113 Y13.7279
G01 X15.7130 Y13.7231
G01 X15.6157 Y13.7086
G01 X15.5203 Y13.6847
G01 X15.4277 Y13.6516
G01 X15.3387 Y13.6095
G01 X15.2543 Y13.5589
G01 X15.1753 Y13.5003
G01 X15.1024 Y13.4343
G01 X15.0364 Y13.3614
G01 X14.9778 Y13.2824
G01 X14.9278 Y13.1990
G01 X14.9196 Y13.1820
G00 Z2.0000
G00 X14.8089 Y15.2679
G01 F60.00
G01 Z0.0000
G01 F120.00
G01 X14.8136 Y15.1671
G01 X14.8281 Y15.0698
G01 X14.8520 Y14.9744
G01 X14.8851 Y14.8818
G01 X14.9272 Y14.7928
G01 X14.9778 Y14.7084
G01 X15.0364 Y14.6294
G01 X15.1024 Y14.5565
G01 X15.1753 Y14.4905
G01 X15.2543 Y14.4319
G01 X15.3387 Y14.3813
G01 X15.4277 Y14.3392
G01 X15.5203 Y14.3061
G01 X15.6157 Y14.2822
G01 X15.7130 Y14.2677
G01 X15.8113 Y14.2629
G01 X15.9096 Y14.2677
G01 X16.0069 Y14.2822
G01 X16.1023 Y14.3061
G01 X16.1949 Y14.3392
G01 X16.2839 Y14.3813
G01 X16.3683 Y14.4319
G01 X16.4473 Y14.4905
G01 X16.5202 Y14.5565
G01 X16.5862 Y14.6294
G01 X16.6448 Y14.7084
G01 X16.6954 Y14.7928
G01 X16.7375 Y14.8818
G01 X16.7706 Y14.9744
G01 X16.7945 Y15.0698
G01 X16.8090 Y15.1671
G01 X16.8138 Y15.2654
G01 X16.8090 Y15.3637
G01 X16.7945 Y15.4610
G01 X16.7706 Y15.5564
G01 X16.7375 Y15.6490
G01 X16.6954 Y15.7380
G01 X16.6448 Y15.8224
G01 X16.5862 Y15.9014
G01 X16.5202 Y15.9743
G01 X16.4473 Y16.0403
G01 X16.3683 Y16.0989
G01 X16.2839 Y16.1495
G01 X16.1949 Y16.1916
G01 X16.1023 Y16.2247
G01 X16.0069 Y16.2486
G01 X15.9096 Y16.2631
G01 X15.8113 Y16.2679
G01 X15.7130 Y16.2631
G01 X15.6157 Y16.2486
G01 X15.5203 Y16.2247
G01 X15.4277 Y16.1916
G01 X15.3387 Y16.1495
G01 X15.2543 Y16.0989
G01 X15.1753 Y16.0403
G01 X15.1024 Y15.9743
G01 X15.0364 Y15.9014
G01 X14.9778 Y15.8224
G01 X14.9272 Y15.7380
G01 X14.8851 Y15.6490
G01 X14.8520 Y15.5564
G01 X14.8281 Y15.4610
G01 X14.8136 Y15.3637
G01 X14.8089 Y15.2679
G00 Z2.0000
G00 X17.0653 Y21.8963
G01 F60.00
G01 Z0.0000
G01 F120.00
G01 X17.8944 Y20.2381
G01 X17.8704 Y10.6222
G01 X16.7057 Y10.6364
G01 X16.6948 Y10.6590
G01 X16.6441 Y10.7434
G01 X16.5862 Y10.8214
G01 X16.5193 Y10.8951
G01 X16.4473 Y10.9603
G01 X16.3683 Y11.0189
G01 X16.2839 Y11.0695
G01 X16.1949 Y11.1116
G01 X16.1023 Y11.1447
G01 X16.0069 Y11.1686
G01 X15.9096 Y11.1831
G01 X15.8138 Y11.1878
G01 X15.7106 Y11.1828
G01 X15.6157 Y11.1686
G01 X15.5191 Y11.1444
G01 X15.4254 Y11.1106
G01 X15.3387 Y11.0695
G01 X15.2564 Y11.0203
G01 X15.1753 Y10.9603
G01 X15.1024 Y10.8943
G01 X15.0364 Y10.8214
G01 X14.9764 Y10.7403
G01 X14.9272 Y10.6580
G01 X14.8861 Y10.5713
G01 X14.8527 Y10.4787
G01 X14.8281 Y10.3810
G01 X14.8136 Y10.2837
G01 X14.8088 Y10.1854
G01 X14.8139 Y10.0847
G01 X14.8281 Y9.9898
G01 X14.8513 Y9.8968
G01 X14.8842 Y9.8041
G01 X14.9272 Y9.7128
G01 X14.9778 Y9.6284
G01 X15.0364 Y9.5494
G01 X15.1042 Y9.4748
G01 X15.1753 Y9.4105
G01 X15.2523 Y9.3533
G01 X15.3387 Y9.3013
G01 X15.4299 Y9.2583
G01 X15.5203 Y9.2261
G01 X15.6133 Y9.2027
G01 X15.7130 Y9.1877
G01 X15.8125 Y9.1829
G01 X15.9096 Y9.1877
G01 X16.0045 Y9.2017
G01 X16.1023 Y9.2261
G01 X16.1972 Y9.2602
G01 X16.2839 Y9.3013
G01 X16.3662 Y9.3505
G01 X16.4491 Y9.4121
G01 X16.5202 Y9.4765
G01 X16.5846 Y9.5476
G01 X16.6448 Y9.6284
G01 X16.6942 Y9.7107
G01 X16.7004 Y9.7232
G01 X17.8738 Y9.7089
G01 X17.8947 Y7.6142
G01 X17.8969 Y7.5754
G01 X17.8977 Y7.5683
G01 X17.9039 Y7.5287
G01 X17.9144 Y7.4876
G01 X17.9165 Y7.4808
G01 X17.9303 Y7.4432
G01 X17.9514 Y7.3997
G01 X17.9729 Y7.3644
G01 X17.9983 Y7.3305
G01 X18.0029 Y7.3250
G01 X18.0300 Y7.2955
G01 X20.5954 Y4.7555
G01 X20.6288 Y4.7256
G01 X20.6649 Y4.6991
G01 X20.7034 Y4.6763
G01 X20.7452 Y4.6568
G01 X20.7863 Y4.6424
G01 X20.8298 Y4.6317
G01 X20.8736 Y4.6254
G01 X20.9183 Y4.6234
G01 X27.6203 Y4.6473
G01 X27.6278 Y4.6318
G01 X27.6778 Y4.5484
G01 X27.7364 Y4.4694
G01 X27.8024 Y4.3965
G01 X27.8753 Y4.3305
G01 X27.9543 Y4.2719
G01 X28.0387 Y4.2213
G01 X28.1277 Y4.1792
G01 X28.2227 Y4.1454
G01 X28.3157 Y4.1222
G01 X28.4106 Y4.1080
G01 X28.5088 Y4.1030
G01 X28.6096 Y4.1077
G01 X28.7045 Y4.1217
G01 X28.8023 Y4.1461
G01 X28.8949 Y4.1792
G01 X28.9839 Y4.2213
G01 X29.0683 Y4.2719
G01 X29.1473 Y4.3305
G01 X29.2184 Y4.3948
G01 X29.2862 Y4.4694
G01 X29.3462 Y4.5505
G01 X29.3954 Y4.6328
G01 X29.4365 Y4.7195
G01 X29.4706 Y4.8144
G01 X29.4950 Y4.9122
G01 X29.5090 Y5.0071
G01 X29.5137 Y5.1029
G01 X29.5087 Y5.2061
G01 X29.4945 Y5.3010
G01 X29.4713 Y5.3940
G01 X29.4375 Y5.4890
G01 X29.3954 Y5.5780
G01 X29.3462 Y5.6603
G01 X29.2862 Y5.7414
G01 X29.2202 Y5.8143
G01 X29.1491 Y5.8787
G01 X29.0683 Y5.9389
G01 X28.9817 Y5.9906
G01 X28.8949 Y6.0316
G01 X28.8046 Y6.0640
G01 X28.7045 Y6.0891
G01 X28.6096 Y6.1031
G01 X28.5088 Y6.1078
G01 X28.4130 Y6.1031
G01 X28.3157 Y6.0886
G01 X28.2203 Y6.0647
G01 X28.1277 Y6.0316
G01 X28.0387 Y5.9895
G01 X27.9543 Y5.9389
G01 X27.8753 Y5.8803
G01 X27.8042 Y5.8160
G01 X27.7364 Y5.7414
G01 X27.6792 Y5.6644
G01 X27.6278 Y5.5790
G01 X27.6188 Y5.5605
G01 X21.1038 Y5.5373
G01 X18.8060 Y7.8123
G01 X18.7825 Y10.1617
G01 X18.8079 Y20.3443
G01 X18.8068 Y20.3765
G01 X18.8058 Y20.3890
G01 X18.8016 Y20.4210
G01 X18.7996 Y20.4322
G01 X18.7917 Y20.4660
G01 X18.7882 Y20.4780
G01 X18.7777 Y20.5086
G01 X18.7731 Y20.5202
G01 X18.7602 Y20.5485
G01 X17.8819 Y22.3052
G01 X17.9050 Y22.3365
G01 X17.9536 Y22.4177
G01 X17.9962 Y22.5078
G01 X18.0285 Y22.5981
G01 X18.0515 Y22.6899
G01 X18.0664 Y22.7896
G01 X18.0711 Y22.8854
G01 X18.0665 Y22.9800
G01 X18.0521 Y23.0785
G01 X18.0277 Y23.1751
G01 X17.9958 Y23.2642
G01 X17.9548 Y23.3509
G01 X17.9029 Y23.4373
G01 X17.8464 Y23.5133
G01 X17.7829 Y23.5835
G01 X17.7092 Y23.6505
G01 X17.6291 Y23.7097
G01 X17.5479 Y23.7583
G01 X17.4623 Y23.7989
G01 X17.3686 Y23.8326
G01 X17.2720 Y23.8566
G01 X17.1783 Y23.8704
G01 X17.0813 Y23.8752
G01 X16.9843 Y23.8704
G01 X16.8882 Y23.8562
G01 X16.7940 Y23.8326
G01 X16.7025 Y23.7999
G01 X16.6147 Y23.7583
G01 X16.5314 Y23.7084
G01 X16.4534 Y23.6505
G01 X16.3814 Y23.5853
G01 X16.3162 Y23.5133
G01 X16.2583 Y23.4353
G01 X16.2084 Y23.3520
G01 X16.1668 Y23.2642
G01 X16.1341 Y23.1727
G01 X16.1105 Y23.0785
G01 X16.0963 Y22.9824
G01 X16.0915 Y22.8854
G01 X16.0963 Y22.7884
G01 X16.1105 Y22.6923
G01 X16.1341 Y22.5981
G01 X16.1668 Y22.5066
G01 X16.2084 Y22.4188
G01 X16.2583 Y22.3355
G01 X16.3162 Y22.2575
G01 X16.3814 Y22.1855
G01 X16.4534 Y22.1203
G01 X16.5314 Y22.0624
G01 X16.6147 Y22.0125
G01 X16.7025 Y21.9709
G01 X16.7940 Y21.9382
G01 X16.8882 Y21.9146
G01 X16.9843 Y21.9004
G01 X17.0653 Y21.8963
G00 Z2.0000
G00 X19.6033 Y23.8744
G01 F60.00
G01 Z0.0000
G01 F120.00
G01 X19.5243 Y23.8704
G01 X19.4282 Y23.8562
G01 X19.3340 Y23.8326
G01 X19.2425 Y23.7999
G01 X19.1547 Y23.7583
G01 X19.0714 Y23.7084
G01 X18.9934 Y23.6505
G01 X18.9214 Y23.5853
G01 X18.8562 Y23.5133
G01 X18.7983 Y23.4353
G01 X18.7484 Y23.3520
G01 X18.7068 Y23.2642
G01 X18.6741 Y23.1727
G01 X18.6505 Y23.0785
G01 X18.6363 Y22.9824
G01 X18.6315 Y22.8854
G01 X18.6363 Y22.7884
G01 X18.6505 Y22.6923
G01 X18.6741 Y22.5981
G01 X18.7068 Y22.5066
G01 X18.7484 Y22.4188
G01 X18.7983 Y22.3355
G01 X18.8562 Y22.2575
G01 X18.9214 Y22.1855
G01 X18.9934 Y22.1203
G01 X19.0714 Y22.0624
G01 X19.1547 Y22.0125
G01 X19.2425 Y21.9709
G01 X19.3340 Y21.9382
G01 X19.4282 Y21.9146
G01 X19.5243 Y21.9004
G01 X19.6213 Y21.8956
G01 X19.7183 Y21.9004
G01 X19.8120 Y21.9142
G01 X19.9086 Y21.9382
G01 X20.0023 Y21.9719
G01 X20.0879 Y22.0125
G01 X20.1691 Y22.0611
G01 X20.2492 Y22.1203
G01 X20.3229 Y22.1873
G01 X20.3864 Y22.2575
G01 X20.4429 Y22.3335
G01 X20.4948 Y22.4199
G01 X20.5358 Y22.5066
G01 X20.5677 Y22.5957
G01 X20.5921 Y22.6923
G01 X20.6065 Y22.7908
G01 X20.6111 Y22.8854
G01 X20.6064 Y22.9812
G01 X20.5915 Y23.0809
G01 X20.5685 Y23.1727
G01 X20.5362 Y23.2630
G01 X20.4936 Y23.3531
G01 X20.4450 Y23.4343
G01 X20.4207 Y23.4672
G01 X21.2753 Y25.1978
G01 X21.2876 Y25.2250
G01 X21.2936 Y25.2401
G01 X21.3020 Y25.2648
G01 X21.3072 Y25.2828
G01 X21.3132 Y25.3082
G01 X21.3164 Y25.3254
G01 X21.3200 Y25.3525
G01 X21.3214 Y25.3687
G01 X21.3225 Y25.3985
G01 X21.3464 Y32.5888
G01 X22.5396 Y32.5888
G01 X22.5478 Y32.5718
G01 X22.5978 Y32.4884
G01 X22.6564 Y32.4094
G01 X22.7224 Y32.3365
G01 X22.7973 Y32.2689
G01 X22.8764 Y32.2105
G01 X22.9587 Y32.1613
G01 X23.0454 Y32.1202
G01 X23.1403 Y32.0861
G01 X23.2369 Y32.0619
G01 X23.3330 Y32.0477
G01 X23.4313 Y32.0429
G01 X23.5296 Y32.0477
G01 X23.6245 Y32.0617
G01 X23.7246 Y32.0868
G01 X23.8149 Y32.1192
G01 X23.9049 Y32.1619
G01 X23.9883 Y32.2119
G01 X24.0653 Y32.2689
G01 X24.1402 Y32.3365
G01 X24.2077 Y32.4114
G01 X24.2648 Y32.4884
G01 X24.3154 Y32.5728
G01 X24.3575 Y32.6618
G01 X24.3899 Y32.7521
G01 X24.4145 Y32.8498
G01 X24.4291 Y32.9496
G01 X24.4338 Y33.0454
G01 X24.4291 Y33.1412
G01 X24.4140 Y33.2434
G01 X24.3906 Y33.3364
G01 X24.3584 Y33.4267
G01 X24.3154 Y33.5180
G01 X24.2634 Y33.6044
G01 X24.2062 Y33.6814
G01 X24.1419 Y33.7525
G01 X24.0673 Y33.8203
G01 X23.9862 Y33.8803
G01 X23.9039 Y33.9295
G01 X23.8149 Y33.9716
G01 X23.7223 Y34.0047
G01 X23.6269 Y34.0286
G01 X23.5296 Y34.0431
G01 X23.4313 Y34.0479
G01 X23.3330 Y34.0431
G01 X23.2357 Y34.0286
G01 X23.1403 Y34.0047
G01 X23.0499 Y33.9725
G01 X22.9587 Y33.9295
G01 X22.8743 Y33.8789
G01 X22.7953 Y33.8203
G01 X22.7242 Y33.7560
G01 X22.6564 Y33.6814
G01 X22.5992 Y33.6044
G01 X22.5478 Y33.5190
G01 X22.5396 Y33.5020
G01 X20.8913 Y33.5020
G01 X20.8465 Y33.4998
G01 X20.8010 Y33.4930
G01 X20.7626 Y33.4834
G01 X20.7564 Y33.4816
G01 X20.7180 Y33.4678
G01 X20.6796 Y33.4499
G01 X20.6739 Y33.4469
G01 X20.6389 Y33.4259
G01 X20.6016 Y33.3984
G01 X20.5713 Y33.3710
G01 X20.5667 Y33.3665
G01 X20.5393 Y33.3362
G01 X20.5139 Y33.3023
G01 X20.5103 Y33.2970
G01 X20.4893 Y33.2620
G01 X20.4700 Y33.2215
G01 X20.4548 Y33.1794
G01 X20.4438 Y33.1360
G01 X20.4370 Y33.0917
G01 X20.4347 Y33.0469
G01 X20.4096 Y25.5073
G01 X19.6033 Y23.8744
G00 Z2.0000
G00 X22.1474 Y23.8746
G01 F60.00
G01 Z0.0000
G01 F120.00
G01 X22.0643 Y23.8704
G01 X21.9682 Y23.8562
G01 X21.8740 Y23.8326
G01 X21.7825 Y23.7999
G01 X21.6947 Y23.7583
G01 X21.6114 Y23.7084
G01 X21.5334 Y23.6505
G01 X21.4614 Y23.5853
G01 X21.3962 Y23.5133
G01 X21.3383 Y23.4353
G01 X21.2884 Y23.3520
G01 X21.2468 Y23.2642
G01 X21.2141 Y23.1727
G01 X21.1905 Y23.0785
G01 X21.1763 Y22.9824
G01 X21.1715 Y22.8854
G01 X21.1763 Y22.7884
G01 X21.1905 Y22.6923
G01 X21.2141 Y22.5981
G01 X21.2468 Y22.5066
G01 X21.2884 Y22.4188
G01 X21.3383 Y22.3355
G01 X21.3962 Y22.2575
G01 X21.4614 Y22.1855
G01 X21.5334 Y22.1203
G01 X21.6114 Y22.0624
G01 X21.6947 Y22.0125
G01 X21.7825 Y21.9709
G01 X21.8740 Y21.9382
G01 X21.9682 Y21.9146
G01 X22.0643 Y21.9004
G01 X22.1613 Y21.8956
G01 X22.2583 Y21.9004
G01 X22.3520 Y21.9142
G01 X22.4486 Y21.9382
G01 X22.5423 Y21.9719
G01 X22.6279 Y22.0125
G01 X22.7091 Y22.0611
G01 X22.7892 Y22.1203
G01 X22.8629 Y22.1873
G01 X22.9264 Y22.2575
G01 X22.9829 Y22.3335
G01 X23.0348 Y22.4199
G01 X23.0758 Y22.5066
G01 X23.1077 Y22.5957
G01 X23.1321 Y22.6923
G01 X23.1465 Y22.7908
G01 X23.1511 Y22.8854
G01 X23.1464 Y22.9812
G01 X23.1315 Y23.0809
G01 X23.1085 Y23.1727
G01 X23.0762 Y23.2630
G01 X23.0336 Y23.3531
G01 X22.9850 Y23.4343
G01 X22.9631 Y23.4640
G01 X23.8641 Y25.2446
G01 X23.8790 Y25.2773
G01 X23.8832 Y25.2879
G01 X23.8940 Y25.3195
G01 X23.8965 Y25.3281
G01 X23.9048 Y25.3630
G01 X23.9066 Y25.3730
G01 X23.9113 Y25.4086
G01 X23.9121 Y25.4175
G01 X23.9133 Y25.4533
G01 X23.8903 Y29.6148
G01 X23.9060 Y29.6225
G01 X23.9903 Y29.6733
G01 X24.0673 Y29.7305
G01 X24.1402 Y29.7965
G01 X24.2062 Y29.8694
G01 X24.2634 Y29.9464
G01 X24.3142 Y30.0307
G01 X24.3204 Y30.0433
G01 X25.9725 Y30.0234
G01 X26.0106 Y30.0251
G01 X26.0173 Y30.0257
G01 X26.0526 Y30.0307
G01 X26.0616 Y30.0324
G01 X26.0986 Y30.0415
G01 X26.1050 Y30.0434
G01 X26.1386 Y30.0552
G01 X26.1472 Y30.0586
G01 X26.1817 Y30.0748
G01 X26.1876 Y30.0779
G01 X26.2193 Y30.0967
G01 X26.2260 Y30.1010
G01 X26.2567 Y30.1236
G01 X26.2619 Y30.1278
G01 X26.2885 Y30.1516
G01 X26.2942 Y30.1571
G01 X28.7258 Y32.5888
G01 X30.5748 Y32.5888
G01 X30.5878 Y31.5079
G01 X30.0951 Y31.5078
G01 X30.0867 Y31.5064
G01 X30.0785 Y31.5036
G01 X30.0710 Y31.4995
G01 X30.0643 Y31.4941
G01 X30.0586 Y31.4877
G01 X30.0547 Y31.4815
G01 X30.0513 Y31.4736
G01 X30.0493 Y31.4652
G01 X30.0488 Y31.4579
G01 X30.0488 Y29.5517
G01 X30.0498 Y29.5431
G01 X30.0526 Y29.5338
G01 X30.0566 Y29.5262
G01 X30.0626 Y29.5184
G01 X30.0690 Y29.5127
G01 X30.0774 Y29.5077
G01 X30.0867 Y29.5044
G01 X30.0951 Y29.5030
G01 X32.0050 Y29.5029
G01 X32.0123 Y29.5036
G01 X32.0195 Y29.5054
G01 X32.0263 Y29.5082
G01 X32.0316 Y29.5113
G01 X32.0374 Y29.5159
G01 X32.0424 Y29.5212
G01 X32.0467 Y29.5272
G01 X32.0495 Y29.5326
G01 X32.0513 Y29.5372
G01 X32.0528 Y29.5431
G01 X32.0538 Y29.5529
G01 X32.0538 Y31.4579
G01 X32.0531 Y31.4664
G01 X32.0513 Y31.4736
G01 X32.0479 Y31.4815
G01 X32.0432 Y31.4887
G01 X32.0374 Y31.4949
G01 X32.0305 Y31.5001
G01 X32.0241 Y31.5036
G01 X32.0159 Y31.5064
G01 X32.0075 Y31.5078
G01 X31.5011 Y31.5079
G01 X31.4880 Y32.5888
G01 X37.4400 Y32.5888
G01 X37.4572 Y32.5412
G01 X37.5113 Y32.4267
G01 X37.5775 Y32.3160
G01 X37.6550 Y32.2114
G01 X37.7408 Y32.1166
G01 X37.8373 Y32.0291
G01 X37.9409 Y31.9523
G01 X38.0516 Y31.8859
G01 X38.1682 Y31.8308
G01 X38.2897 Y31.7873
G01 X38.4148 Y31.7560
G01 X38.5424 Y31.7370
G01 X38.6713 Y31.7307
G01 X38.8002 Y31.7370
G01 X38.9278 Y31.7560
G01 X39.0541 Y31.7877
G01 X39.1733 Y31.8303
G01 X39.1989 Y31.8423
G01 X40.7293 Y30.2926
G01 X40.7293 Y20.7821
G01 X39.3897 Y20.7983
G01 X39.3773 Y20.8186
G01 X39.3291 Y20.8837
G01 X39.2715 Y20.9473
G01 X39.2105 Y21.0025
G01 X39.1455 Y21.0507
G01 X39.0709 Y21.0956
G01 X38.9966 Y21.1307
G01 X38.9204 Y21.1580
G01 X38.8371 Y21.1791
G01 X38.7522 Y21.1915
G01 X38.6713 Y21.1954
G01 X38.5892 Y21.1914
G01 X38.5031 Y21.1785
G01 X38.4246 Y21.1588
G01 X38.3460 Y21.1307
G01 X38.2706 Y21.0950
G01 X38.2011 Y21.0535
G01 X38.1321 Y21.0025
G01 X38.0686 Y20.9447
G01 X38.0142 Y20.8846
G01 X37.9646 Y20.8176
G01 X37.9217 Y20.7461
G01 X37.8870 Y20.6729
G01 X37.8576 Y20.5910
G01 X37.8376 Y20.5112
G01 X37.8257 Y20.4311
G01 X37.8214 Y20.3429
G01 X37.8254 Y20.2621
G01 X37.8376 Y20.1796
G01 X37.8579 Y20.0987
G01 X37.8851 Y20.0224
G01 X37.9229 Y19.9426
G01 X37.9646 Y19.8732
G01 X38.0142 Y19.8062
G01 X38.0703 Y19.7444
G01 X38.1311 Y19.6891
G01 X38.1981 Y19.6393
G01 X38.2147 Y19.6292
G01 X38.2147 Y16.1571
G01 X38.1976 Y16.1489
G01 X38.1123 Y16.0975
G01 X38.0353 Y16.0403
G01 X37.9624 Y15.9743
G01 X37.8964 Y15.9014
G01 X37.8392 Y15.8244
G01 X37.7861 Y15.7358
G01 X37.7451 Y15.6490
G01 X37.7120 Y15.5564
G01 X37.6881 Y15.4610
G01 X37.6739 Y15.3661
G01 X37.6689 Y15.2629
G01 X37.6736 Y15.1671
G01 X37.6878 Y15.0710
G01 X37.7120 Y14.9744
G01 X37.7451 Y14.8818
G01 X37.7872 Y14.7928
G01 X37.8392 Y14.7064
G01 X37.8980 Y14.6276
G01 X37.9624 Y14.5565
G01 X38.0335 Y14.4921
G01 X38.1143 Y14.4319
G01 X38.1966 Y14.3825
G01 X38.2877 Y14.3392
G01 X38.3803 Y14.3061
G01 X38.4757 Y14.2822
G01 X38.5730 Y14.2677
G01 X38.6713 Y14.2629
G01 X38.7696 Y14.2677
G01 X38.8669 Y14.2822
G01 X38.9646 Y14.3068
G01 X39.0549 Y14.3392
G01 X39.1439 Y14.3813
G01 X39.2283 Y14.4319
G01 X39.3053 Y14.4889
G01 X39.3819 Y14.5583
G01 X39.4462 Y14.6294
G01 X39.5034 Y14.7064
G01 X39.5565 Y14.7950
G01 X39.5975 Y14.8818
G01 X39.6306 Y14.9744
G01 X39.6550 Y15.0722
G01 X39.6690 Y15.1671
G01 X39.6738 Y15.2642
G01 X39.6687 Y15.3661
G01 X39.6545 Y15.4610
G01 X39.6306 Y15.5564
G01 X39.5965 Y15.6513
G01 X39.5554 Y15.7380
G01 X39.5062 Y15.8203
G01 X39.4446 Y15.9032
G01 X39.3802 Y15.9743
G01 X39.3091 Y16.0387
G01 X39.2283 Y16.0989
G01 X39.1449 Y16.1489
G01 X39.1279 Y16.1571
G01 X39.1279 Y19.6292
G01 X39.1445 Y19.6393
G01 X39.2096 Y19.6876
G01 X39.2723 Y19.7444
G01 X39.3284 Y19.8062
G01 X39.3773 Y19.8722
G01 X39.3852 Y19.8851
G01 X41.1804 Y19.8634
G01 X41.1871 Y19.8634
G01 X41.2227 Y19.8649
G01 X41.2307 Y19.8656
G01 X41.2684 Y19.8709
G01 X41.2774 Y19.8727
G01 X41.3120 Y19.8812
G01 X41.3184 Y19.8831
G01 X41.3544 Y19.8956
G01 X41.3629 Y19.8992
G01 X41.3952 Y19.9142
G01 X41.4011 Y19.9173
G01 X41.4350 Y19.9373
G01 X41.4406 Y19.9410
G01 X41.4693 Y19.9621
G01 X41.4774 Y19.9686
G01 X41.5040 Y19.9924
G01 X41.5088 Y19.9971
G01 X41.5353 Y20.0261
G01 X41.5396 Y20.0313
G01 X41.5610 Y20.0598
G01 X41.5669 Y20.0684
G01 X41.5854 Y20.0989
G01 X41.5886 Y20.1048
G01 X41.6056 Y20.1402
G01 X41.6082 Y20.1464
G01 X41.6208 Y20.1810
G01 X41.6232 Y20.1886
G01 X41.6321 Y20.2231
G01 X41.6339 Y20.2321
G01 X41.6396 Y20.2686
G01 X41.6403 Y20.2752
G01 X41.6424 Y20.3120
G01 X41.6425 Y20.3200
G01 X41.6425 Y30.4800
G01 X41.6406 Y30.5219
G01 X41.6347 Y30.5638
G01 X41.6332 Y30.5715
G01 X41.6243 Y30.6074
G01 X41.6221 Y30.6149
G01 X41.6088 Y30.6521
G01 X41.5910 Y30.6905
G01 X41.5874 Y30.6974
G01 X41.5684 Y30.7292
G01 X41.5641 Y30.7357
G01 X41.5407 Y30.7674
G01 X41.5116 Y30.7999
G01 X39.8553 Y32.4773
G01 X39.8864 Y32.5434
G01 X39.9290 Y32.6626
G01 X39.9605 Y32.7877
G01 X39.9797 Y32.9165
G01 X39.9860 Y33.0442
G01 X39.9797 Y33.1743
G01 X39.9607 Y33.3019
G01 X39.9294 Y33.4270
G01 X39.8854 Y33.5496
G01 X39.8308 Y33.6651
G01 X39.7630 Y33.7778
G01 X39.6860 Y33.8813
G01 X39.6009 Y33.9750
G01 X39.5072 Y34.0601
G01 X39.4017 Y34.1385
G01 X39.2910 Y34.2049
G01 X39.1744 Y34.2600
G01 X39.0518 Y34.3038
G01 X38.9278 Y34.3348
G01 X38.8002 Y34.3538
G01 X38.6713 Y34.3601
G01 X38.5424 Y34.3538
G01 X38.4148 Y34.3348
G01 X38.2897 Y34.3035
G01 X38.1682 Y34.2600
G01 X38.0526 Y34.2054
G01 X37.9409 Y34.1385
G01 X37.8373 Y34.0617
G01 X37.7417 Y33.9750
G01 X37.6558 Y33.8804
G01 X37.5782 Y33.7758
G01 X37.5124 Y33.6662
G01 X37.4572 Y33.5496
G01 X37.4400 Y33.5020
G01 X31.4881 Y33.5020
G01 X31.5013 Y34.5829
G01 X32.0075 Y34.5830
G01 X32.0159 Y34.5844
G01 X32.0241 Y34.5872
G01 X32.0305 Y34.5907
G01 X32.0374 Y34.5959
G01 X32.0432 Y34.6021
G01 X32.0479 Y34.6093
G01 X32.0509 Y34.6161
G01 X32.0531 Y34.6244
G01 X32.0538 Y34.6329
G01 X32.0538 Y36.5391
G01 X32.0531 Y36.5464
G01 X32.0513 Y36.5536
G01 X32.0485 Y36.5604
G01 X32.0440 Y36.5677
G01 X32.0383 Y36.5741
G01 X32.0326 Y36.5788
G01 X32.0263 Y36.5826
G01 X32.0195 Y36.5854
G01 X32.0111 Y36.5874
G01 X32.0038 Y36.5879
G01 X30.0976 Y36.5879
G01 X30.0915 Y36.5874
G01 X30.0843 Y36.5857
G01 X30.0785 Y36.5836
G01 X30.0720 Y36.5801
G01 X30.0661 Y36.5758
G01 X30.0609 Y36.5706
G01 X30.0572 Y36.5657
G01 X30.0536 Y36.5593
G01 X30.0513 Y36.5536
G01 X30.0500 Y36.5489
G01 X30.0490 Y36.5428
G01 X30.0488 Y36.5379
G01 X30.0488 Y34.6329
G01 X30.0495 Y34.6244
G01 X30.0517 Y34.6161
G01 X30.0553 Y34.6083
G01 X30.0594 Y34.6021
G01 X30.0652 Y34.5959
G01 X30.0710 Y34.5913
G01 X30.0785 Y34.5872
G01 X30.0867 Y34.5844
G01 X30.0951 Y34.5830
G01 X30.5880 Y34.5829
G01 X30.5748 Y33.5020
G01 X28.7232 Y33.5020
G01 X26.2909 Y35.8861
G01 X26.2661 Y35.9086
G01 X26.2555 Y35.9173
G01 X26.2305 Y35.9359
G01 X26.2212 Y35.9422
G01 X26.1914 Y35.9601
G01 X26.1814 Y35.9654
G01 X26.1533 Y35.9787
G01 X26.1418 Y35.9836
G01 X26.1103 Y35.9949
G01 X26.0983 Y35.9986
G01 X26.0658 Y36.0067
G01 X26.0547 Y36.0089
G01 X26.0240 Y36.0135
G01 X26.0103 Y36.0149
G01 X25.9780 Y36.0165
G01 X24.3257 Y36.0365
G01 X24.3148 Y36.0590
G01 X24.2641 Y36.1434
G01 X24.2062 Y36.2214
G01 X24.1393 Y36.2951
G01 X24.0673 Y36.3603
G01 X23.9883 Y36.4189
G01 X23.9039 Y36.4695
G01 X23.8149 Y36.5116
G01 X23.7223 Y36.5447
G01 X23.6269 Y36.5686
G01 X23.5296 Y36.5831
G01 X23.4338 Y36.5878
G01 X23.3306 Y36.5828
G01 X23.2357 Y36.5686
G01 X23.1380 Y36.5440
G01 X23.0477 Y36.5116
G01 X22.9609 Y36.4706
G01 X22.8743 Y36.4189
G01 X22.7935 Y36.3587
G01 X22.7224 Y36.2943
G01 X22.6580 Y36.2232
G01 X22.5978 Y36.1424
G01 X22.5461 Y36.0558
G01 X22.5051 Y35.9690
G01 X22.4727 Y35.8787
G01 X22.4476 Y35.7786
G01 X22.4336 Y35.6837
G01 X22.4289 Y35.5879
G01 X22.4336 Y35.4871
G01 X22.4481 Y35.3898
G01 X22.4713 Y35.2968
G01 X22.5051 Y35.2018
G01 X22.5484 Y35.1107
G01 X22.5978 Y35.0284
G01 X22.6564 Y34.9494
G01 X22.7242 Y34.8748
G01 X22.7953 Y34.8105
G01 X22.8723 Y34.7533
G01 X22.9609 Y34.7002
G01 X23.0477 Y34.6592
G01 X23.1427 Y34.6254
G01 X23.2357 Y34.6022
G01 X23.3330 Y34.5877
G01 X23.4313 Y34.5829
G01 X23.5308 Y34.5879
G01 X23.6293 Y34.6027
G01 X23.7223 Y34.6261
G01 X23.8126 Y34.6583
G01 X23.9039 Y34.7013
G01 X23.9883 Y34.7519
G01 X24.0691 Y34.8121
G01 X24.1402 Y34.8765
G01 X24.2046 Y34.9476
G01 X24.2648 Y35.0284
G01 X24.3142 Y35.1107
G01 X24.3204 Y35.1233
G01 X25.7825 Y35.1056
G01 X27.8877 Y33.0422
G01 X25.7845 Y30.9389
G01 X24.3257 Y30.9565
G01 X24.3148 Y30.9790
G01 X24.2655 Y31.0613
G01 X24.2054 Y31.1423
G01 X24.1402 Y31.2143
G01 X24.0691 Y31.2787
G01 X23.9872 Y31.3396
G01 X23.9039 Y31.3895
G01 X23.8172 Y31.4306
G01 X23.7223 Y31.4647
G01 X23.6245 Y31.4891
G01 X23.5296 Y31.5031
G01 X23.4338 Y31.5078
G01 X23.3330 Y31.5031
G01 X23.2333 Y31.4881
G01 X23.1403 Y31.4647
G01 X23.0499 Y31.4325
G01 X22.9587 Y31.3895
G01 X22.8723 Y31.3375
G01 X22.7953 Y31.2803
G01 X22.7242 Y31.2160
G01 X22.6564 Y31.1414
G01 X22.5971 Y31.0613
G01 X22.5472 Y30.9780
G01 X22.5051 Y30.8890
G01 X22.4720 Y30.7964
G01 X22.4476 Y30.6986
G01 X22.4336 Y30.6037
G01 X22.4289 Y30.5029
G01 X22.4336 Y30.4071
G01 X22.4476 Y30.3122
G01 X22.4713 Y30.2168
G01 X22.5051 Y30.1218
G01 X22.5472 Y30.0328
G01 X22.5978 Y29.9484
G01 X22.6564 Y29.8694
G01 X22.7224 Y29.7965
G01 X22.7953 Y29.7305
G01 X22.8754 Y29.6712
G01 X22.9576 Y29.6219
G01 X22.9771 Y29.6125
G01 X22.9995 Y25.5586
G01 X22.1474 Y23.8746
G00 Z2.0000
G00 X16.1646 Y27.7016
G01 F60.00
G01 Z0.0000
G01 F120.00
G01 X16.1909 Y27.7371
G01 X16.2128 Y27.7734
G01 X16.2156 Y27.7788
G01 X16.2336 Y27.8172
G01 X16.2482 Y27.8583
G01 X16.2586 Y27.8993
G01 X16.2598 Y27.9053
G01 X16.2654 Y27.9436
G01 X16.2660 Y27.9497
G01 X16.2679 Y27.9908
G01 X16.2679 Y29.6137
G01 X16.2849 Y29.6219
G01 X16.3703 Y29.6733
G01 X16.4473 Y29.7305
G01 X16.5202 Y29.7965
G01 X16.5862 Y29.8694
G01 X16.6434 Y29.9464
G01 X16.6954 Y30.0328
G01 X16.7384 Y30.1241
G01 X16.7706 Y30.2144
G01 X16.7945 Y30.3098
G01 X16.8090 Y30.4071
G01 X16.8137 Y30.5029
G01 X16.8088 Y30.6049
G01 X16.7945 Y30.7010
G01 X16.7706 Y30.7964
G01 X16.7375 Y30.8890
G01 X16.6954 Y30.9780
G01 X16.6448 Y31.0624
G01 X16.5862 Y31.1414
G01 X16.5202 Y31.2143
G01 X16.4473 Y31.2803
G01 X16.3683 Y31.3389
G01 X16.2839 Y31.3895
G01 X16.1949 Y31.4316
G01 X16.1023 Y31.4647
G01 X16.0069 Y31.4886
G01 X15.9096 Y31.5031
G01 X15.8113 Y31.5079
G01 X15.7118 Y31.5029
G01 X15.6157 Y31.4886
G01 X15.5203 Y31.4647
G01 X15.4277 Y31.4316
G01 X15.3409 Y31.3906
G01 X15.2523 Y31.3375
G01 X15.1753 Y31.2803
G01 X15.1024 Y31.2143
G01 X15.0364 Y31.1414
G01 X14.9778 Y31.0624
G01 X14.9272 Y30.9780
G01 X14.8861 Y30.8913
G01 X14.8513 Y30.7940
G01 X14.8281 Y30.7010
G01 X14.8136 Y30.6037
G01 X14.8089 Y30.5029
G01 X14.8136 Y30.4071
G01 X14.8281 Y30.3098
G01 X14.8527 Y30.2121
G01 X14.8851 Y30.1218
G01 X14.9272 Y30.0328
G01 X14.9778 Y29.9484
G01 X15.0348 Y29.8714
G01 X15.1024 Y29.7965
G01 X15.1753 Y29.7305
G01 X15.2523 Y29.6733
G01 X15.3376 Y29.6219
G01 X15.3547 Y29.6137
G01 X15.3547 Y28.1792
G01 X11.0377 Y23.8393
G01 X11.0211 Y23.8451
G01 X10.9269 Y23.8686
G01 X10.8271 Y23.8833
G01 X10.7313 Y23.8879
G01 X10.6355 Y23.8833
G01 X10.5333 Y23.8681
G01 X10.4403 Y23.8447
G01 X10.3499 Y23.8125
G01 X10.2587 Y23.7695
G01 X10.1743 Y23.7189
G01 X10.0973 Y23.6619
G01 X10.0207 Y23.5925
G01 X9.9564 Y23.5214
G01 X9.8978 Y23.4424
G01 X9.8472 Y23.3580
G01 X9.8051 Y23.2690
G01 X9.7720 Y23.1764
G01 X9.7481 Y23.0810
G01 X9.7336 Y22.9837
G01 X9.7289 Y22.8879
G01 X9.7336 Y22.7871
G01 X9.7476 Y22.6922
G01 X9.7727 Y22.5921
G01 X9.8051 Y22.5018
G01 X9.8472 Y22.4128
G01 X9.8978 Y22.3284
G01 X9.9571 Y22.2485
G01 X10.0224 Y22.1765
G01 X10.0953 Y22.1105
G01 X10.1743 Y22.0519
G01 X10.2587 Y22.0013
G01 X10.3477 Y21.9592
G01 X10.4403 Y21.9261
G01 X10.5357 Y21.9022
G01 X10.6330 Y21.8877
G01 X10.7313 Y21.8829
G01 X10.8296 Y21.8877
G01 X10.9269 Y21.9022
G01 X11.0223 Y21.9261
G01 X11.1149 Y21.9592
G01 X11.2039 Y22.0013
G01 X11.2883 Y22.0519
G01 X11.3682 Y22.1112
G01 X11.4402 Y22.1765
G01 X11.5046 Y22.2476
G01 X11.5648 Y22.3284
G01 X11.6165 Y22.4150
G01 X11.6575 Y22.5018
G01 X11.6906 Y22.5944
G01 X11.7150 Y22.6922
G01 X11.7290 Y22.7871
G01 X11.7338 Y22.8854
G01 X11.7290 Y22.9837
G01 X11.7150 Y23.0786
G01 X11.6910 Y23.1752
G01 X11.6843 Y23.1944
G01 X16.1350 Y27.6688
G01 X16.1646 Y27.7016
G00 Z2.0000
G00 X14.8089 Y35.5879
G01 F60.00
G01 Z0.0000
G01 F120.00
G01 X14.8136 Y35.4871
G01 X14.8281 Y35.3898
G01 X14.8520 Y35.2944
G01 X14.8851 Y35.2018
G01 X14.9272 Y35.1128
G01 X14.9778 Y35.0284
G01 X15.0364 Y34.9494
G01 X15.1024 Y34.8765
G01 X15.1753 Y34.8105
G01 X15.2543 Y34.7519
G01 X15.3387 Y34.7013
G01 X15.4277 Y34.6592
G01 X15.5203 Y34.6261
G01 X15.6157 Y34.6022
G01 X15.7130 Y34.5877
G01 X15.8113 Y34.5829
G01 X15.9096 Y34.5877
G01 X16.0069 Y34.6022
G01 X16.1023 Y34.6261
G01 X16.1949 Y34.6592
G01 X16.2839 Y34.7013
G01 X16.3683 Y34.7519
G01 X16.4473 Y34.8105
G01 X16.5202 Y34.8765
G01 X16.5862 Y34.9494
G01 X16.6448 Y35.0284
G01 X16.6954 Y35.1128
G01 X16.7375 Y35.2018
G01 X16.7706 Y35.2944
G01 X16.7945 Y35.3898
G01 X16.8090 Y35.4871
G01 X16.8138 Y35.5854
G01 X16.8090 Y35.6837
G01 X16.7945 Y35.7810
G01 X16.7706 Y35.8764
G01 X16.7375 Y35.9690
G01 X16.6954 Y36.0580
G01 X16.6448 Y36.1424
G01 X16.5862 Y36.2214
G01 X16.5202 Y36.2943
G01 X16.4473 Y36.3603
G01 X16.3683 Y36.4189
G01 X16.2839 Y36.4695
G01 X16.1949 Y36.5116
G01 X16.1023 Y36.5447
G01 X16.0069 Y36.5686
G01 X15.9096 Y36.5831
G01 X15.8113 Y36.5879
G01 X15.7130 Y36.5831
G01 X15.6157 Y36.5686
G01 X15.5203 Y36.5447
G01 X15.4277 Y36.5116
G01 X15.3387 Y36.4695
G01 X15.2543 Y36.4189
G01 X15.1753 Y36.3603
G01 X15.1024 Y36.2943
G01 X15.0364 Y36.2214
G01 X14.9778 Y36.1424
G01 X14.9272 Y36.0580
G01 X14.8851 Y35.9690
G01 X14.8520 Y35.8764
G01 X14.8281 Y35.7810
G01 X14.8136 Y35.6837
G01 X14.8089 Y35.5879
G00 Z2.0000
G00 X14.8089 Y38.1279
G01 F60.00
G01 Z0.0000
G01 F120.00
G01 X14.8136 Y38.0271
G01 X14.8281 Y37.9298
G01 X14.8520 Y37.8344
G01 X14.8851 Y37.7418
G01 X14.9272 Y37.6528
G01 X14.9778 Y37.5684
G01 X15.0364 Y37.4894
G01 X15.1024 Y37.4165
G01 X15.1753 Y37.3505
G01 X15.2543 Y37.2919
G01 X15.3387 Y37.2413
G01 X15.4277 Y37.1992
G01 X15.5203 Y37.1661
G01 X15.6157 Y37.1422
G01 X15.7130 Y37.1277
G01 X15.8113 Y37.1229
G01 X15.9096 Y37.1277
G01 X16.0069 Y37.1422
G01 X16.1023 Y37.1661
G01 X16.1949 Y37.1992
G01 X16.2839 Y37.2413
G01 X16.3683 Y37.2919
G01 X16.4473 Y37.3505
G01 X16.5202 Y37.4165
G01 X16.5862 Y37.4894
G01 X16.6448 Y37.5684
G01 X16.6954 Y37.6528
G01 X16.7375 Y37.7418
G01 X16.7706 Y37.8344
G01 X16.7945 Y37.9298
G01 X16.8090 Y38.0271
G01 X16.8138 Y38.1254
G01 X16.8090 Y38.2237
G01 X16.7945 Y38.3210
G01 X16.7706 Y38.4164
G01 X16.7375 Y38.5090
G01 X16.6954 Y38.5980
G01 X16.6448 Y38.6824
G01 X16.5862 Y38.7614
G01 X16.5202 Y38.8343
G01 X16.4473 Y38.9003
G01 X16.3683 Y38.9589
G01 X16.2839 Y39.0095
G01 X16.1949 Y39.0516
G01 X16.1023 Y39.0847
G01 X16.0069 Y39.1086
G01 X15.9096 Y39.1231
G01 X15.8113 Y39.1279
G01 X15.7130 Y39.1231
G01 X15.6157 Y39.1086
G01 X15.5203 Y39.0847
G01 X15.4277 Y39.0516
G01 X15.3387 Y39.0095
G01 X15.2543 Y38.9589
G01 X15.1753 Y38.9003
G01 X15.1024 Y38.8343
G01 X15.0364 Y38.7614
G01 X14.9778 Y38.6824
G01 X14.9272 Y38.5980
G01 X14.8851 Y38.5090
G01 X14.8520 Y38.4164
G01 X14.8281 Y38.3210
G01 X14.8136 Y38.2237
G01 X14.8089 Y38.1279
G00 Z2.0000
G00 X24.3838 Y37.1229
G01 F60.00
G01 Z0.0000
G01 F120.00
G01 X24.3935 Y37.1239
G01 X24.4029 Y37.1267
G01 X24.4105 Y37.1307
G01 X24.4183 Y37.1367
G01 X24.4247 Y37.1441
G01 X24.4295 Y37.1526
G01 X24.4326 Y37.1619
G01 X24.4338 Y37.1717
G01 X24.4338 Y39.0779
G01 X24.4328 Y39.0877
G01 X24.4304 Y39.0959
G01 X24.4260 Y39.1046
G01 X24.4200 Y39.1124
G01 X24.4155 Y39.1165
G01 X24.4116 Y39.1195
G01 X24.4029 Y39.1241
G01 X24.3935 Y39.1269
G01 X24.3838 Y39.1279
G01 X22.4788 Y39.1279
G01 X22.4690 Y39.1269
G01 X22.4597 Y39.1241
G01 X22.4520 Y39.1201
G01 X22.4443 Y39.1141
G01 X22.4379 Y39.1067
G01 X22.4331 Y39.0982
G01 X22.4300 Y39.0889
G01 X22.4290 Y39.0828
G01 X22.4288 Y39.0779
G01 X22.4288 Y37.1729
G01 X22.4295 Y37.1644
G01 X22.4321 Y37.1549
G01 X22.4366 Y37.1462
G01 X22.4426 Y37.1384
G01 X22.4500 Y37.1320
G01 X22.4585 Y37.1272
G01 X22.4631 Y37.1254
G01 X22.4690 Y37.1239
G01 X22.4788 Y37.1229
G01 X24.3838 Y37.1229
G00 Z2.0000
G00 X27.5514 Y14.9766
G01 F60.00
G01 Z0.0000
G01 F120.00
G01 X25.7568 Y13.1820
G01 X24.3230 Y13.1820
G01 X24.3148 Y13.1990
G01 X24.2648 Y13.2824
G01 X24.2062 Y13.3614
G01 X24.1402 Y13.4343
G01 X24.0673 Y13.5003
G01 X23.9883 Y13.5589
G01 X23.9039 Y13.6095
G01 X23.8149 Y13.6516
G01 X23.7223 Y13.6847
G01 X23.6269 Y13.7086
G01 X23.5296 Y13.7231
G01 X23.4313 Y13.7279
G01 X23.3330 Y13.7231
G01 X23.2357 Y13.7086
G01 X23.1403 Y13.6847
G01 X23.0477 Y13.6516
G01 X22.9587 Y13.6095
G01 X22.8743 Y13.5589
G01 X22.7953 Y13.5003
G01 X22.7224 Y13.4343
G01 X22.6564 Y13.3614
G01 X22.5978 Y13.2824
G01 X22.5472 Y13.1980
G01 X22.5051 Y13.1090
G01 X22.4720 Y13.0164
G01 X22.4481 Y12.9210
G01 X22.4336 Y12.8237
G01 X22.4288 Y12.7254
G01 X22.4336 Y12.6271
G01 X22.4481 Y12.5298
G01 X22.4720 Y12.4344
G01 X22.5051 Y12.3418
G01 X22.5472 Y12.2528
G01 X22.5992 Y12.1664
G01 X22.6564 Y12.0894
G01 X22.7224 Y12.0165
G01 X22.7973 Y11.9489
G01 X22.8743 Y11.8919
G01 X22.9566 Y11.8425
G01 X23.0477 Y11.7992
G01 X23.1427 Y11.7654
G01 X23.2357 Y11.7422
G01 X23.3306 Y11.7280
G01 X23.4325 Y11.7229
G01 X23.5296 Y11.7277
G01 X23.6245 Y11.7417
G01 X23.7223 Y11.7661
G01 X23.8172 Y11.8002
G01 X23.9039 Y11.8413
G01 X23.9862 Y11.8905
G01 X24.0691 Y11.9521
G01 X24.1402 Y12.0165
G01 X24.2046 Y12.0876
G01 X24.2648 Y12.1684
G01 X24.3148 Y12.2518
G01 X24.3230 Y12.2688
G01 X25.9471 Y12.2688
G01 X25.9907 Y12.2710
G01 X26.0350 Y12.2776
G01 X26.0784 Y12.2885
G01 X26.1195 Y12.3031
G01 X26.1611 Y12.3227
G01 X26.1996 Y12.3458
G01 X26.2356 Y12.3724
G01 X26.2688 Y12.4025
G01 X28.1849 Y14.3187
G01 X28.2215 Y14.3057
G01 X28.3169 Y14.2819
G01 X28.4130 Y14.2677
G01 X28.5125 Y14.2629
G01 X28.6096 Y14.2677
G01 X28.7069 Y14.2822
G01 X28.8023 Y14.3061
G01 X28.8949 Y14.3392
G01 X28.9839 Y14.3813
G01 X29.0683 Y14.4319
G01 X29.1473 Y14.4905
G01 X29.2184 Y14.5548
G01 X29.2862 Y14.6294
G01 X29.3434 Y14.7064
G01 X29.3948 Y14.7918
G01 X29.4030 Y14.8088
G01 X32.6996 Y14.8088
G01 X32.7078 Y14.7918
G01 X32.7578 Y14.7084
G01 X32.8164 Y14.6294
G01 X32.8824 Y14.5565
G01 X32.9553 Y14.4905
G01 X33.0343 Y14.4319
G01 X33.1187 Y14.3813
G01 X33.2077 Y14.3392
G01 X33.3027 Y14.3054
G01 X33.3957 Y14.2822
G01 X33.4955 Y14.2675
G01 X33.5913 Y14.2629
G01 X33.6871 Y14.2675
G01 X33.7845 Y14.2817
G01 X33.8823 Y14.3061
G01 X33.9749 Y14.3392
G01 X34.0639 Y14.3813
G01 X34.1483 Y14.4319
G01 X34.2273 Y14.4905
G01 X34.2984 Y14.5548
G01 X34.3677 Y14.6314
G01 X34.4248 Y14.7084
G01 X34.4754 Y14.7928
G01 X34.5175 Y14.8818
G01 X34.5499 Y14.9721
G01 X34.5750 Y15.0722
G01 X34.5890 Y15.1671
G01 X34.5938 Y15.2654
G01 X34.5890 Y15.3637
G01 X34.5748 Y15.4598
G01 X34.5510 Y15.5552
G01 X34.5437 Y15.5758
G01 X36.4315 Y17.4853
G01 X36.4573 Y17.5139
G01 X36.4620 Y17.5197
G01 X36.4855 Y17.5517
G01 X36.5074 Y17.5880
G01 X36.5109 Y17.5947
G01 X36.5277 Y17.6307
G01 X36.5428 Y17.6729
G01 X36.5532 Y17.7139
G01 X36.5546 Y17.7213
G01 X36.5605 Y17.7632
G01 X36.5625 Y17.8054
G01 X36.5625 Y22.4433
G01 X37.8213 Y22.4137
G01 X37.8215 Y22.0297
G01 X37.8231 Y22.0213
G01 X37.8261 Y22.0132
G01 X37.8297 Y22.0068
G01 X37.8351 Y22.0001
G01 X37.8415 Y21.9944
G01 X37.8488 Y21.9899
G01 X37.8568 Y21.9868
G01 X37.8640 Y21.9851
G01 X37.8713 Y21.9846
G01 X39.4713 Y21.9846
G01 X39.4810 Y21.9856
G01 X39.4904 Y21.9884
G01 X39.4970 Y21.9917
G01 X39.5021 Y21.9952
G01 X39.5075 Y22.0001
G01 X39.5122 Y22.0058
G01 X39.5160 Y22.0121
G01 X39.5188 Y22.0189
G01 X39.5206 Y22.0261
G01 X39.5213 Y22.0334
G01 X39.5213 Y23.6346
G01 X39.5206 Y23.6431
G01 X39.5188 Y23.6503
G01 X39.5160 Y23.6571
G01 X39.5115 Y23.6644
G01 X39.5075 Y23.6691
G01 X39.5030 Y23.6732
G01 X39.4991 Y23.6762
G01 X39.4938 Y23.6793
G01 X39.4893 Y23.6812
G01 X39.4834 Y23.6831
G01 X39.4774 Y23.6842
G01 X39.4713 Y23.6846
G01 X37.8713 Y23.6846
G01 X37.8652 Y23.6842
G01 X37.8580 Y23.6828
G01 X37.8499 Y23.6798
G01 X37.8425 Y23.6755
G01 X37.8359 Y23.6700
G01 X37.8304 Y23.6634
G01 X37.8261 Y23.6560
G01 X37.8235 Y23.6491
G01 X37.8217 Y23.6407
G01 X37.8213 Y23.6346
G01 X37.8213 Y23.3272
G01 X36.1166 Y23.3673
G01 X36.1047 Y23.3674
G01 X36.0718 Y23.3661
G01 X36.0599 Y23.3651
G01 X36.0274 Y23.3606
G01 X36.0156 Y23.3584
G01 X35.9860 Y23.3513
G01 X35.9734 Y23.3477
G01 X35.9423 Y23.3371
G01 X35.9312 Y23.3326
G01 X35.9013 Y23.3190
G01 X35.8896 Y23.3129
G01 X35.8623 Y23.2970
G01 X35.8512 Y23.2898
G01 X35.8246 Y23.2705
G01 X35.8153 Y23.2630
G01 X35.7925 Y23.2428
G01 X35.7822 Y23.2328
G01 X35.7599 Y23.2087
G01 X35.7522 Y23.1995
G01 X35.7330 Y23.1743
G01 X35.7256 Y23.1634
G01 X35.7096 Y23.1376
G01 X35.7026 Y23.1250
G01 X35.6888 Y23.0965
G01 X35.6841 Y23.0855
G01 X35.6722 Y23.0536
G01 X35.6686 Y23.0422
G01 X35.6606 Y23.0116
G01 X35.6578 Y22.9987
G01 X35.6528 Y22.9674
G01 X35.6515 Y22.9556
G01 X35.6494 Y22.9215
G01 X35.6493 Y17.9930
G01 X33.8962 Y16.2198
G01 X33.8799 Y16.2254
G01 X33.7845 Y16.2491
G01 X33.6896 Y16.2631
G01 X33.5888 Y16.2678
G01 X33.4930 Y16.2631
G01 X33.3957 Y16.2486
G01 X33.3003 Y16.2247
G01 X33.2077 Y16.1916
G01 X33.1187 Y16.1495
G01 X33.0343 Y16.0989
G01 X32.9553 Y16.0403
G01 X32.8842 Y15.9760
G01 X32.8164 Y15.9014
G01 X32.7592 Y15.8244
G01 X32.7078 Y15.7390
G01 X32.6996 Y15.7220
G01 X29.4030 Y15.7220
G01 X29.3948 Y15.7390
G01 X29.3434 Y15.8244
G01 X29.2862 Y15.9014
G01 X29.2202 Y15.9743
G01 X29.1473 Y16.0403
G01 X29.0703 Y16.0975
G01 X28.9817 Y16.1506
G01 X28.8949 Y16.1916
G01 X28.8023 Y16.2247
G01 X28.7069 Y16.2486
G01 X28.6120 Y16.2628
G01 X28.5088 Y16.2678
G01 X28.4130 Y16.2631
G01 X28.3157 Y16.2486
G01 X28.2203 Y16.2247
G01 X28.1277 Y16.1916
G01 X28.0387 Y16.1495
G01 X27.9543 Y16.0989
G01 X27.8753 Y16.0403
G01 X27.8024 Y15.9743
G01 X27.7364 Y15.9014
G01 X27.6764 Y15.8203
G01 X27.6272 Y15.7380
G01 X27.5842 Y15.6467
G01 X27.5520 Y15.5564
G01 X27.5286 Y15.4634
G01 X27.5139 Y15.3661
G01 X27.5088 Y15.2654
G01 X27.5136 Y15.1671
G01 X27.5281 Y15.0698
G01 X27.5514 Y14.9766
G00 Z2.0000
G00 X24.3838 Y14.2629
G01 F60.00
G01 Z0.0000
G01 F120.00
G01 X24.3935 Y14.2639
G01 X24.4029 Y14.2667
G01 X24.4116 Y14.2713
G01 X24.4191 Y14.2775
G01 X24.4254 Y14.2851
G01 X24.4295 Y14.2926
G01 X24.4326 Y14.3019
G01 X24.4338 Y14.3117
G01 X24.4338 Y16.2179
G01 X24.4328 Y16.2277
G01 X24.4300 Y16.2370
G01 X24.4260 Y16.2446
G01 X24.4200 Y16.2524
G01 X24.4126 Y16.2588
G01 X24.4041 Y16.2636
G01 X24.3947 Y16.2667
G01 X24.3887 Y16.2677
G01 X24.3838 Y16.2679
G01 X22.4788 Y16.2679
G01 X22.4690 Y16.2669
G01 X22.4597 Y16.2641
G01 X22.4520 Y16.2601
G01 X22.4443 Y16.2541
G01 X22.4379 Y16.2467
G01 X22.4331 Y16.2382
G01 X22.4300 Y16.2289
G01 X22.4290 Y16.2228
G01 X22.4288 Y16.2179
G01 X22.4288 Y14.3129
G01 X22.4295 Y14.3044
G01 X22.4321 Y14.2949
G01 X22.4366 Y14.2862
G01 X22.4426 Y14.2784
G01 X22.4471 Y14.2743
G01 X22.4510 Y14.2713
G01 X22.4597 Y14.2667
G01 X22.4690 Y14.2639
G01 X22.4788 Y14.2629
G01 X24.3838 Y14.2629
G00 Z2.0000
G00 X20.4602 Y7.6166
G01 F60.00
G01 Z0.0000
G01 F120.00
G01 X20.4624 Y7.5741
G01 X20.4687 Y7.5322
G01 X20.4706 Y7.5231
G01 X20.4814 Y7.4821
G01 X20.4953 Y7.4442
G01 X20.5140 Y7.4048
G01 X20.5173 Y7.3988
G01 X20.5364 Y7.3675
G01 X20.5416 Y7.3597
G01 X20.5673 Y7.3261
G01 X20.5946 Y7.2963
G01 X20.6279 Y7.2663
G01 X20.6620 Y7.2411
G01 X20.6698 Y7.2360
G01 X20.7014 Y7.2174
G01 X20.7075 Y7.2142
G01 X20.7430 Y7.1977
G01 X20.7841 Y7.1831
G01 X20.7907 Y7.1811
G01 X20.8263 Y7.1725
G01 X20.8355 Y7.1707
G01 X20.8775 Y7.1651
G01 X20.9178 Y7.1634
G01 X22.5422 Y7.1832
G01 X22.5484 Y7.1707
G01 X22.5978 Y7.0884
G01 X22.6580 Y7.0076
G01 X22.7224 Y6.9365
G01 X22.7935 Y6.8721
G01 X22.8764 Y6.8105
G01 X22.9587 Y6.7613
G01 X23.0454 Y6.7202
G01 X23.1403 Y6.6861
G01 X23.2381 Y6.6617
G01 X23.3330 Y6.6477
G01 X23.4301 Y6.6429
G01 X23.5296 Y6.6477
G01 X23.6269 Y6.6622
G01 X23.7223 Y6.6861
G01 X23.8126 Y6.7183
G01 X23.9060 Y6.7625
G01 X23.9883 Y6.8119
G01 X24.0691 Y6.8721
G01 X24.1402 Y6.9365
G01 X24.2062 Y7.0094
G01 X24.2648 Y7.0884
G01 X24.3154 Y7.1728
G01 X24.3575 Y7.2618
G01 X24.3906 Y7.3544
G01 X24.4145 Y7.4498
G01 X24.4290 Y7.5471
G01 X24.4338 Y7.6454
G01 X24.4290 Y7.7437
G01 X24.4145 Y7.8410
G01 X24.3906 Y7.9364
G01 X24.3575 Y8.0290
G01 X24.3154 Y8.1180
G01 X24.2648 Y8.2024
G01 X24.2077 Y8.2794
G01 X24.1402 Y8.3543
G01 X24.0691 Y8.4187
G01 X23.9862 Y8.4803
G01 X23.9039 Y8.5295
G01 X23.8149 Y8.5716
G01 X23.7223 Y8.6047
G01 X23.6257 Y8.6289
G01 X23.5296 Y8.6431
G01 X23.4313 Y8.6479
G01 X23.3330 Y8.6431
G01 X23.2381 Y8.6291
G01 X23.1380 Y8.6040
G01 X23.0477 Y8.5716
G01 X22.9598 Y8.5301
G01 X22.8723 Y8.4775
G01 X22.7953 Y8.4203
G01 X22.7216 Y8.3534
G01 X22.6564 Y8.2814
G01 X22.5984 Y8.2034
G01 X22.5478 Y8.1190
G01 X22.5369 Y8.0964
G01 X21.3721 Y8.0822
G01 X21.3484 Y17.6141
G01 X23.6441 Y19.8643
G01 X28.5148 Y19.8888
G01 X28.5583 Y19.8912
G01 X28.6026 Y19.8980
G01 X28.6438 Y19.9085
G01 X28.6860 Y19.9236
G01 X28.7265 Y19.9427
G01 X28.7650 Y19.9658
G01 X28.8010 Y19.9924
G01 X28.8333 Y20.0217
G01 X31.4013 Y22.5897
G01 X31.4297 Y22.6211
G01 X31.4563 Y22.6571
G01 X31.4794 Y22.6956
G01 X31.4985 Y22.7361
G01 X31.5136 Y22.7783
G01 X31.5245 Y22.8217
G01 X31.5311 Y22.8660
G01 X31.5333 Y22.9108
G01 X31.5103 Y27.0748
G01 X31.5260 Y27.0825
G01 X31.6103 Y27.1333
G01 X31.6873 Y27.1905
G01 X31.7602 Y27.2565
G01 X31.8262 Y27.3294
G01 X31.8834 Y27.4064
G01 X31.9348 Y27.4918
G01 X31.9430 Y27.5088
G01 X37.4400 Y27.5088
G01 X37.4572 Y27.4612
G01 X37.5124 Y27.3446
G01 X37.5782 Y27.2350
G01 X37.6558 Y27.1304
G01 X37.7417 Y27.0358
G01 X37.8373 Y26.9491
G01 X37.9409 Y26.8723
G01 X38.0505 Y26.8065
G01 X38.1682 Y26.7508
G01 X38.2873 Y26.7081
G01 X38.4172 Y26.6755
G01 X38.5424 Y26.6570
G01 X38.6713 Y26.6507
G01 X38.8002 Y26.6570
G01 X38.9278 Y26.6760
G01 X39.0553 Y26.7081
G01 X39.1744 Y26.7508
G01 X39.2910 Y26.8059
G01 X39.4037 Y26.8737
G01 X39.5053 Y26.9491
G01 X39.5992 Y27.0341
G01 X39.6876 Y27.1314
G01 X39.7657 Y27.2371
G01 X39.8308 Y27.3457
G01 X39.8849 Y27.4600
G01 X39.9300 Y27.5861
G01 X39.9607 Y27.7089
G01 X39.9794 Y27.8341
G01 X39.9860 Y27.9654
G01 X39.9797 Y28.0943
G01 X39.9612 Y28.2195
G01 X39.9294 Y28.3470
G01 X39.8859 Y28.4685
G01 X39.8319 Y28.5830
G01 X39.7644 Y28.6958
G01 X39.6860 Y28.8013
G01 X39.6009 Y28.8950
G01 X39.5072 Y28.9801
G01 X39.4017 Y29.0585
G01 X39.2889 Y29.1260
G01 X39.1744 Y29.1800
G01 X39.0553 Y29.2227
G01 X38.9278 Y29.2548
G01 X38.8002 Y29.2738
G01 X38.6688 Y29.2800
G01 X38.5424 Y29.2738
G01 X38.4172 Y29.2553
G01 X38.2908 Y29.2238
G01 X38.1682 Y29.1800
G01 X38.0494 Y29.1237
G01 X37.9409 Y29.0585
G01 X37.8392 Y28.9832
G01 X37.7425 Y28.8959
G01 X37.6550 Y28.7994
G01 X37.5775 Y28.6948
G01 X37.5113 Y28.5841
G01 X37.4572 Y28.4696
G01 X37.4400 Y28.4220
G01 X31.9430 Y28.4220
G01 X31.9348 Y28.4390
G01 X31.8848 Y28.5224
G01 X31.8262 Y28.6014
G01 X31.7602 Y28.6743
G01 X31.6873 Y28.7403
G01 X31.6083 Y28.7989
G01 X31.5239 Y28.8495
G01 X31.4349 Y28.8916
G01 X31.3423 Y28.9247
G01 X31.2469 Y28.9486
G01 X31.1496 Y28.9631
G01 X31.0513 Y28.9679
G01 X30.9530 Y28.9631
G01 X30.8557 Y28.9486
G01 X30.7603 Y28.9247
G01 X30.6677 Y28.8916
G01 X30.5776 Y28.8489
G01 X30.4943 Y28.7989
G01 X30.4173 Y28.7419
G01 X30.3424 Y28.6743
G01 X30.2748 Y28.5994
G01 X30.2178 Y28.5224
G01 X30.1684 Y28.4401
G01 X30.1251 Y28.3490
G01 X30.0913 Y28.2540
G01 X30.0681 Y28.1610
G01 X30.0539 Y28.0661
G01 X30.0488 Y27.9654
G01 X30.0536 Y27.8671
G01 X30.0676 Y27.7722
G01 X30.0920 Y27.6744
G01 X30.1261 Y27.5795
G01 X30.1672 Y27.4928
G01 X30.2164 Y27.4105
G01 X30.2780 Y27.3276
G01 X30.3424 Y27.2565
G01 X30.4135 Y27.1921
G01 X30.4943 Y27.1319
G01 X30.5776 Y27.0819
G01 X30.5971 Y27.0725
G01 X30.6190 Y23.0989
G01 X28.3212 Y20.8011
G01 X23.4544 Y20.7766
G01 X23.4177 Y20.7749
G01 X23.4097 Y20.7742
G01 X23.3733 Y20.7689
G01 X23.3630 Y20.7668
G01 X23.3285 Y20.7582
G01 X23.3208 Y20.7559
G01 X23.2885 Y20.7444
G01 X23.2787 Y20.7405
G01 X23.2466 Y20.7254
G01 X23.2384 Y20.7210
G01 X23.2089 Y20.7035
G01 X23.2001 Y20.6977
G01 X23.1715 Y20.6766
G01 X23.1653 Y20.6715
G01 X23.1371 Y20.6461
G01 X20.5717 Y18.1315
G01 X20.5668 Y18.1266
G01 X20.5421 Y18.0995
G01 X20.5369 Y18.0932
G01 X20.5142 Y18.0629
G01 X20.5103 Y18.0571
G01 X20.4920 Y18.0268
G01 X20.4870 Y18.0174
G01 X20.4717 Y17.9855
G01 X20.4686 Y17.9779
G01 X20.4561 Y17.9435
G01 X20.4540 Y17.9369
G01 X20.4446 Y17.9001
G01 X20.4432 Y17.8934
G01 X20.4374 Y17.8547
G01 X20.4367 Y17.8478
G01 X20.4347 Y17.8100
G01 X20.4602 Y7.6166
G00 Z2.0000
G00 X36.1754 Y10.6144
G01 F60.00
G01 Z0.0000
G01 F120.00
G01 X36.1322 Y10.6166
G01 X24.3235 Y10.6410
G01 X24.3148 Y10.6590
G01 X24.2648 Y10.7424
G01 X24.2046 Y10.8232
G01 X24.1402 Y10.8943
G01 X24.0691 Y10.9587
G01 X23.9862 Y11.0203
G01 X23.9039 Y11.0695
G01 X23.8172 Y11.1106
G01 X23.7223 Y11.1447
G01 X23.6269 Y11.1686
G01 X23.5320 Y11.1828
G01 X23.4301 Y11.1879
G01 X23.3330 Y11.1831
G01 X23.2357 Y11.1686
G01 X23.1403 Y11.1447
G01 X23.0477 Y11.1116
G01 X22.9587 Y11.0695
G01 X22.8743 Y11.0189
G01 X22.7953 Y10.9603
G01 X22.7224 Y10.8943
G01 X22.6564 Y10.8214
G01 X22.5978 Y10.7424
G01 X22.5472 Y10.6580
G01 X22.5051 Y10.5690
G01 X22.4720 Y10.4764
G01 X22.4481 Y10.3810
G01 X22.4336 Y10.2837
G01 X22.4288 Y10.1842
G01 X22.4336 Y10.0871
G01 X22.4481 Y9.9898
G01 X22.4720 Y9.8944
G01 X22.5051 Y9.8018
G01 X22.5472 Y9.7128
G01 X22.5978 Y9.6284
G01 X22.6564 Y9.5494
G01 X22.7224 Y9.4765
G01 X22.7953 Y9.4105
G01 X22.8743 Y9.3519
G01 X22.9587 Y9.3013
G01 X23.0477 Y9.2592
G01 X23.1403 Y9.2261
G01 X23.2357 Y9.2022
G01 X23.3330 Y9.1877
G01 X23.4301 Y9.1829
G01 X23.5320 Y9.1880
G01 X23.6269 Y9.2022
G01 X23.7223 Y9.2261
G01 X23.8172 Y9.2602
G01 X23.9039 Y9.3013
G01 X23.9862 Y9.3505
G01 X24.0691 Y9.4121
G01 X24.1402 Y9.4765
G01 X24.2046 Y9.5476
G01 X24.2648 Y9.6284
G01 X24.3148 Y9.7118
G01 X24.3226 Y9.7278
G01 X35.9431 Y9.7038
G01 X38.2378 Y7.4318
G01 X38.2203 Y5.9998
G01 X38.1976 Y5.9889
G01 X38.1133 Y5.9383
G01 X38.0353 Y5.8803
G01 X37.9616 Y5.8134
G01 X37.8964 Y5.7414
G01 X37.8378 Y5.6624
G01 X37.7872 Y5.5780
G01 X37.7456 Y5.4902
G01 X37.7120 Y5.3964
G01 X37.6886 Y5.3034
G01 X37.6734 Y5.2012
G01 X37.6688 Y5.1054
G01 X37.6736 Y5.0071
G01 X37.6881 Y4.9098
G01 X37.7113 Y4.8168
G01 X37.7451 Y4.7218
G01 X37.7872 Y4.6328
G01 X37.8378 Y4.5484
G01 X37.8964 Y4.4694
G01 X37.9624 Y4.3965
G01 X38.0353 Y4.3305
G01 X38.1143 Y4.2719
G01 X38.2009 Y4.2202
G01 X38.2877 Y4.1792
G01 X38.3827 Y4.1454
G01 X38.4757 Y4.1222
G01 X38.5706 Y4.1080
G01 X38.6688 Y4.1030
G01 X38.7696 Y4.1077
G01 X38.8669 Y4.1222
G01 X38.9623 Y4.1461
G01 X39.0561 Y4.1797
G01 X39.1439 Y4.2213
G01 X39.2262 Y4.2705
G01 X39.3073 Y4.3305
G01 X39.3802 Y4.3965
G01 X39.4446 Y4.4676
G01 X39.5048 Y4.5484
G01 X39.5565 Y4.6350
G01 X39.5975 Y4.7218
G01 X39.6306 Y4.8144
G01 X39.6550 Y4.9122
G01 X39.6690 Y5.0071
G01 X39.6738 Y5.1042
G01 X39.6687 Y5.2061
G01 X39.6545 Y5.3010
G01 X39.6306 Y5.3964
G01 X39.5965 Y5.4913
G01 X39.5554 Y5.5780
G01 X39.5062 Y5.6603
G01 X39.4446 Y5.7432
G01 X39.3802 Y5.8143
G01 X39.3091 Y5.8787
G01 X39.2283 Y5.9389
G01 X39.1460 Y5.9883
G01 X39.1335 Y5.9945
G01 X39.1533 Y7.6223
G01 X39.1517 Y7.6580
G01 X39.1509 Y7.6670
G01 X39.1458 Y7.7024
G01 X39.1441 Y7.7113
G01 X39.1355 Y7.7460
G01 X39.1330 Y7.7547
G01 X39.1211 Y7.7884
G01 X39.1172 Y7.7980
G01 X39.1025 Y7.8292
G01 X39.0983 Y7.8372
G01 X39.0801 Y7.8680
G01 X39.0751 Y7.8756
G01 X39.0532 Y7.9053
G01 X39.0474 Y7.9124
G01 X39.0235 Y7.9389
G01 X36.4517 Y10.4853
G01 X36.4192 Y10.5144
G01 X36.3858 Y10.5391
G01 X36.3474 Y10.5622
G01 X36.3091 Y10.5805
G01 X36.3028 Y10.5832
G01 X36.2671 Y10.5959
G01 X36.2593 Y10.5982
G01 X36.2181 Y10.6083
G01 X36.1754 Y10.6144
G00 Z2.0000
G00 X5.1693 Y25.4250
G01 F60.00
G01 Z0.0000
G01 F120.00
G01 X5.1713 Y25.3823
G01 X5.1777 Y25.3380
G01 X5.1885 Y25.2945
G01 X5.2034 Y25.2522
G01 X5.2224 Y25.2116
G01 X5.2453 Y25.1731
G01 X5.2719 Y25.1370
G01 X5.3010 Y25.1046
G01 X7.1888 Y23.2379
G01 X7.1888 Y21.9317
G01 X7.1900 Y21.9219
G01 X7.1913 Y21.9172
G01 X7.1936 Y21.9115
G01 X7.1959 Y21.9072
G01 X7.1994 Y21.9021
G01 X7.2061 Y21.8950
G01 X7.2131 Y21.8900
G01 X7.2208 Y21.8863
G01 X7.2290 Y21.8839
G01 X7.2388 Y21.8829
G01 X9.1438 Y21.8829
G01 X9.1535 Y21.8839
G01 X9.1583 Y21.8851
G01 X9.1641 Y21.8872
G01 X9.1684 Y21.8894
G01 X9.1736 Y21.8927
G01 X9.1774 Y21.8959
G01 X9.1817 Y21.9002
G01 X9.1867 Y21.9072
G01 X9.1904 Y21.9149
G01 X9.1931 Y21.9244
G01 X9.1938 Y21.9329
G01 X9.1938 Y23.8379
G01 X9.1931 Y23.8464
G01 X9.1909 Y23.8547
G01 X9.1873 Y23.8625
G01 X9.1824 Y23.8696
G01 X9.1783 Y23.8741
G01 X9.1746 Y23.8773
G01 X9.1695 Y23.8808
G01 X9.1652 Y23.8831
G01 X9.1559 Y23.8864
G01 X9.1511 Y23.8874
G01 X9.1450 Y23.8879
G01 X7.8303 Y23.8879
G01 X6.0832 Y25.6153
G01 X6.1061 Y31.8134
G01 X6.1555 Y31.8313
G01 X6.2721 Y31.8865
G01 X6.3817 Y31.9523
G01 X6.4844 Y32.0284
G01 X6.5826 Y32.1175
G01 X6.6676 Y32.2114
G01 X6.7437 Y32.3140
G01 X6.8119 Y32.4278
G01 X6.8659 Y32.5423
G01 X6.9094 Y32.6638
G01 X6.9407 Y32.7889
G01 X6.9594 Y32.9141
G01 X6.9660 Y33.0466
G01 X6.9597 Y33.1743
G01 X6.9407 Y33.3019
G01 X6.9094 Y33.4270
G01 X6.8659 Y33.5485
G01 X6.8108 Y33.6651
G01 X6.7444 Y33.7758
G01 X6.6676 Y33.8794
G01 X6.5826 Y33.9733
G01 X6.4853 Y34.0617
G01 X6.3837 Y34.1371
G01 X6.2689 Y34.2060
G01 X6.1544 Y34.2600
G01 X6.0329 Y34.3035
G01 X5.9078 Y34.3348
G01 X5.7789 Y34.3539
G01 X5.6513 Y34.3601
G01 X5.5224 Y34.3538
G01 X5.3948 Y34.3348
G01 X5.2697 Y34.3035
G01 X5.1482 Y34.2600
G01 X5.0316 Y34.2049
G01 X4.9209 Y34.1385
G01 X4.8173 Y34.0617
G01 X4.7217 Y33.9750
G01 X4.6350 Y33.8794
G01 X4.5582 Y33.7758
G01 X4.4918 Y33.6651
G01 X4.4367 Y33.5485
G01 X4.3932 Y33.4270
G01 X4.3619 Y33.3019
G01 X4.3428 Y33.1730
G01 X4.3366 Y33.0454
G01 X4.3429 Y32.9165
G01 X4.3619 Y32.7889
G01 X4.3926 Y32.6661
G01 X4.4377 Y32.5400
G01 X4.4918 Y32.4257
G01 X4.5575 Y32.3160
G01 X4.6350 Y32.2114
G01 X4.7200 Y32.1175
G01 X4.8182 Y32.0284
G01 X4.9209 Y31.9523
G01 X5.0305 Y31.8865
G01 X5.1471 Y31.8313
G01 X5.1929 Y31.8147
G01 X5.1693 Y25.4250
G00 Z2.0000
G00 X2.6293 Y20.3189
G01 F60.00
G01 Z0.0000
G01 F120.00
G01 X2.6315 Y20.2752
G01 X2.6381 Y20.2309
G01 X2.6490 Y20.1875
G01 X2.6641 Y20.1453
G01 X2.6832 Y20.1048
G01 X2.7062 Y20.0663
G01 X2.7329 Y20.0303
G01 X2.7630 Y19.9971
G01 X7.8700 Y14.9409
G01 X7.9034 Y14.9110
G01 X7.9406 Y14.8838
G01 X7.9761 Y14.8627
G01 X8.0143 Y14.8446
G01 X8.0210 Y14.8418
G01 X8.0588 Y14.8285
G01 X8.0998 Y14.8181
G01 X8.1069 Y14.8167
G01 X8.1465 Y14.8110
G01 X8.1888 Y14.8089
G01 X9.8396 Y14.8088
G01 X9.8478 Y14.7918
G01 X9.8978 Y14.7084
G01 X9.9580 Y14.6276
G01 X10.0224 Y14.5565
G01 X10.0935 Y14.4921
G01 X10.1764 Y14.4305
G01 X10.2587 Y14.3813
G01 X10.3454 Y14.3402
G01 X10.4403 Y14.3061
G01 X10.5381 Y14.2817
G01 X10.6330 Y14.2677
G01 X10.7288 Y14.2630
G01 X10.8296 Y14.2677
G01 X10.9293 Y14.2827
G01 X11.0223 Y14.3061
G01 X11.1126 Y14.3383
G01 X11.2039 Y14.3813
G01 X11.2903 Y14.4333
G01 X11.3673 Y14.4905
G01 X11.4384 Y14.5548
G01 X11.5062 Y14.6294
G01 X11.5655 Y14.7095
G01 X11.6154 Y14.7928
G01 X11.6584 Y14.8841
G01 X11.6906 Y14.9744
G01 X11.7140 Y15.0674
G01 X11.7287 Y15.1647
G01 X11.7338 Y15.2654
G01 X11.7290 Y15.3637
G01 X11.7145 Y15.4610
G01 X11.6899 Y15.5587
G01 X11.6575 Y15.6490
G01 X11.6165 Y15.7358
G01 X11.5662 Y15.8203
G01 X11.5062 Y15.9014
G01 X11.4402 Y15.9743
G01 X11.3673 Y16.0403
G01 X11.2862 Y16.1003
G01 X11.2039 Y16.1495
G01 X11.1172 Y16.1906
G01 X11.0235 Y16.2244
G01 X10.9269 Y16.2486
G01 X10.8320 Y16.2628
G01 X10.7288 Y16.2678
G01 X10.6330 Y16.2631
G01 X10.5357 Y16.2486
G01 X10.4403 Y16.2247
G01 X10.3477 Y16.1916
G01 X10.2587 Y16.1495
G01 X10.1743 Y16.0989
G01 X10.0953 Y16.0403
G01 X10.0242 Y15.9760
G01 X9.9564 Y15.9014
G01 X9.8992 Y15.8244
G01 X9.8478 Y15.7390
G01 X9.8396 Y15.7220
G01 X8.3791 Y15.7220
G01 X3.5425 Y20.5105
G01 X3.5425 Y35.3709
G01 X5.1035 Y36.9318
G01 X5.1493 Y36.9103
G01 X5.2708 Y36.8670
G01 X5.3948 Y36.8360
G01 X5.5212 Y36.8172
G01 X5.6538 Y36.8108
G01 X5.7802 Y36.8170
G01 X5.9066 Y36.8357
G01 X6.0353 Y36.8681
G01 X6.1544 Y36.9108
G01 X6.2710 Y36.9659
G01 X6.3817 Y37.0323
G01 X6.4834 Y37.1076
G01 X6.5809 Y37.1958
G01 X6.6676 Y37.2914
G01 X6.7430 Y37.3930
G01 X6.8108 Y37.5057
G01 X6.8659 Y37.6223
G01 X6.9086 Y37.7414
G01 X6.9410 Y37.8701
G01 X6.9597 Y37.9965
G01 X6.9659 Y38.1229
G01 X6.9595 Y38.2555
G01 X6.9407 Y38.3819
G01 X6.9097 Y38.5059
G01 X6.8664 Y38.6274
G01 X6.8434 Y38.6763
G01 X8.3563 Y40.2084
G01 X20.4370 Y40.1843
G01 X20.4591 Y35.7482
G01 X18.1898 Y33.4789
G01 X16.7056 Y33.4965
G01 X16.6948 Y33.5190
G01 X16.6455 Y33.6013
G01 X16.5854 Y33.6823
G01 X16.5184 Y33.7560
G01 X16.4473 Y33.8203
G01 X16.3693 Y33.8783
G01 X16.2839 Y33.9295
G01 X16.1926 Y33.9725
G01 X16.1023 Y34.0047
G01 X16.0093 Y34.0281
G01 X15.9108 Y34.0429
G01 X15.8113 Y34.0479
G01 X15.7130 Y34.0431
G01 X15.6157 Y34.0286
G01 X15.5203 Y34.0047
G01 X15.4277 Y33.9716
G01 X15.3387 Y33.9295
G01 X15.2543 Y33.8789
G01 X15.1763 Y33.8211
G01 X15.1007 Y33.7525
G01 X15.0364 Y33.6814
G01 X14.9778 Y33.6024
G01 X14.9272 Y33.5180
G01 X14.8861 Y33.4313
G01 X14.8520 Y33.3364
G01 X14.8281 Y33.2410
G01 X14.8139 Y33.1461
G01 X14.8088 Y33.0454
G01 X14.8136 Y32.9471
G01 X14.8276 Y32.8522
G01 X14.8527 Y32.7521
G01 X14.8851 Y32.6618
G01 X14.9272 Y32.5728
G01 X14.9778 Y32.4884
G01 X15.0348 Y32.4114
G01 X15.1042 Y32.3348
G01 X15.1753 Y32.2705
G01 X15.2523 Y32.2133
G01 X15.3409 Y32.1602
G01 X15.4277 Y32.1192
G01 X15.5203 Y32.0861
G01 X15.6181 Y32.0617
G01 X15.7130 Y32.0477
G01 X15.8088 Y32.0430
G01 X15.9120 Y32.0480
G01 X16.0069 Y32.0622
G01 X16.1023 Y32.0861
G01 X16.1972 Y32.1202
G01 X16.2839 Y32.1613
G01 X16.3662 Y32.2105
G01 X16.4491 Y32.2721
G01 X16.5202 Y32.3365
G01 X16.5846 Y32.4076
G01 X16.6448 Y32.4884
G01 X16.6942 Y32.5707
G01 X16.7005 Y32.5833
G01 X18.3779 Y32.5634
G01 X18.4160 Y32.5651
G01 X18.4227 Y32.5657
G01 X18.4580 Y32.5708
G01 X18.4670 Y32.5724
G01 X18.5040 Y32.5815
G01 X18.5104 Y32.5834
G01 X18.5441 Y32.5952
G01 X18.5526 Y32.5986
G01 X18.5871 Y32.6148
G01 X18.5930 Y32.6179
G01 X18.6237 Y32.6361
G01 X18.6314 Y32.6410
G01 X18.6621 Y32.6636
G01 X18.6673 Y32.6678
G01 X18.6939 Y32.6916
G01 X18.6996 Y32.6971
G01 X21.2396 Y35.2371
G01 X21.2697 Y35.2703
G01 X21.2963 Y35.3063
G01 X21.3182 Y35.3426
G01 X21.3215 Y35.3490
G01 X21.3394 Y35.3874
G01 X21.3536 Y35.4275
G01 X21.3640 Y35.4685
G01 X21.3654 Y35.4756
G01 X21.3713 Y35.5175
G01 X21.3733 Y35.5600
G01 X21.3502 Y40.1834
G01 X25.7848 Y40.1834
G01 X28.2171 Y37.7993
G01 X28.2461 Y37.7732
G01 X28.2525 Y37.7681
G01 X28.2830 Y37.7458
G01 X28.3193 Y37.7239
G01 X28.3266 Y37.7200
G01 X28.3620 Y37.7036
G01 X28.4018 Y37.6892
G01 X28.4097 Y37.6868
G01 X28.4476 Y37.6776
G01 X28.4895 Y37.6713
G01 X28.4977 Y37.6705
G01 X28.5355 Y37.6688
G01 X30.1596 Y37.6688
G01 X30.1678 Y37.6518
G01 X30.2178 Y37.5684
G01 X30.2780 Y37.4876
G01 X30.3424 Y37.4165
G01 X30.4135 Y37.3521
G01 X30.4943 Y37.2919
G01 X30.5809 Y37.2402
G01 X30.6677 Y37.1992
G01 X30.7580 Y37.1668
G01 X30.8557 Y37.1422
G01 X30.9543 Y37.1276
G01 X31.0513 Y37.1229
G01 X31.1471 Y37.1275
G01 X31.2469 Y37.1422
G01 X31.3446 Y37.1668
G01 X31.4349 Y37.1992
G01 X31.5239 Y37.2413
G01 X31.6083 Y37.2919
G01 X31.6853 Y37.3489
G01 X31.7602 Y37.4165
G01 X31.8262 Y37.4894
G01 X31.8834 Y37.5664
G01 X31.9348 Y37.6518
G01 X31.9430 Y37.6688
G01 X37.4400 Y37.6688
G01 X37.4572 Y37.6212
G01 X37.5124 Y37.5046
G01 X37.5782 Y37.3950
G01 X37.6558 Y37.2904
G01 X37.7417 Y37.1958
G01 X37.8373 Y37.1091
G01 X37.9409 Y37.0323
G01 X38.0505 Y36.9665
G01 X38.1682 Y36.9108
G01 X38.2873 Y36.8681
G01 X38.4172 Y36.8355
G01 X38.5424 Y36.8170
G01 X38.6713 Y36.8107
G01 X38.8002 Y36.8170
G01 X38.9266 Y36.8357
G01 X39.0529 Y36.8673
G01 X39.1767 Y36.9118
G01 X39.2932 Y36.9671
G01 X39.4017 Y37.0323
G01 X39.5034 Y37.1076
G01 X39.6009 Y37.1958
G01 X39.6876 Y37.2914
G01 X39.7644 Y37.3950
G01 X39.8319 Y37.5078
G01 X39.8859 Y37.6223
G01 X39.9286 Y37.7414
G01 X39.9602 Y37.8665
G01 X39.9797 Y37.9965
G01 X39.9860 Y38.1254
G01 X39.9797 Y38.2543
G01 X39.9602 Y38.3843
G01 X39.9294 Y38.5070
G01 X39.8868 Y38.6262
G01 X39.8313 Y38.7441
G01 X39.7630 Y38.8578
G01 X39.6876 Y38.9594
G01 X39.6009 Y39.0550
G01 X39.5034 Y39.1432
G01 X39.4017 Y39.2185
G01 X39.2932 Y39.2837
G01 X39.1744 Y39.3400
G01 X39.0506 Y39.3841
G01 X38.9278 Y39.4148
G01 X38.8026 Y39.4335
G01 X38.6701 Y39.4401
G01 X38.5424 Y39.4338
G01 X38.4172 Y39.4153
G01 X38.2897 Y39.3835
G01 X38.1682 Y39.3400
G01 X38.0537 Y39.2860
G01 X37.9399 Y39.2178
G01 X37.8373 Y39.1417
G01 X37.7434 Y39.0567
G01 X37.6543 Y38.9585
G01 X37.5782 Y38.8558
G01 X37.5124 Y38.7462
G01 X37.4572 Y38.6296
G01 X37.4400 Y38.5820
G01 X31.9430 Y38.5820
G01 X31.9348 Y38.5990
G01 X31.8848 Y38.6824
G01 X31.8246 Y38.7632
G01 X31.7602 Y38.8343
G01 X31.6891 Y38.8987
G01 X31.6062 Y38.9603
G01 X31.5239 Y39.0095
G01 X31.4372 Y39.0506
G01 X31.3423 Y39.0847
G01 X31.2445 Y39.1091
G01 X31.1496 Y39.1231
G01 X31.0513 Y39.1279
G01 X30.9506 Y39.1228
G01 X30.8557 Y39.1086
G01 X30.7603 Y39.0847
G01 X30.6654 Y39.0506
G01 X30.5787 Y39.0095
G01 X30.4964 Y38.9603
G01 X30.4135 Y38.8987
G01 X30.3424 Y38.8343
G01 X30.2780 Y38.7632
G01 X30.2178 Y38.6824
G01 X30.1678 Y38.5990
G01 X30.1596 Y38.5820
G01 X28.7232 Y38.5820
G01 X26.2900 Y40.9669
G01 X26.2574 Y40.9958
G01 X26.2250 Y41.0196
G01 X26.1865 Y41.0427
G01 X26.1472 Y41.0614
G01 X26.1395 Y41.0644
G01 X26.1038 Y41.0769
G01 X26.0628 Y41.0873
G01 X26.0535 Y41.0891
G01 X26.0173 Y41.0943
G01 X26.0103 Y41.0949
G01 X25.9713 Y41.0966
G01 X20.8918 Y41.0966
G01 X8.1668 Y41.1220
G01 X8.1183 Y41.1195
G01 X8.0801 Y41.1138
G01 X8.0716 Y41.1121
G01 X8.0342 Y41.1026
G01 X7.9943 Y41.0885
G01 X7.9874 Y41.0856
G01 X7.9526 Y41.0691
G01 X7.9460 Y41.0655
G01 X7.9151 Y41.0469
G01 X7.9078 Y41.0420
G01 X7.8740 Y41.0165
G01 X7.8437 Y40.9889
G01 X6.1960 Y39.3204
G01 X6.1533 Y39.3405
G01 X6.0318 Y39.3838
G01 X5.9078 Y39.4148
G01 X5.7814 Y39.4336
G01 X5.6488 Y39.4400
G01 X5.5224 Y39.4338
G01 X5.3960 Y39.4151
G01 X5.2673 Y39.3827
G01 X5.1482 Y39.3400
G01 X5.0316 Y39.2849
G01 X4.9209 Y39.2185
G01 X4.8192 Y39.1432
G01 X4.7217 Y39.0550
G01 X4.6350 Y38.9594
G01 X4.5596 Y38.8578
G01 X4.4918 Y38.7451
G01 X4.4367 Y38.6285
G01 X4.3940 Y38.5094
G01 X4.3616 Y38.3807
G01 X4.3429 Y38.2543
G01 X4.3367 Y38.1279
G01 X4.3431 Y37.9953
G01 X4.3619 Y37.8689
G01 X4.3929 Y37.7449
G01 X4.4362 Y37.6234
G01 X4.4577 Y37.5776
G01 X2.7622 Y35.8820
G01 X2.7314 Y35.8477
G01 X2.7062 Y35.8137
G01 X2.6844 Y35.7774
G01 X2.6641 Y35.7347
G01 X2.6483 Y35.6902
G01 X2.6381 Y35.6491
G01 X2.6318 Y35.6072
G01 X2.6293 Y35.5600
G01 X2.6293 Y20.3189
G00 Z2.0000
M05
G00 Z2.0000
G00 Z15.00


