(G-CODE GENERATED BY FLATCAM v8.994 - www.flatcam.org - Version Date: 2020/11/7)

(Name: RECEPTOR AM_drill.txt_cnc)
(Type: G-code from Geometry)
(Units: MM)

(Created on Wednesday, 11 September 2024 at 08:44)

(This preprocessor is the default preprocessor used by FlatCAM.)
(It is made to work with MACH3 compatible motion controllers.)


(TOOLS DIAMETER: )
(Tool: 1 -> Dia: 0.889)
(Tool: 2 -> Dia: 0.8000237999999998)
(Tool: 3 -> Dia: 1.4710918)
(Tool: 4 -> Dia: 1.016)

(FEEDRATE Z: )
(Tool: 1 -> Feedrate: 300)
(Tool: 2 -> Feedrate: 300)
(Tool: 3 -> Feedrate: 300)
(Tool: 4 -> Feedrate: 300)

(FEEDRATE RAPIDS: )
(Tool: 1 -> Feedrate Rapids: 1500)
(Tool: 2 -> Feedrate Rapids: 1500)
(Tool: 3 -> Feedrate Rapids: 1500)
(Tool: 4 -> Feedrate Rapids: 1500)

(Z_CUT: )
(Tool: 1 -> Z_Cut: -1.4)
(Tool: 2 -> Z_Cut: -1.4)
(Tool: 3 -> Z_Cut: -1.4)
(Tool: 4 -> Z_Cut: -1.4)

(Tools Offset: )
(Tool: 1 -> Offset Z: 0.0)
(Tool: 2 -> Offset Z: 0.0)
(Tool: 3 -> Offset Z: 0.0)
(Tool: 4 -> Offset Z: 0.0)

(Z_MOVE: )
(Tool: 1 -> Z_Move: 2)
(Tool: 2 -> Z_Move: 2)
(Tool: 3 -> Z_Move: 2)
(Tool: 4 -> Z_Move: 2)

(Z Toolchange: 15 mm)
(X,Y Toolchange: 0.0000, 0.0000 mm)
(Z Start: None mm)
(Z End: 0.5 mm)
(X,Y End: None mm)
(Steps per circle: 64)
(Preprocessor Excellon: default)

(X range:    2.6445 ...   39.3845  mm)
(Y range:    4.6533 ...   38.8609  mm)

(Spindle Speed: 0 RPM)
G21
G90
G94

G01 F300.00

M5
G00 Z15.0000
T1
G00 X0.0000 Y0.0000                
M6
(MSG, Change to Tool Dia = 0.8890 ||| Total drills for tool T1 = 42)
M0
G00 Z15.0000

G01 F300.00
M03
G00 X10.7090 Y5.0978
G01 Z-1.4000
G01 Z0
G00 Z2.0000
G00 X15.7890 Y7.6378
G01 Z-1.4000
G01 Z0
G00 Z2.0000
G00 X15.7890 Y10.1778
G01 Z-1.4000
G01 Z0
G00 Z2.0000
G00 X15.7890 Y12.7178
G01 Z-1.4000
G01 Z0
G00 Z2.0000
G00 X15.7890 Y15.2578
G01 Z-1.4000
G01 Z0
G00 Z2.0000
G00 X23.4090 Y15.2578
G01 Z-1.4000
G01 Z0
G00 Z2.0000
G00 X23.4090 Y12.7178
G01 Z-1.4000
G01 Z0
G00 Z2.0000
G00 X23.4090 Y10.1778
G01 Z-1.4000
G01 Z0
G00 Z2.0000
G00 X23.4090 Y7.6378
G01 Z-1.4000
G01 Z0
G00 Z2.0000
G00 X28.4890 Y5.0978
G01 Z-1.4000
G01 Z0
G00 Z2.0000
G00 X33.5690 Y5.0978
G01 Z-1.4000
G01 Z0
G00 Z2.0000
G00 X38.6490 Y5.0978
G01 Z-1.4000
G01 Z0
G00 Z2.0000
G00 X28.4890 Y15.2578
G01 Z-1.4000
G01 Z0
G00 Z2.0000
G00 X33.5690 Y15.2578
G01 Z-1.4000
G01 Z0
G00 Z2.0000
G00 X38.6490 Y15.2578
G01 Z-1.4000
G01 Z0
G00 Z2.0000
G00 X38.6490 Y20.3378
G01 Z-1.4000
G01 Z0
G00 Z2.0000
G00 X38.6490 Y22.8397
G01 Z-1.4000
G01 Z0
G00 Z2.0000
G00 X38.6490 Y27.9578
G01 Z-1.4000
G01 Z0
G00 Z2.0000
G00 X38.6490 Y33.0378
G01 Z-1.4000
G01 Z0
G00 Z2.0000
G00 X38.6490 Y38.1254
G01 Z-1.4000
G01 Z0
G00 Z2.0000
G00 X31.0290 Y38.1178
G01 Z-1.4000
G01 Z0
G00 Z2.0000
G00 X31.0290 Y35.5778
G01 Z-1.4000
G01 Z0
G00 Z2.0000
G00 X31.0290 Y30.4978
G01 Z-1.4000
G01 Z0
G00 Z2.0000
G00 X31.0290 Y27.9578
G01 Z-1.4000
G01 Z0
G00 Z2.0000
G00 X23.4090 Y30.4978
G01 Z-1.4000
G01 Z0
G00 Z2.0000
G00 X23.4090 Y33.0378
G01 Z-1.4000
G01 Z0
G00 Z2.0000
G00 X23.4090 Y35.5778
G01 Z-1.4000
G01 Z0
G00 Z2.0000
G00 X23.4090 Y38.1178
G01 Z-1.4000
G01 Z0
G00 Z2.0000
G00 X15.7890 Y38.1178
G01 Z-1.4000
G01 Z0
G00 Z2.0000
G00 X15.7890 Y35.5778
G01 Z-1.4000
G01 Z0
G00 Z2.0000
G00 X5.6290 Y38.1178
G01 Z-1.4000
G01 Z0
G00 Z2.0000
G00 X5.6315 Y33.0378
G01 Z-1.4000
G01 Z0
G00 Z2.0000
G00 X15.7890 Y33.0378
G01 Z-1.4000
G01 Z0
G00 Z2.0000
G00 X15.7890 Y30.4978
G01 Z-1.4000
G01 Z0
G00 Z2.0000
G00 X22.1440 Y22.8879
G01 Z-1.4000
G01 Z0
G00 Z2.0000
G00 X19.6040 Y22.8879
G01 Z-1.4000
G01 Z0
G00 Z2.0000
G00 X17.0640 Y22.8879
G01 Z-1.4000
G01 Z0
G00 Z2.0000
G00 X10.7090 Y22.8778
G01 Z-1.4000
G01 Z0
G00 Z2.0000
G00 X8.1690 Y22.8778
G01 Z-1.4000
G01 Z0
G00 Z2.0000
G00 X10.7090 Y15.2578
G01 Z-1.4000
G01 Z0
G00 Z2.0000
G00 X5.6290 Y10.1778
G01 Z-1.4000
G01 Z0
G00 Z2.0000
G00 X3.0890 Y10.1778
G01 Z-1.4000
G01 Z0
G00 Z2.0000
M05
G00 Z0.50


