(G-CODE GENERATED BY FLATCAM v8.994 - www.flatcam.org - Version Date: 2020/11/7)

(Name: TRANSMISOR AM_copperBottom.gbl_edit_1_iso_combined_cnc)
(Type: G-code from Geometry)
(Units: MM)

(Created on Monday, 09 September 2024 at 19:32)

(This preprocessor is the default preprocessor used by FlatCAM.)
(It is made to work with MACH3 compatible motion controllers.)

(TOOL DIAMETER: 0.1 mm)
(Feedrate_XY: 120.0 mm/min)
(Feedrate_Z: 60.0 mm/min)
(Feedrate rapids 1500.0 mm/min)

(Z_Cut: 0.0 mm)
(Z_Move: 2.0 mm)
(Z Start: None mm)
(Z End: 15.0 mm)
(X,Y End: None mm)
(Steps per circle: 64)
(Preprocessor Geometry: default)

(X range:   29.4775 ...   44.4947  mm)
(Y range:    9.1575 ...   24.1747  mm)

(Spindle Speed: 0.0 RPM)
G21
G90
G94

G01 F120.00

M5
G00 Z15.0000
G00 X0.0000 Y0.0000
T1
M6    
(MSG, Change to Tool Dia = 0.1000)
M0
G00 Z15.0000

M03
G01 F120.00
G00 X29.4775 Y10.1588
G01 F60.00
G01 Z0.0000
G01 F120.00
G01 X29.4823 Y10.0617
G01 X29.4968 Y9.9644
G01 X29.5207 Y9.8690
G01 X29.5538 Y9.7764
G01 X29.5959 Y9.6874
G01 X29.6465 Y9.6030
G01 X29.7051 Y9.5240
G01 X29.7711 Y9.4511
G01 X29.8440 Y9.3851
G01 X29.9230 Y9.3265
G01 X30.0074 Y9.2759
G01 X30.0964 Y9.2338
G01 X30.1890 Y9.2007
G01 X30.2844 Y9.1768
G01 X30.3817 Y9.1623
G01 X30.4788 Y9.1575
G01 X30.5807 Y9.1626
G01 X30.6756 Y9.1768
G01 X30.7710 Y9.2007
G01 X30.8659 Y9.2348
G01 X30.9526 Y9.2759
G01 X31.0349 Y9.3251
G01 X31.1178 Y9.3867
G01 X31.1889 Y9.4511
G01 X31.2533 Y9.5222
G01 X31.3135 Y9.6030
G01 X31.3635 Y9.6863
G01 X31.3717 Y9.7034
G01 X38.1289 Y9.7034
G01 X38.1724 Y9.7058
G01 X38.2167 Y9.7126
G01 X38.2601 Y9.7237
G01 X38.3022 Y9.7390
G01 X38.3406 Y9.7573
G01 X38.3791 Y9.7803
G01 X38.4151 Y9.8070
G01 X38.4474 Y9.8363
G01 X40.9907 Y12.4050
G01 X41.0184 Y12.4357
G01 X41.0436 Y12.4697
G01 X41.0476 Y12.4757
G01 X41.0692 Y12.5122
G01 X41.0863 Y12.5484
G01 X41.0890 Y12.5551
G01 X41.1030 Y12.5950
G01 X41.1130 Y12.6351
G01 X41.1198 Y12.6806
G01 X41.1220 Y12.7254
G01 X41.1220 Y22.4034
G01 X41.9487 Y22.4034
G01 X41.9659 Y22.3558
G01 X42.0200 Y22.2413
G01 X42.0862 Y22.1306
G01 X42.1637 Y22.0260
G01 X42.2512 Y21.9295
G01 X42.3479 Y21.8422
G01 X42.4496 Y21.7669
G01 X42.5581 Y21.7017
G01 X42.6769 Y21.6454
G01 X42.7984 Y21.6019
G01 X42.9235 Y21.5706
G01 X43.0511 Y21.5516
G01 X43.1800 Y21.5453
G01 X43.3064 Y21.5514
G01 X43.4365 Y21.5706
G01 X43.5593 Y21.6013
G01 X43.6854 Y21.6464
G01 X43.7997 Y21.7005
G01 X43.9083 Y21.7656
G01 X44.0121 Y21.8422
G01 X44.1096 Y21.9304
G01 X44.1963 Y22.0260
G01 X44.2744 Y22.1317
G01 X44.3395 Y22.2403
G01 X44.3936 Y22.3546
G01 X44.4381 Y22.4784
G01 X44.4694 Y22.6035
G01 X44.4886 Y22.7336
G01 X44.4947 Y22.8600
G01 X44.4886 Y22.9864
G01 X44.4694 Y23.1165
G01 X44.4381 Y23.2416
G01 X44.3946 Y23.3631
G01 X44.3383 Y23.4819
G01 X44.2731 Y23.5904
G01 X44.1978 Y23.6921
G01 X44.1105 Y23.7888
G01 X44.0140 Y23.8763
G01 X43.9083 Y23.9544
G01 X43.7997 Y24.0195
G01 X43.6854 Y24.0736
G01 X43.5616 Y24.1181
G01 X43.4341 Y24.1499
G01 X43.3089 Y24.1684
G01 X43.1825 Y24.1746
G01 X43.0511 Y24.1684
G01 X42.9223 Y24.1492
G01 X42.7960 Y24.1173
G01 X42.6769 Y24.0746
G01 X42.5624 Y24.0206
G01 X42.4496 Y23.9531
G01 X42.3450 Y23.8755
G01 X42.2487 Y23.7879
G01 X42.1637 Y23.6940
G01 X42.0876 Y23.5914
G01 X42.0200 Y23.4787
G01 X41.9659 Y23.3642
G01 X41.9487 Y23.3166
G01 X36.4517 Y23.3166
G01 X36.4435 Y23.3337
G01 X36.3935 Y23.4170
G01 X36.3333 Y23.4978
G01 X36.2689 Y23.5689
G01 X36.1978 Y23.6333
G01 X36.1149 Y23.6949
G01 X36.0326 Y23.7441
G01 X35.9459 Y23.7852
G01 X35.8510 Y23.8193
G01 X35.7532 Y23.8437
G01 X35.6583 Y23.8577
G01 X35.5612 Y23.8625
G01 X35.4617 Y23.8577
G01 X35.3644 Y23.8432
G01 X35.2690 Y23.8193
G01 X35.1764 Y23.7862
G01 X35.0874 Y23.7441
G01 X35.0030 Y23.6935
G01 X34.9240 Y23.6349
G01 X34.8520 Y23.5697
G01 X34.7835 Y23.4940
G01 X34.7265 Y23.4170
G01 X34.6771 Y23.3347
G01 X34.6338 Y23.2436
G01 X34.6000 Y23.1486
G01 X34.5768 Y23.0556
G01 X34.5626 Y22.9607
G01 X34.5575 Y22.8600
G01 X34.5626 Y22.7593
G01 X34.5768 Y22.6644
G01 X34.6007 Y22.5690
G01 X34.6348 Y22.4741
G01 X34.6759 Y22.3874
G01 X34.7251 Y22.3051
G01 X34.7851 Y22.2240
G01 X34.8529 Y22.1494
G01 X34.9240 Y22.0851
G01 X35.0010 Y22.0279
G01 X35.0874 Y21.9759
G01 X35.1786 Y21.9329
G01 X35.2690 Y21.9007
G01 X35.3632 Y21.8770
G01 X35.4617 Y21.8623
G01 X35.5575 Y21.8576
G01 X35.6607 Y21.8626
G01 X35.7556 Y21.8768
G01 X35.8510 Y21.9007
G01 X35.9436 Y21.9338
G01 X36.0304 Y21.9748
G01 X36.1190 Y22.0279
G01 X36.1960 Y22.0851
G01 X36.2689 Y22.1511
G01 X36.3349 Y22.2240
G01 X36.3921 Y22.3010
G01 X36.4435 Y22.3863
G01 X36.4517 Y22.4034
G01 X40.2088 Y22.4034
G01 X40.2088 Y12.9132
G01 X37.9349 Y10.6166
G01 X31.3717 Y10.6166
G01 X31.3635 Y10.6337
G01 X31.3121 Y10.7190
G01 X31.2549 Y10.7960
G01 X31.1889 Y10.8689
G01 X31.1140 Y10.9365
G01 X31.0370 Y10.9935
G01 X30.9526 Y11.0441
G01 X30.8614 Y11.0871
G01 X30.7710 Y11.1193
G01 X30.6756 Y11.1432
G01 X30.5758 Y11.1579
G01 X30.4800 Y11.1625
G01 X30.3842 Y11.1579
G01 X30.2844 Y11.1432
G01 X30.1890 Y11.1193
G01 X30.0964 Y11.0862
G01 X30.0096 Y11.0452
G01 X29.9210 Y10.9921
G01 X29.8440 Y10.9349
G01 X29.7694 Y10.8671
G01 X29.7051 Y10.7960
G01 X29.6465 Y10.7170
G01 X29.5959 Y10.6326
G01 X29.5538 Y10.5436
G01 X29.5207 Y10.4510
G01 X29.4968 Y10.3556
G01 X29.4823 Y10.2583
G01 X29.4775 Y10.1588
G00 Z2.0000
M05
G00 Z2.0000
G00 Z15.00


