(G-CODE GENERATED BY FLATCAM v8.994 - www.flatcam.org - Version Date: 2020/11/7)

(Name: TRANSMISOR AM_contour.gm1_iso_combined_cnc)
(Type: G-code from Geometry)
(Units: MM)

(Created on Monday, 09 September 2024 at 20:45)

(This preprocessor is the default preprocessor used by FlatCAM.)
(It is made to work with MACH3 compatible motion controllers.)

(TOOL DIAMETER: 0.1 mm)
(Feedrate_XY: 120.0 mm/min)
(Feedrate_Z: 60.0 mm/min)
(Feedrate rapids 1500.0 mm/min)

(Z_Cut: -0.7 mm)
(Z_Move: 2.0 mm)
(Z Start: None mm)
(Z End: 15.0 mm)
(X,Y End: None mm)
(Steps per circle: 64)
(Preprocessor Geometry: default)

(X range:   -0.0500 ...   48.3608  mm)
(Y range:   -0.0500 ...   38.1500  mm)

(Spindle Speed: 0.0 RPM)
G21
G90
G94

G01 F120.00

M5
G00 Z15.0000
G00 X0.0000 Y0.0000
T1
M6    
(MSG, Change to Tool Dia = 0.1000)
M0
G00 Z15.0000

M03
G01 F120.00
G00 X0.2533 Y37.8468
G01 F60.00
G01 Z-0.7000
G01 F120.00
G01 X0.2532 Y0.2533
G01 X48.0575 Y0.2532
G01 X48.0576 Y37.8467
G01 X0.2533 Y37.8468
G00 Z2.0000
G00 X-0.0500 Y37.9984
G01 F60.00
G01 Z-0.7000
G01 F120.00
G01 X-0.0500 Y0.1016
G01 X-0.0493 Y0.0867
G01 X-0.0466 Y0.0696
G01 X-0.0435 Y0.0576
G01 X-0.0394 Y0.0459
G01 X-0.0332 Y0.0323
G01 X-0.0245 Y0.0173
G01 X-0.0156 Y0.0054
G01 X-0.0056 Y-0.0056
G01 X0.0064 Y-0.0164
G01 X0.0173 Y-0.0245
G01 X0.0301 Y-0.0321
G01 X0.0436 Y-0.0385
G01 X0.0552 Y-0.0427
G01 X0.0744 Y-0.0476
G01 X0.0867 Y-0.0493
G01 X0.1016 Y-0.0500
G01 X48.2092 Y-0.0500
G01 X48.2241 Y-0.0493
G01 X48.2412 Y-0.0466
G01 X48.2532 Y-0.0435
G01 X48.2649 Y-0.0394
G01 X48.2785 Y-0.0332
G01 X48.2935 Y-0.0245
G01 X48.3054 Y-0.0156
G01 X48.3164 Y-0.0056
G01 X48.3272 Y0.0064
G01 X48.3353 Y0.0173
G01 X48.3429 Y0.0301
G01 X48.3493 Y0.0436
G01 X48.3535 Y0.0552
G01 X48.3584 Y0.0744
G01 X48.3601 Y0.0867
G01 X48.3608 Y0.1016
G01 X48.3608 Y37.9984
G01 X48.3601 Y38.0133
G01 X48.3574 Y38.0304
G01 X48.3535 Y38.0448
G01 X48.3493 Y38.0564
G01 X48.3440 Y38.0677
G01 X48.3353 Y38.0827
G01 X48.3264 Y38.0946
G01 X48.3164 Y38.1056
G01 X48.3044 Y38.1164
G01 X48.2935 Y38.1245
G01 X48.2807 Y38.1321
G01 X48.2672 Y38.1385
G01 X48.2556 Y38.1427
G01 X48.2364 Y38.1476
G01 X48.2241 Y38.1493
G01 X48.2092 Y38.1500
G01 X0.1016 Y38.1500
G01 X0.0867 Y38.1493
G01 X0.0720 Y38.1471
G01 X0.0576 Y38.1435
G01 X0.0436 Y38.1385
G01 X0.0301 Y38.1321
G01 X0.0173 Y38.1245
G01 X0.0054 Y38.1156
G01 X-0.0056 Y38.1056
G01 X-0.0156 Y38.0946
G01 X-0.0245 Y38.0827
G01 X-0.0321 Y38.0699
G01 X-0.0385 Y38.0564
G01 X-0.0435 Y38.0424
G01 X-0.0471 Y38.0280
G01 X-0.0493 Y38.0133
G01 X-0.0500 Y37.9984
G00 Z2.0000
M05
G00 Z2.0000
G00 Z15.00


