(G-CODE GENERATED BY FLATCAM v8.994 - www.flatcam.org - Version Date: 2020/11/7)

(Name: TRANSMISOR AM_drill.txt_cnc)
(Type: G-code from Geometry)
(Units: MM)

(Created on Monday, 09 September 2024 at 20:29)

(This preprocessor is the default preprocessor used by FlatCAM.)
(It is made to work with MACH3 compatible motion controllers.)


(TOOLS DIAMETER: )
(Tool: 1 -> Dia: 0.7619999999999999)
(Tool: 2 -> Dia: 0.8000237999999998)
(Tool: 3 -> Dia: 0.8128)
(Tool: 4 -> Dia: 1.016)
(Tool: 5 -> Dia: 0.9652)
(Tool: 6 -> Dia: 1.4710918)
(Tool: 7 -> Dia: 0.889)

(FEEDRATE Z: )
(Tool: 1 -> Feedrate: 300)
(Tool: 2 -> Feedrate: 300)
(Tool: 3 -> Feedrate: 300)
(Tool: 4 -> Feedrate: 300)
(Tool: 5 -> Feedrate: 300)
(Tool: 6 -> Feedrate: 300)
(Tool: 7 -> Feedrate: 300)

(FEEDRATE RAPIDS: )
(Tool: 1 -> Feedrate Rapids: 1500)
(Tool: 2 -> Feedrate Rapids: 1500)
(Tool: 3 -> Feedrate Rapids: 1500)
(Tool: 4 -> Feedrate Rapids: 1500)
(Tool: 5 -> Feedrate Rapids: 1500)
(Tool: 6 -> Feedrate Rapids: 1500)
(Tool: 7 -> Feedrate Rapids: 1500)

(Z_CUT: )
(Tool: 1 -> Z_Cut: -1.5)
(Tool: 2 -> Z_Cut: -1.5)
(Tool: 3 -> Z_Cut: -1.5)
(Tool: 4 -> Z_Cut: -1.5)
(Tool: 5 -> Z_Cut: -1.5)
(Tool: 6 -> Z_Cut: -1.5)
(Tool: 7 -> Z_Cut: -1.5)

(Tools Offset: )
(Tool: 1 -> Offset Z: 0.0)
(Tool: 2 -> Offset Z: 0.0)
(Tool: 3 -> Offset Z: 0.0)
(Tool: 4 -> Offset Z: 0.0)
(Tool: 5 -> Offset Z: 0.0)
(Tool: 6 -> Offset Z: 0.0)
(Tool: 7 -> Offset Z: 0.0)

(Z_MOVE: )
(Tool: 1 -> Z_Move: 2)
(Tool: 2 -> Z_Move: 2)
(Tool: 3 -> Z_Move: 2)
(Tool: 4 -> Z_Move: 2)
(Tool: 5 -> Z_Move: 2)
(Tool: 6 -> Z_Move: 2)
(Tool: 7 -> Z_Move: 2)

(Z Toolchange: 15 mm)
(X,Y Toolchange: 0.0000, 0.0000 mm)
(Z Start: None mm)
(Z End: 0.5 mm)
(X,Y End: None mm)
(Steps per circle: 64)
(Preprocessor Excellon: default)

(X range:    4.6445 ...   43.8864  mm)
(Y range:    4.6355 ...   33.7606  mm)

(Spindle Speed: 0 RPM)
G21
G90
G94

G01 F300.00

M5
G00 Z15.0000
T1
G00 X0.0000 Y0.0000                
M6
(MSG, Change to Tool Dia = 0.7620 ||| Total drills for tool T1 = 44)
M0
G00 Z15.0000

G01 F300.00
M03
G00 X7.5909 Y20.3200
G01 Z-1.5000
G01 Z0
G00 Z2.0000
G00 X7.5909 Y15.2400
G01 Z-1.5000
G01 Z0
G00 Z2.0000
G00 X5.0509 Y7.6200
G01 Z-1.5000
G01 Z0
G00 Z2.0000
G00 X7.5528 Y7.6200
G01 Z-1.5000
G01 Z0
G00 Z2.0000
G00 X12.6709 Y10.1600
G01 Z-1.5000
G01 Z0
G00 Z2.0000
G00 X15.2134 Y10.1600
G01 Z-1.5000
G01 Z0
G00 Z2.0000
G00 X17.7509 Y10.1600
G01 Z-1.5000
G01 Z0
G00 Z2.0000
G00 X17.7509 Y17.7800
G01 Z-1.5000
G01 Z0
G00 Z2.0000
G00 X15.2134 Y17.7800
G01 Z-1.5000
G01 Z0
G00 Z2.0000
G00 X12.6709 Y17.7800
G01 Z-1.5000
G01 Z0
G00 Z2.0000
G00 X15.2109 Y22.8600
G01 Z-1.5000
G01 Z0
G00 Z2.0000
G00 X20.2909 Y22.8600
G01 Z-1.5000
G01 Z0
G00 Z2.0000
G00 X25.3709 Y22.8600
G01 Z-1.5000
G01 Z0
G00 Z2.0000
G00 X22.8309 Y17.7800
G01 Z-1.5000
G01 Z0
G00 Z2.0000
G00 X22.8309 Y15.2400
G01 Z-1.5000
G01 Z0
G00 Z2.0000
G00 X22.8309 Y12.7000
G01 Z-1.5000
G01 Z0
G00 Z2.0000
G00 X22.8309 Y10.1600
G01 Z-1.5000
G01 Z0
G00 Z2.0000
G00 X27.9109 Y5.0800
G01 Z-1.5000
G01 Z0
G00 Z2.0000
G00 X32.9909 Y5.0800
G01 Z-1.5000
G01 Z0
G00 Z2.0000
G00 X35.5309 Y5.0800
G01 Z-1.5000
G01 Z0
G00 Z2.0000
G00 X40.6109 Y7.6200
G01 Z-1.5000
G01 Z0
G00 Z2.0000
G00 X43.1509 Y7.6200
G01 Z-1.5000
G01 Z0
G00 Z2.0000
G00 X35.5309 Y15.2400
G01 Z-1.5000
G01 Z0
G00 Z2.0000
G00 X30.4509 Y10.1600
G01 Z-1.5000
G01 Z0
G00 Z2.0000
G00 X30.4509 Y12.7000
G01 Z-1.5000
G01 Z0
G00 Z2.0000
G00 X30.4509 Y15.2400
G01 Z-1.5000
G01 Z0
G00 Z2.0000
G00 X30.4509 Y17.7800
G01 Z-1.5000
G01 Z0
G00 Z2.0000
G00 X30.4509 Y22.8600
G01 Z-1.5000
G01 Z0
G00 Z2.0000
G00 X35.5309 Y25.4000
G01 Z-1.5000
G01 Z0
G00 Z2.0000
G00 X35.5309 Y22.8600
G01 Z-1.5000
G01 Z0
G00 Z2.0000
G00 X43.1509 Y22.8600
G01 Z-1.5000
G01 Z0
G00 Z2.0000
G00 X43.1509 Y27.9400
G01 Z-1.5000
G01 Z0
G00 Z2.0000
G00 X43.1509 Y33.0251
G01 Z-1.5000
G01 Z0
G00 Z2.0000
G00 X35.5309 Y33.0200
G01 Z-1.5000
G01 Z0
G00 Z2.0000
G00 X35.5309 Y30.4800
G01 Z-1.5000
G01 Z0
G00 Z2.0000
G00 X30.4509 Y33.0200
G01 Z-1.5000
G01 Z0
G00 Z2.0000
G00 X25.3709 Y33.0200
G01 Z-1.5000
G01 Z0
G00 Z2.0000
G00 X20.2909 Y33.0200
G01 Z-1.5000
G01 Z0
G00 Z2.0000
G00 X15.2109 Y33.0200
G01 Z-1.5000
G01 Z0
G00 Z2.0000
G00 X10.1309 Y33.0200
G01 Z-1.5000
G01 Z0
G00 Z2.0000
G00 X5.0509 Y30.4800
G01 Z-1.5000
G01 Z0
G00 Z2.0000
G00 X5.0509 Y27.9400
G01 Z-1.5000
G01 Z0
G00 Z2.0000
G00 X5.0509 Y25.4000
G01 Z-1.5000
G01 Z0
G00 Z2.0000
G00 X10.1309 Y22.8600
G01 Z-1.5000
G01 Z0
G00 Z2.0000
M05
G00 Z0.50


