(G-CODE GENERATED BY FLATCAM v8.994 - www.flatcam.org - Version Date: 2020/11/7)

(Name: TRANSMISOR AM_copperBottom.gbl_edit_2_iso_combined_cnc)
(Type: G-code from Geometry)
(Units: MM)

(Created on Monday, 09 September 2024 at 20:38)

(This preprocessor is the default preprocessor used by FlatCAM.)
(It is made to work with MACH3 compatible motion controllers.)

(TOOL DIAMETER: 1.0 mm)
(Feedrate_XY: 100.0 mm/min)
(Feedrate_Z: 60.0 mm/min)
(Feedrate rapids 1500.0 mm/min)

(Z_Cut: -0.05 mm)
(Z_Move: 2.0 mm)
(Z Start: None mm)
(Z End: 15.0 mm)
(X,Y End: None mm)
(Steps per circle: 64)
(Preprocessor Geometry: default)

(X range:    1.6334 ...   44.6706  mm)
(Y range:    1.6080 ...   36.4666  mm)

(Spindle Speed: 0.0 RPM)
G21
G90
G94

G01 F100.00

M5
G00 Z15.0000
G00 X0.0000 Y0.0000
T1
M6    
(MSG, Change to Tool Dia = 1.0000)
M0
G00 Z15.0000

M03
G01 F100.00
G00 X1.6340 Y5.0301
G01 F60.00
G01 Z-0.0500
G01 F100.00
G01 X1.6367 Y4.9780
G01 X1.6391 Y4.9535
G01 X1.6486 Y4.8898
G01 X1.6534 Y4.8657
G01 X1.6690 Y4.8032
G01 X1.6761 Y4.7797
G01 X1.6979 Y4.7191
G01 X1.7072 Y4.6964
G01 X1.7294 Y4.6492
G01 X1.7404 Y4.6272
G01 X1.7525 Y4.6059
G01 X1.7731 Y4.5717
G01 X1.7862 Y4.5509
G01 X1.8003 Y4.5309
G01 X1.8241 Y4.4988
G01 X1.8392 Y4.4795
G01 X1.8552 Y4.4609
G01 X1.8820 Y4.4313
G01 X1.8989 Y4.4135
G01 X4.4389 Y1.8735
G01 X4.4567 Y1.8566
G01 X4.4863 Y1.8298
G01 X4.5049 Y1.8138
G01 X4.5242 Y1.7987
G01 X4.5662 Y1.7677
G01 X4.5866 Y1.7541
G01 X4.6313 Y1.7271
G01 X4.6526 Y1.7150
G01 X4.6746 Y1.7040
G01 X4.7218 Y1.6818
G01 X4.7445 Y1.6725
G01 X4.7935 Y1.6547
G01 X4.8168 Y1.6470
G01 X4.8405 Y1.6405
G01 X4.8792 Y1.6308
G01 X4.9031 Y1.6254
G01 X4.9273 Y1.6212
G01 X4.9668 Y1.6154
G01 X4.9911 Y1.6124
G01 X5.0156 Y1.6106
G01 X5.0555 Y1.6086
G01 X5.0800 Y1.6080
G01 X40.6654 Y1.6080
G01 X40.6868 Y1.6083
G01 X40.7420 Y1.6113
G01 X40.7756 Y1.6148
G01 X40.8302 Y1.6232
G01 X40.8512 Y1.6272
G01 X40.8751 Y1.6329
G01 X40.9168 Y1.6436
G01 X40.9490 Y1.6536
G01 X41.0009 Y1.6725
G01 X41.0320 Y1.6855
G01 X41.0819 Y1.7094
G01 X41.1008 Y1.7194
G01 X41.1115 Y1.7254
G01 X41.1483 Y1.7477
G01 X41.1712 Y1.7622
G01 X41.1966 Y1.7802
G01 X41.2310 Y1.8061
G01 X41.2405 Y1.8138
G01 X41.2569 Y1.8276
G01 X41.2977 Y1.8650
G01 X41.3129 Y1.8800
G01 X43.8021 Y4.4200
G01 X43.8321 Y4.4526
G01 X43.8483 Y4.4710
G01 X43.8612 Y4.4866
G01 X43.8761 Y4.5061
G01 X43.8951 Y4.5317
G01 X43.9135 Y4.5586
G01 X43.9264 Y4.5794
G01 X43.9489 Y4.6175
G01 X43.9640 Y4.6463
G01 X43.9879 Y4.6975
G01 X44.0001 Y4.7276
G01 X44.0150 Y4.7692
G01 X44.0205 Y4.7862
G01 X44.0248 Y4.8002
G01 X44.0311 Y4.8239
G01 X44.0389 Y4.8549
G01 X44.0445 Y4.8812
G01 X44.0476 Y4.8988
G01 X44.0542 Y4.9426
G01 X44.0577 Y4.9749
G01 X44.0602 Y5.0190
G01 X44.0611 Y5.0435
G01 X44.0744 Y6.1294
G01 X44.1706 Y6.1294
G01 X44.1951 Y6.1300
G01 X44.2196 Y6.1318
G01 X44.2440 Y6.1348
G01 X44.2681 Y6.1390
G01 X44.2801 Y6.1415
G01 X44.3040 Y6.1475
G01 X44.3274 Y6.1546
G01 X44.3505 Y6.1629
G01 X44.3732 Y6.1723
G01 X44.3954 Y6.1828
G01 X44.4170 Y6.1944
G01 X44.4381 Y6.2070
G01 X44.4585 Y6.2206
G01 X44.4782 Y6.2352
G01 X44.4972 Y6.2508
G01 X44.5154 Y6.2673
G01 X44.5327 Y6.2846
G01 X44.5492 Y6.3028
G01 X44.5648 Y6.3218
G01 X44.5794 Y6.3415
G01 X44.5930 Y6.3619
G01 X44.6056 Y6.3829
G01 X44.6172 Y6.4046
G01 X44.6277 Y6.4268
G01 X44.6371 Y6.4494
G01 X44.6454 Y6.4725
G01 X44.6525 Y6.4960
G01 X44.6584 Y6.5198
G01 X44.6632 Y6.5439
G01 X44.6668 Y6.5682
G01 X44.6692 Y6.5926
G01 X44.6704 Y6.6171
G01 X44.6706 Y6.6294
G01 X44.6706 Y8.6106
G01 X44.6700 Y8.6351
G01 X44.6692 Y8.6474
G01 X44.6682 Y8.6596
G01 X44.6652 Y8.6840
G01 X44.6610 Y8.7081
G01 X44.6556 Y8.7321
G01 X44.6491 Y8.7557
G01 X44.6414 Y8.7790
G01 X44.6325 Y8.8019
G01 X44.6277 Y8.8132
G01 X44.6172 Y8.8354
G01 X44.6116 Y8.8463
G01 X44.5995 Y8.8676
G01 X44.5863 Y8.8884
G01 X44.5794 Y8.8985
G01 X44.5648 Y8.9182
G01 X44.5492 Y8.9372
G01 X44.5327 Y8.9554
G01 X44.5154 Y8.9727
G01 X44.5064 Y8.9811
G01 X44.4878 Y8.9971
G01 X44.4685 Y9.0122
G01 X44.4484 Y9.0263
G01 X44.4277 Y9.0395
G01 X44.4063 Y9.0516
G01 X44.3844 Y9.0626
G01 X44.3619 Y9.0725
G01 X44.3390 Y9.0814
G01 X44.3157 Y9.0891
G01 X44.3040 Y9.0925
G01 X44.2802 Y9.0985
G01 X44.2561 Y9.1032
G01 X44.2318 Y9.1068
G01 X44.2196 Y9.1082
G01 X44.1951 Y9.1100
G01 X44.1706 Y9.1106
G01 X42.1894 Y9.1106
G01 X42.1771 Y9.1104
G01 X42.1526 Y9.1092
G01 X42.1282 Y9.1068
G01 X42.1039 Y9.1032
G01 X42.0798 Y9.0985
G01 X42.0560 Y9.0925
G01 X42.0326 Y9.0854
G01 X42.0095 Y9.0771
G01 X41.9868 Y9.0677
G01 X41.9646 Y9.0572
G01 X41.9429 Y9.0456
G01 X41.9219 Y9.0330
G01 X41.9015 Y9.0194
G01 X41.8818 Y9.0048
G01 X41.8722 Y8.9971
G01 X41.8536 Y8.9811
G01 X41.8358 Y8.9642
G01 X41.8189 Y8.9464
G01 X41.8029 Y8.9278
G01 X41.7952 Y8.9182
G01 X41.7806 Y8.8985
G01 X41.7670 Y8.8781
G01 X41.7605 Y8.8676
G01 X41.7484 Y8.8463
G01 X41.7428 Y8.8354
G01 X41.7323 Y8.8132
G01 X41.7229 Y8.7905
G01 X41.7146 Y8.7674
G01 X41.7075 Y8.7440
G01 X41.7044 Y8.7321
G01 X41.6990 Y8.7081
G01 X41.6948 Y8.6840
G01 X41.6932 Y8.6718
G01 X41.6908 Y8.6474
G01 X41.6900 Y8.6351
G01 X41.6894 Y8.6106
G01 X41.6894 Y6.6294
G01 X41.6900 Y6.6049
G01 X41.6908 Y6.5926
G01 X41.6932 Y6.5682
G01 X41.6968 Y6.5439
G01 X41.7016 Y6.5198
G01 X41.7075 Y6.4960
G01 X41.7146 Y6.4725
G01 X41.7229 Y6.4494
G01 X41.7323 Y6.4268
G01 X41.7428 Y6.4046
G01 X41.7544 Y6.3829
G01 X41.7670 Y6.3619
G01 X41.7806 Y6.3415
G01 X41.7952 Y6.3218
G01 X41.8108 Y6.3028
G01 X41.8273 Y6.2846
G01 X41.8446 Y6.2673
G01 X41.8628 Y6.2508
G01 X41.8818 Y6.2352
G01 X41.9015 Y6.2206
G01 X41.9219 Y6.2070
G01 X41.9430 Y6.1944
G01 X41.9646 Y6.1828
G01 X41.9868 Y6.1723
G01 X42.0095 Y6.1629
G01 X42.0326 Y6.1546
G01 X42.0560 Y6.1475
G01 X42.0799 Y6.1415
G01 X42.1039 Y6.1368
G01 X42.1160 Y6.1348
G01 X42.1404 Y6.1318
G01 X42.1649 Y6.1300
G01 X42.1771 Y6.1296
G01 X42.2610 Y6.1294
G01 X42.2525 Y5.4294
G01 X40.2845 Y3.4212
G01 X28.8318 Y3.4212
G01 X28.8388 Y4.0215
G01 X28.9044 Y4.0809
G01 X28.9222 Y4.0978
G01 X28.9391 Y4.1156
G01 X28.9977 Y4.1802
G01 X29.0137 Y4.1988
G01 X29.0288 Y4.2182
G01 X29.0808 Y4.2882
G01 X29.0949 Y4.3083
G01 X29.1080 Y4.3290
G01 X29.1529 Y4.4039
G01 X29.1650 Y4.4252
G01 X29.1760 Y4.4472
G01 X29.2133 Y4.5260
G01 X29.2184 Y4.5372
G01 X29.2278 Y4.5598
G01 X29.2615 Y4.6535
G01 X29.2692 Y4.6768
G01 X29.2757 Y4.7004
G01 X29.2998 Y4.7970
G01 X29.3046 Y4.8211
G01 X29.3065 Y4.8332
G01 X29.3193 Y4.9195
G01 X29.3223 Y4.9439
G01 X29.3241 Y4.9683
G01 X29.3284 Y5.0555
G01 X29.3290 Y5.0800
G01 X29.3284 Y5.1045
G01 X29.3241 Y5.1917
G01 X29.3223 Y5.2161
G01 X29.3193 Y5.2405
G01 X29.3065 Y5.3268
G01 X29.3023 Y5.3510
G01 X29.2969 Y5.3749
G01 X29.2757 Y5.4596
G01 X29.2692 Y5.4832
G01 X29.2615 Y5.5065
G01 X29.2321 Y5.5887
G01 X29.2233 Y5.6115
G01 X29.2133 Y5.6340
G01 X29.1760 Y5.7128
G01 X29.1650 Y5.7348
G01 X29.1529 Y5.7561
G01 X29.1080 Y5.8310
G01 X29.0949 Y5.8517
G01 X29.0808 Y5.8718
G01 X29.0288 Y5.9418
G01 X29.0137 Y5.9612
G01 X28.9977 Y5.9798
G01 X28.9391 Y6.0444
G01 X28.9222 Y6.0622
G01 X28.9044 Y6.0791
G01 X28.8306 Y6.1458
G01 X28.8116 Y6.1614
G01 X28.8018 Y6.1688
G01 X28.7318 Y6.2208
G01 X28.7117 Y6.2349
G01 X28.6910 Y6.2480
G01 X28.6161 Y6.2929
G01 X28.5948 Y6.3050
G01 X28.5728 Y6.3160
G01 X28.4940 Y6.3533
G01 X28.4715 Y6.3633
G01 X28.4487 Y6.3721
G01 X28.3665 Y6.4015
G01 X28.3432 Y6.4092
G01 X28.3196 Y6.4157
G01 X28.2230 Y6.4398
G01 X28.1989 Y6.4446
G01 X28.1868 Y6.4465
G01 X28.1005 Y6.4593
G01 X28.0761 Y6.4623
G01 X28.0517 Y6.4641
G01 X27.9645 Y6.4684
G01 X27.9400 Y6.4690
G01 X27.9155 Y6.4684
G01 X27.8283 Y6.4641
G01 X27.8039 Y6.4623
G01 X27.7795 Y6.4593
G01 X27.6932 Y6.4465
G01 X27.6690 Y6.4423
G01 X27.6451 Y6.4369
G01 X27.5486 Y6.4126
G01 X27.5251 Y6.4055
G01 X27.5135 Y6.4015
G01 X27.4313 Y6.3721
G01 X27.4085 Y6.3633
G01 X27.3860 Y6.3533
G01 X27.3072 Y6.3160
G01 X27.2852 Y6.3050
G01 X27.2639 Y6.2929
G01 X27.1890 Y6.2480
G01 X27.1683 Y6.2349
G01 X27.1482 Y6.2208
G01 X27.0782 Y6.1688
G01 X27.0684 Y6.1614
G01 X27.0494 Y6.1458
G01 X26.9756 Y6.0791
G01 X26.9578 Y6.0622
G01 X26.9409 Y6.0444
G01 X26.8823 Y5.9798
G01 X26.8663 Y5.9612
G01 X26.8512 Y5.9418
G01 X26.7992 Y5.8718
G01 X26.7851 Y5.8517
G01 X26.7720 Y5.8310
G01 X26.7271 Y5.7561
G01 X26.7150 Y5.7348
G01 X26.7040 Y5.7128
G01 X26.6667 Y5.6340
G01 X26.6567 Y5.6115
G01 X26.6479 Y5.5887
G01 X26.6185 Y5.5065
G01 X26.6108 Y5.4832
G01 X26.6043 Y5.4596
G01 X26.5831 Y5.3749
G01 X26.5777 Y5.3510
G01 X26.5735 Y5.3268
G01 X26.5607 Y5.2405
G01 X26.5577 Y5.2161
G01 X26.5559 Y5.1917
G01 X26.5516 Y5.1045
G01 X26.5510 Y5.0800
G01 X26.5516 Y5.0555
G01 X26.5559 Y4.9683
G01 X26.5577 Y4.9439
G01 X26.5607 Y4.9195
G01 X26.5735 Y4.8332
G01 X26.5777 Y4.8090
G01 X26.5831 Y4.7851
G01 X26.6043 Y4.7004
G01 X26.6108 Y4.6768
G01 X26.6185 Y4.6535
G01 X26.6479 Y4.5713
G01 X26.6567 Y4.5485
G01 X26.6667 Y4.5260
G01 X26.7040 Y4.4472
G01 X26.7150 Y4.4252
G01 X26.7209 Y4.4145
G01 X26.7720 Y4.3290
G01 X26.7851 Y4.3083
G01 X26.7992 Y4.2882
G01 X26.8512 Y4.2182
G01 X26.8663 Y4.1988
G01 X26.8823 Y4.1802
G01 X26.9409 Y4.1156
G01 X26.9578 Y4.0978
G01 X26.9756 Y4.0809
G01 X27.0256 Y4.0356
G01 X27.0185 Y3.4212
G01 X5.4555 Y3.4212
G01 X3.4466 Y5.4301
G01 X3.4466 Y32.6217
G01 X5.4582 Y34.6534
G01 X12.3021 Y34.6534
G01 X13.7961 Y33.1762
G01 X13.7945 Y33.1624
G01 X13.7927 Y33.1379
G01 X13.7881 Y33.0445
G01 X13.7875 Y33.0200
G01 X13.7881 Y32.9955
G01 X13.7927 Y32.9021
G01 X13.7945 Y32.8776
G01 X13.7975 Y32.8533
G01 X13.8112 Y32.7608
G01 X13.8154 Y32.7366
G01 X13.8208 Y32.7127
G01 X13.8435 Y32.6220
G01 X13.8500 Y32.5984
G01 X13.8577 Y32.5751
G01 X13.8892 Y32.4870
G01 X13.8981 Y32.4642
G01 X13.9080 Y32.4417
G01 X13.9480 Y32.3572
G01 X13.9590 Y32.3353
G01 X13.9711 Y32.3139
G01 X14.0192 Y32.2338
G01 X14.0323 Y32.2130
G01 X14.0464 Y32.1930
G01 X14.1021 Y32.1179
G01 X14.1172 Y32.0985
G01 X14.1332 Y32.0800
G01 X14.1960 Y32.0107
G01 X14.2129 Y31.9929
G01 X14.2307 Y31.9760
G01 X14.3000 Y31.9132
G01 X14.3185 Y31.8972
G01 X14.3379 Y31.8821
G01 X14.4130 Y31.8264
G01 X14.4330 Y31.8123
G01 X14.4538 Y31.7992
G01 X14.5339 Y31.7511
G01 X14.5553 Y31.7390
G01 X14.5772 Y31.7280
G01 X14.6617 Y31.6880
G01 X14.6842 Y31.6781
G01 X14.7070 Y31.6692
G01 X14.7951 Y31.6377
G01 X14.8184 Y31.6300
G01 X14.8420 Y31.6235
G01 X14.9327 Y31.6008
G01 X14.9566 Y31.5954
G01 X14.9808 Y31.5912
G01 X15.0733 Y31.5775
G01 X15.0976 Y31.5745
G01 X15.1221 Y31.5727
G01 X15.2155 Y31.5681
G01 X15.2400 Y31.5675
G01 X15.2645 Y31.5681
G01 X15.3579 Y31.5727
G01 X15.3824 Y31.5745
G01 X15.4067 Y31.5775
G01 X15.4992 Y31.5912
G01 X15.5234 Y31.5954
G01 X15.5473 Y31.6008
G01 X15.6380 Y31.6235
G01 X15.6616 Y31.6300
G01 X15.6849 Y31.6377
G01 X15.7730 Y31.6692
G01 X15.7958 Y31.6781
G01 X15.8183 Y31.6880
G01 X15.9028 Y31.7280
G01 X15.9247 Y31.7390
G01 X15.9461 Y31.7511
G01 X16.0262 Y31.7992
G01 X16.0470 Y31.8123
G01 X16.0670 Y31.8264
G01 X16.1421 Y31.8821
G01 X16.1615 Y31.8972
G01 X16.1800 Y31.9132
G01 X16.2583 Y31.9844
G01 X16.2671 Y31.9929
G01 X16.2840 Y32.0107
G01 X16.3468 Y32.0800
G01 X16.3628 Y32.0985
G01 X16.3779 Y32.1179
G01 X16.4336 Y32.1930
G01 X16.4477 Y32.2130
G01 X16.4544 Y32.2233
G01 X16.5151 Y32.3245
G01 X16.5210 Y32.3353
G01 X16.5320 Y32.3572
G01 X16.5771 Y32.4529
G01 X16.5865 Y32.4755
G01 X16.5908 Y32.4870
G01 X16.6223 Y32.5751
G01 X16.6300 Y32.5984
G01 X16.6365 Y32.6220
G01 X16.6592 Y32.7127
G01 X16.6646 Y32.7366
G01 X16.6688 Y32.7608
G01 X16.6825 Y32.8533
G01 X16.6855 Y32.8776
G01 X16.6873 Y32.9021
G01 X16.6919 Y32.9955
G01 X16.6923 Y33.0077
G01 X16.6923 Y33.0323
G01 X16.6873 Y33.1379
G01 X16.6855 Y33.1624
G01 X16.6825 Y33.1867
G01 X16.6688 Y33.2792
G01 X16.6668 Y33.2913
G01 X16.6620 Y33.3154
G01 X16.6365 Y33.4180
G01 X16.6300 Y33.4416
G01 X16.6262 Y33.4533
G01 X16.5865 Y33.5645
G01 X16.5819 Y33.5759
G01 X16.5720 Y33.5983
G01 X16.5320 Y33.6828
G01 X16.5210 Y33.7047
G01 X16.5089 Y33.7261
G01 X16.4608 Y33.8062
G01 X16.4544 Y33.8167
G01 X16.4408 Y33.8371
G01 X16.3779 Y33.9221
G01 X16.3705 Y33.9319
G01 X16.3549 Y33.9508
G01 X16.2756 Y34.0383
G01 X16.2583 Y34.0556
G01 X16.2493 Y34.0640
G01 X16.1800 Y34.1268
G01 X16.1615 Y34.1428
G01 X16.1421 Y34.1579
G01 X16.0670 Y34.2136
G01 X16.0470 Y34.2277
G01 X16.0262 Y34.2408
G01 X15.9461 Y34.2889
G01 X15.9247 Y34.3010
G01 X15.9028 Y34.3120
G01 X15.8183 Y34.3520
G01 X15.7958 Y34.3619
G01 X15.7730 Y34.3708
G01 X15.6849 Y34.4023
G01 X15.6616 Y34.4100
G01 X15.6380 Y34.4165
G01 X15.5473 Y34.4392
G01 X15.5234 Y34.4446
G01 X15.4992 Y34.4488
G01 X15.4067 Y34.4625
G01 X15.3824 Y34.4655
G01 X15.3579 Y34.4673
G01 X15.2645 Y34.4719
G01 X15.2400 Y34.4725
G01 X15.2155 Y34.4719
G01 X15.1221 Y34.4673
G01 X15.0976 Y34.4655
G01 X15.0739 Y34.4626
G01 X13.3120 Y36.2047
G01 X13.2942 Y36.2215
G01 X13.2591 Y36.2529
G01 X13.2486 Y36.2617
G01 X13.2362 Y36.2717
G01 X13.1983 Y36.2997
G01 X13.1783 Y36.3138
G01 X13.1637 Y36.3233
G01 X13.1127 Y36.3536
G01 X13.0865 Y36.3675
G01 X13.0440 Y36.3876
G01 X13.0215 Y36.3976
G01 X13.0054 Y36.4040
G01 X12.9611 Y36.4199
G01 X12.9329 Y36.4290
G01 X12.9092 Y36.4354
G01 X12.8754 Y36.4438
G01 X12.8515 Y36.4492
G01 X12.8344 Y36.4523
G01 X12.7878 Y36.4592
G01 X12.7635 Y36.4622
G01 X12.7461 Y36.4637
G01 X12.6991 Y36.4660
G01 X12.6746 Y36.4666
G01 X5.0800 Y36.4666
G01 X5.0510 Y36.4659
G01 X5.0034 Y36.4633
G01 X4.9745 Y36.4604
G01 X4.9152 Y36.4514
G01 X4.8867 Y36.4457
G01 X4.8405 Y36.4341
G01 X4.8156 Y36.4272
G01 X4.7893 Y36.4184
G01 X4.7445 Y36.4021
G01 X4.7289 Y36.3959
G01 X4.7065 Y36.3858
G01 X4.6635 Y36.3652
G01 X4.6487 Y36.3574
G01 X4.6274 Y36.3452
G01 X4.5971 Y36.3269
G01 X4.5726 Y36.3113
G01 X4.5526 Y36.2971
G01 X4.5242 Y36.2759
G01 X4.5023 Y36.2587
G01 X4.4829 Y36.2418
G01 X4.4477 Y36.2096
G01 X4.4381 Y36.2002
G01 X1.8958 Y33.6325
G01 X1.8789 Y33.6146
G01 X1.8552 Y33.5883
G01 X1.8384 Y33.5688
G01 X1.8213 Y33.5468
G01 X1.7931 Y33.5084
G01 X1.7770 Y33.4842
G01 X1.7525 Y33.4433
G01 X1.7399 Y33.4209
G01 X1.7274 Y33.3960
G01 X1.7072 Y33.3528
G01 X1.6962 Y33.3260
G01 X1.6801 Y33.2811
G01 X1.6721 Y33.2566
G01 X1.6647 Y33.2298
G01 X1.6534 Y33.1835
G01 X1.6499 Y33.1670
G01 X1.6459 Y33.1428
G01 X1.6408 Y33.1078
G01 X1.6378 Y33.0835
G01 X1.6356 Y33.0545
G01 X1.6340 Y33.0191
G01 X1.6334 Y32.9946
G01 X1.6334 Y5.0546
G01 X1.6340 Y5.0301
G00 Z2.0000
M05
G00 Z2.0000
G00 Z15.00


