(G-CODE GENERATED BY FLATCAM v8.994 - www.flatcam.org - Version Date: 2020/11/7)

(Name: TRANSMISOR AM_copperBottom.gbl_edit_iso_combined_cnc)
(Type: G-code from Geometry)
(Units: MM)

(Created on Monday, 09 September 2024 at 19:28)

(This preprocessor is the default preprocessor used by FlatCAM.)
(It is made to work with MACH3 compatible motion controllers.)

(TOOL DIAMETER: 0.1 mm)
(Feedrate_XY: 80.0 mm/min)
(Feedrate_Z: 60.0 mm/min)
(Feedrate rapids 1500.0 mm/min)

(Z_Cut: 0.0 mm)
(Z_Move: 2.0 mm)
(Z Start: None mm)
(Z End: 15.0 mm)
(X,Y End: None mm)
(Steps per circle: 64)
(Preprocessor Geometry: default)

(X range:    4.0902 ...   16.2298  mm)
(Y range:   14.8088 ...   31.4698  mm)

(Spindle Speed: 0.0 RPM)
G21
G90
G94

G01 F80.00

M5
G00 Z15.0000
G00 X0.0000 Y0.0000
T1
M6    
(MSG, Change to Tool Dia = 0.1000)
M0
G00 Z15.0000

M03
G01 F80.00
G00 X4.0902 Y27.9388
G01 F60.00
G01 Z0.0000
G01 F80.00
G01 X4.0950 Y27.8430
G01 X4.1092 Y27.7469
G01 X4.1328 Y27.6527
G01 X4.1647 Y27.5635
G01 X4.2083 Y27.4713
G01 X4.2570 Y27.3901
G01 X4.3165 Y27.3102
G01 X4.3801 Y27.2401
G01 X4.4521 Y27.1749
G01 X4.5301 Y27.1170
G01 X4.6134 Y27.0671
G01 X4.7012 Y27.0255
G01 X4.7927 Y26.9928
G01 X4.8869 Y26.9692
G01 X4.9805 Y26.9553
G01 X5.0825 Y26.9503
G01 X5.1770 Y26.9550
G01 X5.2731 Y26.9692
G01 X5.3673 Y26.9928
G01 X5.4565 Y27.0247
G01 X5.5466 Y27.0671
G01 X5.6299 Y27.1170
G01 X5.7060 Y27.1734
G01 X5.7799 Y27.2401
G01 X5.8451 Y27.3121
G01 X5.9016 Y27.3881
G01 X5.9523 Y27.4723
G01 X5.9604 Y27.4890
G01 X7.1634 Y27.5033
G01 X7.1634 Y21.1398
G01 X7.0983 Y21.1007
G01 X7.0243 Y21.0459
G01 X6.9560 Y20.9840
G01 X6.8957 Y20.9176
G01 X6.8379 Y20.8396
G01 X6.7919 Y20.7626
G01 X6.7535 Y20.6816
G01 X6.7208 Y20.5902
G01 X6.6990 Y20.5032
G01 X6.6855 Y20.4120
G01 X6.6810 Y20.3200
G01 X6.6853 Y20.2304
G01 X6.6993 Y20.1356
G01 X6.7214 Y20.0474
G01 X6.7525 Y19.9607
G01 X6.7919 Y19.8774
G01 X6.8393 Y19.7983
G01 X6.8941 Y19.7243
G01 X6.9560 Y19.6560
G01 X7.0243 Y19.5941
G01 X7.1004 Y19.5379
G01 X7.1774 Y19.4919
G01 X7.2607 Y19.4525
G01 X7.3474 Y19.4214
G01 X7.4392 Y19.3986
G01 X7.5280 Y19.3855
G01 X7.6225 Y19.3811
G01 X7.7145 Y19.3858
G01 X7.8032 Y19.3990
G01 X7.8768 Y19.4174
G01 X9.7288 Y17.5655
G01 X9.7289 Y15.2629
G01 X9.7310 Y15.2206
G01 X9.7376 Y15.1763
G01 X9.7485 Y15.1329
G01 X9.7627 Y15.0930
G01 X9.7839 Y15.0480
G01 X9.8057 Y15.0117
G01 X9.8332 Y14.9748
G01 X9.8625 Y14.9425
G01 X9.8977 Y14.9109
G01 X9.9338 Y14.8844
G01 X9.9702 Y14.8627
G01 X10.0084 Y14.8445
G01 X10.0529 Y14.8285
G01 X10.0963 Y14.8176
G01 X10.1406 Y14.8110
G01 X10.1854 Y14.8088
G01 X15.2158 Y14.8088
G01 X15.2524 Y14.8104
G01 X15.2594 Y14.8110
G01 X15.2980 Y14.8165
G01 X15.3049 Y14.8178
G01 X15.3416 Y14.8268
G01 X15.3483 Y14.8288
G01 X15.3828 Y14.8409
G01 X15.3905 Y14.8440
G01 X15.4225 Y14.8589
G01 X15.4320 Y14.8639
G01 X15.4624 Y14.8819
G01 X15.4683 Y14.8857
G01 X15.4988 Y14.9080
G01 X15.5052 Y14.9132
G01 X15.5325 Y14.9376
G01 X15.5375 Y14.9425
G01 X15.5631 Y14.9704
G01 X15.5676 Y14.9757
G01 X15.5903 Y15.0059
G01 X15.5943 Y15.0117
G01 X15.6139 Y15.0440
G01 X15.6173 Y15.0502
G01 X15.6337 Y15.0842
G01 X15.6364 Y15.0907
G01 X15.6494 Y15.1262
G01 X15.6515 Y15.1329
G01 X15.6610 Y15.1695
G01 X15.6624 Y15.1763
G01 X15.6683 Y15.2137
G01 X15.6690 Y15.2206
G01 X15.6712 Y15.2596
G01 X15.6919 Y16.9001
G01 X15.7077 Y16.9077
G01 X15.7899 Y16.9570
G01 X15.8698 Y17.0165
G01 X15.9399 Y17.0801
G01 X16.0035 Y17.1502
G01 X16.0643 Y17.2322
G01 X16.1129 Y17.3134
G01 X16.1535 Y17.3990
G01 X16.1872 Y17.4927
G01 X16.2108 Y17.5869
G01 X16.2247 Y17.6805
G01 X16.2298 Y17.7812
G01 X16.2250 Y17.8770
G01 X16.2108 Y17.9731
G01 X16.1872 Y18.0673
G01 X16.1553 Y18.1565
G01 X16.1117 Y18.2487
G01 X16.0630 Y18.3299
G01 X16.0051 Y18.4079
G01 X15.9399 Y18.4799
G01 X15.8679 Y18.5451
G01 X15.7899 Y18.6030
G01 X15.7087 Y18.6517
G01 X15.6165 Y18.6953
G01 X15.5273 Y18.7272
G01 X15.4319 Y18.7510
G01 X15.3370 Y18.7650
G01 X15.2400 Y18.7698
G01 X15.1430 Y18.7650
G01 X15.0469 Y18.7508
G01 X14.9527 Y18.7272
G01 X14.8612 Y18.6945
G01 X14.7734 Y18.6529
G01 X14.6901 Y18.6030
G01 X14.6121 Y18.5451
G01 X14.5401 Y18.4799
G01 X14.4749 Y18.4079
G01 X14.4170 Y18.3299
G01 X14.3671 Y18.2466
G01 X14.3255 Y18.1588
G01 X14.2928 Y18.0673
G01 X14.2695 Y17.9743
G01 X14.2550 Y17.8770
G01 X14.2503 Y17.7825
G01 X14.2553 Y17.6805
G01 X14.2692 Y17.5869
G01 X14.2928 Y17.4927
G01 X14.3255 Y17.4012
G01 X14.3660 Y17.3156
G01 X14.4184 Y17.2281
G01 X14.4749 Y17.1521
G01 X14.5401 Y17.0801
G01 X14.6121 Y17.0149
G01 X14.6881 Y16.9584
G01 X14.7713 Y16.9083
G01 X14.7787 Y16.9045
G01 X14.7637 Y15.7220
G01 X10.6420 Y15.7220
G01 X10.6420 Y17.7558
G01 X10.6398 Y17.7994
G01 X10.6327 Y17.8461
G01 X10.6216 Y17.8895
G01 X10.6072 Y17.9293
G01 X10.5892 Y17.9676
G01 X10.5636 Y18.0103
G01 X10.5384 Y18.0443
G01 X10.5083 Y18.0775
G01 X8.5226 Y20.0632
G01 X8.5410 Y20.1368
G01 X8.5545 Y20.2280
G01 X8.5590 Y20.3200
G01 X8.5547 Y20.4096
G01 X8.5404 Y20.5056
G01 X8.5186 Y20.5926
G01 X8.4875 Y20.6793
G01 X8.4481 Y20.7626
G01 X8.4021 Y20.8396
G01 X8.3443 Y20.9176
G01 X8.2840 Y20.9840
G01 X8.2157 Y21.0459
G01 X8.1417 Y21.1007
G01 X8.0766 Y21.1398
G01 X8.0766 Y27.9708
G01 X8.0744 Y28.0102
G01 X8.0735 Y28.0180
G01 X8.0678 Y28.0545
G01 X8.0662 Y28.0622
G01 X8.0569 Y28.0979
G01 X8.0549 Y28.1043
G01 X8.0423 Y28.1390
G01 X8.0392 Y28.1463
G01 X8.0227 Y28.1806
G01 X8.0195 Y28.1865
G01 X8.0010 Y28.2170
G01 X7.9952 Y28.2256
G01 X7.9737 Y28.2541
G01 X7.9687 Y28.2602
G01 X7.9437 Y28.2874
G01 X7.9390 Y28.2921
G01 X7.9115 Y28.3168
G01 X7.9054 Y28.3218
G01 X7.8757 Y28.3436
G01 X7.8691 Y28.3480
G01 X7.8374 Y28.3669
G01 X7.8304 Y28.3706
G01 X7.7970 Y28.3863
G01 X7.7897 Y28.3893
G01 X7.7549 Y28.4016
G01 X7.7473 Y28.4039
G01 X7.7115 Y28.4127
G01 X7.7037 Y28.4143
G01 X7.6660 Y28.4197
G01 X7.6581 Y28.4204
G01 X7.6212 Y28.4220
G01 X7.6146 Y28.4220
G01 X5.9551 Y28.4022
G01 X5.9517 Y28.4087
G01 X5.9016 Y28.4919
G01 X5.8451 Y28.5679
G01 X5.7799 Y28.6399
G01 X5.7060 Y28.7066
G01 X5.6299 Y28.7630
G01 X5.5466 Y28.8129
G01 X5.4565 Y28.8553
G01 X5.3673 Y28.8872
G01 X5.2731 Y28.9108
G01 X5.1746 Y28.9252
G01 X5.0800 Y28.9298
G01 X4.9842 Y28.9251
G01 X4.8869 Y28.9108
G01 X4.7927 Y28.8872
G01 X4.7012 Y28.8545
G01 X4.6156 Y28.8140
G01 X4.5301 Y28.7630
G01 X4.4540 Y28.7066
G01 X4.3784 Y28.6381
G01 X4.3149 Y28.5679
G01 X4.2570 Y28.4899
G01 X4.2071 Y28.4066
G01 X4.1655 Y28.3188
G01 X4.1328 Y28.2273
G01 X4.1092 Y28.1331
G01 X4.0950 Y28.0370
G01 X4.0902 Y27.9388
G00 Z2.0000
G00 X4.0902 Y30.4788
G01 F60.00
G01 Z0.0000
G01 F80.00
G01 X4.0950 Y30.3830
G01 X4.1092 Y30.2869
G01 X4.1328 Y30.1927
G01 X4.1655 Y30.1012
G01 X4.2071 Y30.0134
G01 X4.2570 Y29.9301
G01 X4.3149 Y29.8521
G01 X4.3784 Y29.7819
G01 X4.4521 Y29.7149
G01 X4.5281 Y29.6584
G01 X4.6156 Y29.6060
G01 X4.7012 Y29.5655
G01 X4.7927 Y29.5328
G01 X4.8869 Y29.5092
G01 X4.9842 Y29.4949
G01 X5.0800 Y29.4902
G01 X5.1746 Y29.4948
G01 X5.2731 Y29.5092
G01 X5.3673 Y29.5328
G01 X5.4565 Y29.5647
G01 X5.5466 Y29.6071
G01 X5.6299 Y29.6570
G01 X5.7060 Y29.7134
G01 X5.7799 Y29.7801
G01 X5.8451 Y29.8521
G01 X5.9016 Y29.9281
G01 X5.9517 Y30.0113
G01 X5.9589 Y30.0259
G01 X9.7272 Y30.0463
G01 X9.7049 Y23.7525
G01 X9.6863 Y23.7435
G01 X9.6010 Y23.6921
G01 X9.5240 Y23.6349
G01 X9.4511 Y23.5689
G01 X9.3835 Y23.4940
G01 X9.3265 Y23.4170
G01 X9.2759 Y23.3326
G01 X9.2329 Y23.2414
G01 X9.2007 Y23.1510
G01 X9.1768 Y23.0556
G01 X9.1623 Y22.9583
G01 X9.1576 Y22.8625
G01 X9.1625 Y22.7605
G01 X9.1768 Y22.6644
G01 X9.2000 Y22.5714
G01 X9.2338 Y22.4764
G01 X9.2771 Y22.3853
G01 X9.3265 Y22.3030
G01 X9.3835 Y22.2260
G01 X9.4511 Y22.1511
G01 X9.5260 Y22.0835
G01 X9.6030 Y22.0265
G01 X9.6853 Y21.9771
G01 X9.7764 Y21.9338
G01 X9.8714 Y21.9000
G01 X9.9644 Y21.8768
G01 X10.0593 Y21.8626
G01 X10.1600 Y21.8575
G01 X10.2607 Y21.8626
G01 X10.3556 Y21.8768
G01 X10.4486 Y21.9000
G01 X10.5436 Y21.9338
G01 X10.6347 Y21.9771
G01 X10.7170 Y22.0265
G01 X10.7950 Y22.0843
G01 X10.8689 Y22.1511
G01 X10.9349 Y22.2240
G01 X10.9935 Y22.3030
G01 X11.0452 Y22.3896
G01 X11.0862 Y22.4764
G01 X11.1186 Y22.5667
G01 X11.1427 Y22.6620
G01 X11.1577 Y22.7617
G01 X11.1625 Y22.8612
G01 X11.1577 Y22.9583
G01 X11.1437 Y23.0532
G01 X11.1193 Y23.1510
G01 X11.0852 Y23.2459
G01 X11.0441 Y23.3326
G01 X10.9949 Y23.4149
G01 X10.9333 Y23.4978
G01 X10.8689 Y23.5689
G01 X10.7978 Y23.6333
G01 X10.7170 Y23.6935
G01 X10.6337 Y23.7435
G01 X10.6181 Y23.7510
G01 X10.6420 Y30.5079
G01 X10.6400 Y30.5485
G01 X10.6340 Y30.5905
G01 X10.6322 Y30.5993
G01 X10.6231 Y30.6352
G01 X10.6208 Y30.6426
G01 X10.6063 Y30.6824
G01 X10.5869 Y30.7228
G01 X10.5659 Y30.7577
G01 X10.5394 Y30.7938
G01 X10.5094 Y30.8271
G01 X10.4732 Y30.8599
G01 X10.4370 Y30.8864
G01 X10.4031 Y30.9067
G01 X10.3963 Y30.9103
G01 X10.3628 Y30.9261
G01 X10.3556 Y30.9291
G01 X10.3195 Y30.9419
G01 X10.2785 Y30.9524
G01 X10.2708 Y30.9539
G01 X10.2318 Y30.9596
G01 X10.1882 Y30.9620
G01 X5.9565 Y30.9392
G01 X5.9517 Y30.9487
G01 X5.9030 Y31.0299
G01 X5.8435 Y31.1098
G01 X5.7799 Y31.1799
G01 X5.7098 Y31.2435
G01 X5.6278 Y31.3043
G01 X5.5466 Y31.3529
G01 X5.4610 Y31.3935
G01 X5.3673 Y31.4272
G01 X5.2731 Y31.4508
G01 X5.1795 Y31.4647
G01 X5.0775 Y31.4697
G01 X4.9830 Y31.4650
G01 X4.8869 Y31.4508
G01 X4.7927 Y31.4272
G01 X4.7012 Y31.3945
G01 X4.6134 Y31.3529
G01 X4.5301 Y31.3030
G01 X4.4521 Y31.2451
G01 X4.3801 Y31.1799
G01 X4.3149 Y31.1079
G01 X4.2570 Y31.0299
G01 X4.2071 Y30.9466
G01 X4.1655 Y30.8588
G01 X4.1328 Y30.7673
G01 X4.1092 Y30.6731
G01 X4.0950 Y30.5770
G01 X4.0902 Y30.4788
G00 Z2.0000
M05
G00 Z2.0000
G00 Z15.00


