(G-CODE GENERATED BY FLATCAM v8.994 - www.flatcam.org - Version Date: 2020/11/7)

(Name: TRANSMISOR AM_copperBottom.gbl_iso_combined_cnc)
(Type: G-code from Geometry)
(Units: MM)

(Created on Monday, 09 September 2024 at 19:29)

(This preprocessor is the default preprocessor used by FlatCAM.)
(It is made to work with MACH3 compatible motion controllers.)

(TOOL DIAMETER: 1.0 mm)
(Feedrate_XY: 100.0 mm/min)
(Feedrate_Z: 60.0 mm/min)
(Feedrate rapids 1500.0 mm/min)

(Z_Cut: -0.05 mm)
(Z_Move: 2.0 mm)
(Z Start: None mm)
(Z End: 15.0 mm)
(X,Y End: None mm)
(Steps per circle: 64)
(Preprocessor Geometry: default)

(X range:    1.6334 ...   46.6266  mm)
(Y range:    1.6080 ...   36.4666  mm)

(Spindle Speed: 0.0 RPM)
G21
G90
G94

G01 F100.00

M5
G00 Z15.0000
G00 X0.0000 Y0.0000
T1
M6    
(MSG, Change to Tool Dia = 1.0000)
M0
G00 Z15.0000

M03
G01 F100.00
G00 X21.4081 Y10.1845
G01 F60.00
G01 Z-0.0500
G01 F100.00
G01 X21.4127 Y10.2779
G01 X21.4145 Y10.3024
G01 X21.4175 Y10.3267
G01 X21.4312 Y10.4192
G01 X21.4354 Y10.4434
G01 X21.4408 Y10.4673
G01 X21.4635 Y10.5580
G01 X21.4700 Y10.5816
G01 X21.4777 Y10.6049
G01 X21.5092 Y10.6929
G01 X21.5181 Y10.7158
G01 X21.5280 Y10.7383
G01 X21.5680 Y10.8228
G01 X21.5790 Y10.8447
G01 X21.5911 Y10.8661
G01 X21.6392 Y10.9462
G01 X21.6523 Y10.9670
G01 X21.6664 Y10.9870
G01 X21.7221 Y11.0621
G01 X21.7372 Y11.0815
G01 X21.7532 Y11.1000
G01 X21.8160 Y11.1693
G01 X21.8244 Y11.1783
G01 X21.8417 Y11.1956
G01 X21.9292 Y11.2749
G01 X21.9385 Y11.2828
G01 X21.9579 Y11.2979
G01 X22.0330 Y11.3536
G01 X22.0530 Y11.3677
G01 X22.0738 Y11.3808
G01 X22.1558 Y11.4300
G01 X22.0738 Y11.4792
G01 X22.0530 Y11.4923
G01 X22.0330 Y11.5064
G01 X21.9579 Y11.5621
G01 X21.9385 Y11.5772
G01 X21.9292 Y11.5851
G01 X21.8507 Y11.6560
G01 X21.8417 Y11.6644
G01 X21.8244 Y11.6817
G01 X21.7451 Y11.7692
G01 X21.7372 Y11.7785
G01 X21.7237 Y11.7958
G01 X16.1325 Y11.8155
G01 X16.1391 Y11.2843
G01 X16.1534 Y11.2730
G01 X16.1720 Y11.2569
G01 X16.2403 Y11.1950
G01 X16.2581 Y11.1781
G01 X16.2750 Y11.1603
G01 X16.3369 Y11.0920
G01 X16.3530 Y11.0734
G01 X16.3681 Y11.0541
G01 X16.4230 Y10.9800
G01 X16.4371 Y10.9599
G01 X16.4503 Y10.9392
G01 X16.4977 Y10.8601
G01 X16.5100 Y10.8383
G01 X16.5223 Y10.8601
G01 X16.5697 Y10.9392
G01 X16.5829 Y10.9599
G01 X16.5970 Y10.9800
G01 X16.6519 Y11.0541
G01 X16.6670 Y11.0734
G01 X16.6831 Y11.0920
G01 X16.7450 Y11.1603
G01 X16.7619 Y11.1781
G01 X16.7797 Y11.1950
G01 X16.8480 Y11.2569
G01 X16.8666 Y11.2730
G01 X16.8859 Y11.2881
G01 X16.9600 Y11.3430
G01 X16.9801 Y11.3571
G01 X17.0008 Y11.3703
G01 X17.0799 Y11.4177
G01 X17.1013 Y11.4298
G01 X17.1232 Y11.4408
G01 X17.2066 Y11.4803
G01 X17.2290 Y11.4902
G01 X17.2519 Y11.4990
G01 X17.3387 Y11.5301
G01 X17.3620 Y11.5378
G01 X17.3857 Y11.5443
G01 X17.4752 Y11.5668
G01 X17.4991 Y11.5721
G01 X17.5233 Y11.5763
G01 X17.6145 Y11.5899
G01 X17.6389 Y11.5929
G01 X17.6633 Y11.5947
G01 X17.7555 Y11.5992
G01 X17.7800 Y11.5998
G01 X17.8045 Y11.5992
G01 X17.8967 Y11.5947
G01 X17.9211 Y11.5929
G01 X17.9455 Y11.5899
G01 X18.0367 Y11.5763
G01 X18.0609 Y11.5721
G01 X18.0848 Y11.5668
G01 X18.1743 Y11.5443
G01 X18.1980 Y11.5378
G01 X18.2213 Y11.5301
G01 X18.3081 Y11.4990
G01 X18.3310 Y11.4902
G01 X18.3534 Y11.4803
G01 X18.4368 Y11.4408
G01 X18.4587 Y11.4298
G01 X18.4801 Y11.4177
G01 X18.5592 Y11.3703
G01 X18.5799 Y11.3571
G01 X18.6000 Y11.3430
G01 X18.6741 Y11.2881
G01 X18.6934 Y11.2730
G01 X18.7120 Y11.2569
G01 X18.7803 Y11.1950
G01 X18.7981 Y11.1781
G01 X18.8150 Y11.1603
G01 X18.8769 Y11.0920
G01 X18.8930 Y11.0734
G01 X18.9006 Y11.0638
G01 X18.9630 Y10.9800
G01 X18.9771 Y10.9599
G01 X18.9903 Y10.9392
G01 X19.0377 Y10.8601
G01 X19.0498 Y10.8387
G01 X19.0608 Y10.8168
G01 X19.1003 Y10.7334
G01 X19.1102 Y10.7110
G01 X19.1190 Y10.6881
G01 X19.1501 Y10.6013
G01 X19.1578 Y10.5780
G01 X19.1643 Y10.5543
G01 X19.1868 Y10.4648
G01 X19.1921 Y10.4409
G01 X19.1963 Y10.4167
G01 X19.2099 Y10.3255
G01 X19.2129 Y10.3011
G01 X19.2147 Y10.2767
G01 X19.2192 Y10.1845
G01 X19.2198 Y10.1600
G01 X19.2192 Y10.1355
G01 X19.2139 Y10.0311
G01 X19.2129 Y10.0189
G01 X19.2099 Y9.9945
G01 X19.1963 Y9.9033
G01 X19.1921 Y9.8791
G01 X19.1868 Y9.8552
G01 X19.1643 Y9.7657
G01 X19.1578 Y9.7420
G01 X19.1501 Y9.7187
G01 X19.1190 Y9.6319
G01 X19.1102 Y9.6090
G01 X19.1003 Y9.5866
G01 X19.0608 Y9.5032
G01 X19.0498 Y9.4813
G01 X19.0377 Y9.4599
G01 X18.9903 Y9.3808
G01 X18.9771 Y9.3601
G01 X18.9630 Y9.3400
G01 X18.9081 Y9.2659
G01 X18.8930 Y9.2466
G01 X18.8769 Y9.2280
G01 X18.8150 Y9.1597
G01 X18.7981 Y9.1419
G01 X18.7803 Y9.1250
G01 X18.7120 Y9.0631
G01 X18.7028 Y9.0549
G01 X18.6866 Y9.0416
G01 X18.6866 Y8.5266
G01 X24.5188 Y8.5266
G01 X24.5188 Y10.1600
G01 X24.5194 Y10.1845
G01 X24.5214 Y10.2244
G01 X24.5221 Y10.2366
G01 X24.5245 Y10.2611
G01 X24.5340 Y10.3248
G01 X24.5362 Y10.3369
G01 X24.5416 Y10.3608
G01 X24.5513 Y10.3995
G01 X24.5578 Y10.4232
G01 X24.5655 Y10.4465
G01 X24.5790 Y10.4840
G01 X24.5878 Y10.5069
G01 X24.5978 Y10.5294
G01 X24.6148 Y10.5654
G01 X24.6202 Y10.5765
G01 X24.6318 Y10.5981
G01 X24.6585 Y10.6429
G01 X24.6716 Y10.6637
G01 X24.6857 Y10.6837
G01 X24.7095 Y10.7158
G01 X24.7169 Y10.7256
G01 X24.7325 Y10.7445
G01 X24.7674 Y10.7833
G01 X24.7843 Y10.8011
G01 X27.0334 Y13.0501
G01 X27.0334 Y15.2400
G01 X27.0340 Y15.2645
G01 X27.0360 Y15.3044
G01 X27.0367 Y15.3166
G01 X27.0391 Y15.3411
G01 X27.0466 Y15.3927
G01 X27.0508 Y15.4169
G01 X27.0562 Y15.4408
G01 X27.0659 Y15.4795
G01 X27.0724 Y15.5032
G01 X27.0761 Y15.5149
G01 X27.0936 Y15.5640
G01 X27.1024 Y15.5869
G01 X27.1124 Y15.6094
G01 X27.1294 Y15.6454
G01 X27.1348 Y15.6565
G01 X27.1464 Y15.6781
G01 X27.1731 Y15.7229
G01 X27.1870 Y15.7449
G01 X26.0577 Y14.6158
G01 X26.0191 Y14.5806
G01 X26.0005 Y14.5646
G01 X25.9812 Y14.5495
G01 X25.9392 Y14.5185
G01 X25.9188 Y14.5049
G01 X25.8741 Y14.4779
G01 X25.8528 Y14.4658
G01 X25.8419 Y14.4602
G01 X25.7836 Y14.4326
G01 X25.7609 Y14.4233
G01 X25.7003 Y14.4015
G01 X25.6768 Y14.3944
G01 X25.6143 Y14.3788
G01 X25.5902 Y14.3740
G01 X25.5265 Y14.3645
G01 X25.5143 Y14.3632
G01 X25.4898 Y14.3614
G01 X25.4499 Y14.3594
G01 X25.4254 Y14.3588
G01 X24.0134 Y14.3588
G01 X23.9905 Y14.3281
G01 X23.9749 Y14.3092
G01 X23.8956 Y14.2217
G01 X23.8871 Y14.2129
G01 X23.8693 Y14.1960
G01 X23.7908 Y14.1251
G01 X23.7719 Y14.1095
G01 X23.7621 Y14.1021
G01 X23.6870 Y14.0464
G01 X23.6670 Y14.0323
G01 X23.6462 Y14.0192
G01 X23.5642 Y13.9700
G01 X23.6567 Y13.9144
G01 X23.6670 Y13.9077
G01 X23.6870 Y13.8936
G01 X23.7621 Y13.8379
G01 X23.7815 Y13.8228
G01 X23.8000 Y13.8068
G01 X23.8693 Y13.7440
G01 X23.8871 Y13.7271
G01 X23.9040 Y13.7093
G01 X23.9668 Y13.6400
G01 X23.9828 Y13.6215
G01 X23.9979 Y13.6021
G01 X24.0536 Y13.5270
G01 X24.0677 Y13.5070
G01 X24.0808 Y13.4862
G01 X24.1289 Y13.4061
G01 X24.1410 Y13.3847
G01 X24.1520 Y13.3628
G01 X24.1920 Y13.2783
G01 X24.2019 Y13.2558
G01 X24.2108 Y13.2329
G01 X24.2423 Y13.1449
G01 X24.2500 Y13.1216
G01 X24.2565 Y13.0980
G01 X24.2792 Y13.0073
G01 X24.2846 Y12.9834
G01 X24.2888 Y12.9592
G01 X24.3025 Y12.8667
G01 X24.3042 Y12.8546
G01 X24.3066 Y12.8301
G01 X24.3119 Y12.7245
G01 X24.3125 Y12.7000
G01 X24.3119 Y12.6755
G01 X24.3073 Y12.5821
G01 X24.3055 Y12.5576
G01 X24.3025 Y12.5333
G01 X24.2888 Y12.4408
G01 X24.2846 Y12.4166
G01 X24.2792 Y12.3927
G01 X24.2565 Y12.3020
G01 X24.2500 Y12.2784
G01 X24.2423 Y12.2551
G01 X24.2108 Y12.1671
G01 X24.2019 Y12.1442
G01 X24.1920 Y12.1217
G01 X24.1520 Y12.0372
G01 X24.1410 Y12.0153
G01 X24.1289 Y11.9939
G01 X24.0808 Y11.9138
G01 X24.0677 Y11.8930
G01 X24.0536 Y11.8730
G01 X23.9979 Y11.7979
G01 X23.9828 Y11.7785
G01 X23.9668 Y11.7600
G01 X23.9040 Y11.6907
G01 X23.8871 Y11.6729
G01 X23.8693 Y11.6560
G01 X23.8000 Y11.5932
G01 X23.7815 Y11.5772
G01 X23.7621 Y11.5621
G01 X23.6870 Y11.5064
G01 X23.6670 Y11.4923
G01 X23.6462 Y11.4792
G01 X23.5642 Y11.4300
G01 X23.6567 Y11.3744
G01 X23.6670 Y11.3677
G01 X23.6870 Y11.3536
G01 X23.7621 Y11.2979
G01 X23.7815 Y11.2828
G01 X23.8000 Y11.2668
G01 X23.8693 Y11.2040
G01 X23.8871 Y11.1871
G01 X23.9040 Y11.1693
G01 X23.9668 Y11.1000
G01 X23.9828 Y11.0815
G01 X23.9979 Y11.0621
G01 X24.0536 Y10.9870
G01 X24.0677 Y10.9670
G01 X24.0808 Y10.9462
G01 X24.1289 Y10.8661
G01 X24.1410 Y10.8447
G01 X24.1520 Y10.8228
G01 X24.1920 Y10.7383
G01 X24.2019 Y10.7158
G01 X24.2108 Y10.6929
G01 X24.2423 Y10.6049
G01 X24.2500 Y10.5816
G01 X24.2565 Y10.5580
G01 X24.2792 Y10.4673
G01 X24.2820 Y10.4554
G01 X24.2868 Y10.4313
G01 X24.3025 Y10.3267
G01 X24.3055 Y10.3024
G01 X24.3073 Y10.2779
G01 X24.3119 Y10.1845
G01 X24.3125 Y10.1600
G01 X24.3119 Y10.1355
G01 X24.3073 Y10.0421
G01 X24.3055 Y10.0176
G01 X24.3025 Y9.9933
G01 X24.2888 Y9.9008
G01 X24.2846 Y9.8766
G01 X24.2792 Y9.8527
G01 X24.2565 Y9.7620
G01 X24.2500 Y9.7384
G01 X24.2423 Y9.7151
G01 X24.2065 Y9.6155
G01 X24.2019 Y9.6042
G01 X24.1920 Y9.5817
G01 X24.1520 Y9.4972
G01 X24.1410 Y9.4753
G01 X24.1289 Y9.4539
G01 X24.0808 Y9.3738
G01 X24.0677 Y9.3530
G01 X24.0536 Y9.3330
G01 X23.9979 Y9.2579
G01 X23.9828 Y9.2385
G01 X23.9668 Y9.2200
G01 X23.9040 Y9.1507
G01 X23.8871 Y9.1329
G01 X23.8783 Y9.1244
G01 X23.8000 Y9.0532
G01 X23.7815 Y9.0372
G01 X23.7621 Y9.0221
G01 X23.6870 Y8.9664
G01 X23.6670 Y8.9523
G01 X23.6462 Y8.9392
G01 X23.5661 Y8.8911
G01 X23.5447 Y8.8790
G01 X23.5228 Y8.8680
G01 X23.4383 Y8.8280
G01 X23.4158 Y8.8181
G01 X23.3929 Y8.8092
G01 X23.3049 Y8.7777
G01 X23.2816 Y8.7700
G01 X23.2580 Y8.7635
G01 X23.1673 Y8.7408
G01 X23.1434 Y8.7354
G01 X23.1192 Y8.7312
G01 X23.0267 Y8.7175
G01 X23.0024 Y8.7145
G01 X22.9779 Y8.7127
G01 X22.8845 Y8.7081
G01 X22.8600 Y8.7075
G01 X22.8355 Y8.7081
G01 X22.7421 Y8.7127
G01 X22.7176 Y8.7145
G01 X22.6933 Y8.7175
G01 X22.6008 Y8.7312
G01 X22.5766 Y8.7354
G01 X22.5527 Y8.7408
G01 X22.4620 Y8.7635
G01 X22.4384 Y8.7700
G01 X22.4151 Y8.7777
G01 X22.3271 Y8.8092
G01 X22.3042 Y8.8181
G01 X22.2929 Y8.8229
G01 X22.1972 Y8.8680
G01 X22.1753 Y8.8790
G01 X22.1539 Y8.8911
G01 X22.0738 Y8.9392
G01 X22.0530 Y8.9523
G01 X22.0330 Y8.9664
G01 X21.9579 Y9.0221
G01 X21.9385 Y9.0372
G01 X21.9200 Y9.0532
G01 X21.8507 Y9.1160
G01 X21.8329 Y9.1329
G01 X21.8160 Y9.1507
G01 X21.7532 Y9.2200
G01 X21.7372 Y9.2385
G01 X21.7221 Y9.2579
G01 X21.6664 Y9.3330
G01 X21.6523 Y9.3530
G01 X21.6456 Y9.3633
G01 X21.5911 Y9.4539
G01 X21.5790 Y9.4753
G01 X21.5680 Y9.4972
G01 X21.5280 Y9.5817
G01 X21.5181 Y9.6042
G01 X21.5092 Y9.6271
G01 X21.4777 Y9.7151
G01 X21.4700 Y9.7384
G01 X21.4666 Y9.7501
G01 X21.4408 Y9.8527
G01 X21.4354 Y9.8766
G01 X21.4312 Y9.9008
G01 X21.4158 Y10.0054
G01 X21.4145 Y10.0176
G01 X21.4127 Y10.0421
G01 X21.4081 Y10.1355
G01 X21.4075 Y10.1600
G01 X21.4081 Y10.1845
G00 Z2.0000
G00 X25.9056 Y6.8514
G01 F60.00
G01 Z-0.0500
G01 F100.00
G01 X25.8741 Y6.8325
G01 X25.8528 Y6.8204
G01 X25.8308 Y6.8094
G01 X25.7836 Y6.7872
G01 X25.7609 Y6.7779
G01 X25.7494 Y6.7736
G01 X25.7119 Y6.7601
G01 X25.6886 Y6.7524
G01 X25.6649 Y6.7459
G01 X25.6143 Y6.7334
G01 X25.6023 Y6.7308
G01 X25.5781 Y6.7266
G01 X25.5386 Y6.7208
G01 X25.5143 Y6.7178
G01 X25.4898 Y6.7160
G01 X25.4377 Y6.7135
G01 X17.7800 Y6.7134
G01 X17.7555 Y6.7140
G01 X17.7156 Y6.7160
G01 X17.6911 Y6.7178
G01 X17.6668 Y6.7208
G01 X17.6273 Y6.7266
G01 X17.6031 Y6.7308
G01 X17.5911 Y6.7334
G01 X17.5405 Y6.7459
G01 X17.5168 Y6.7524
G01 X17.4935 Y6.7601
G01 X17.4560 Y6.7736
G01 X17.4331 Y6.7824
G01 X17.4218 Y6.7872
G01 X17.3635 Y6.8148
G01 X17.3419 Y6.8264
G01 X17.3313 Y6.8325
G01 X17.2971 Y6.8531
G01 X17.2763 Y6.8662
G01 X17.2563 Y6.8803
G01 X17.2144 Y6.9115
G01 X17.2049 Y6.9192
G01 X17.1863 Y6.9352
G01 X17.1567 Y6.9620
G01 X17.1389 Y6.9789
G01 X17.1220 Y6.9967
G01 X17.0871 Y7.0355
G01 X17.0792 Y7.0449
G01 X17.0641 Y7.0642
G01 X17.0403 Y7.0963
G01 X17.0262 Y7.1163
G01 X17.0131 Y7.1371
G01 X16.9864 Y7.1819
G01 X16.9748 Y7.2035
G01 X16.9694 Y7.2146
G01 X16.9524 Y7.2506
G01 X16.9424 Y7.2731
G01 X16.9336 Y7.2960
G01 X16.9201 Y7.3335
G01 X16.9124 Y7.3568
G01 X16.9059 Y7.3805
G01 X16.8934 Y7.4311
G01 X16.8886 Y7.4552
G01 X16.8791 Y7.5189
G01 X16.8767 Y7.5434
G01 X16.8740 Y7.5955
G01 X16.8734 Y7.6200
G01 X16.8734 Y9.0416
G01 X16.8572 Y9.0549
G01 X16.8480 Y9.0631
G01 X16.7797 Y9.1250
G01 X16.7619 Y9.1419
G01 X16.7450 Y9.1597
G01 X16.6831 Y9.2280
G01 X16.6670 Y9.2466
G01 X16.6519 Y9.2659
G01 X16.5970 Y9.3400
G01 X16.5829 Y9.3601
G01 X16.5697 Y9.3808
G01 X16.5223 Y9.4599
G01 X16.5100 Y9.4817
G01 X16.4977 Y9.4599
G01 X16.4503 Y9.3808
G01 X16.4371 Y9.3601
G01 X16.4230 Y9.3400
G01 X16.3681 Y9.2659
G01 X16.3530 Y9.2466
G01 X16.3369 Y9.2280
G01 X16.2750 Y9.1597
G01 X16.2581 Y9.1419
G01 X16.2403 Y9.1250
G01 X16.1720 Y9.0631
G01 X16.1534 Y9.0470
G01 X16.1341 Y9.0319
G01 X16.0600 Y8.9770
G01 X16.0399 Y8.9629
G01 X16.0192 Y8.9497
G01 X15.9401 Y8.9023
G01 X15.9187 Y8.8902
G01 X15.8968 Y8.8792
G01 X15.8134 Y8.8397
G01 X15.7910 Y8.8298
G01 X15.7681 Y8.8210
G01 X15.6813 Y8.7899
G01 X15.6580 Y8.7822
G01 X15.6343 Y8.7757
G01 X15.5448 Y8.7532
G01 X15.5209 Y8.7479
G01 X15.4967 Y8.7437
G01 X15.4055 Y8.7301
G01 X15.3811 Y8.7271
G01 X15.3567 Y8.7253
G01 X15.2523 Y8.7204
G01 X15.2277 Y8.7204
G01 X15.2155 Y8.7208
G01 X15.1233 Y8.7253
G01 X15.0989 Y8.7271
G01 X15.0745 Y8.7301
G01 X14.9833 Y8.7437
G01 X14.9591 Y8.7479
G01 X14.9352 Y8.7532
G01 X14.8457 Y8.7757
G01 X14.8220 Y8.7822
G01 X14.7987 Y8.7899
G01 X14.7119 Y8.8210
G01 X14.6890 Y8.8298
G01 X14.6666 Y8.8397
G01 X14.5832 Y8.8792
G01 X14.5613 Y8.8902
G01 X14.5399 Y8.9023
G01 X14.4608 Y8.9497
G01 X14.4401 Y8.9629
G01 X14.4200 Y8.9770
G01 X14.3459 Y9.0319
G01 X14.3266 Y9.0470
G01 X14.3080 Y9.0631
G01 X14.2397 Y9.1250
G01 X14.2219 Y9.1419
G01 X14.2050 Y9.1597
G01 X14.1431 Y9.2280
G01 X14.1270 Y9.2466
G01 X14.1119 Y9.2659
G01 X14.0570 Y9.3400
G01 X14.0429 Y9.3601
G01 X14.0297 Y9.3808
G01 X13.9823 Y9.4599
G01 X13.9700 Y9.4817
G01 X13.9577 Y9.4599
G01 X13.9103 Y9.3808
G01 X13.8971 Y9.3601
G01 X13.8830 Y9.3400
G01 X13.8281 Y9.2659
G01 X13.8130 Y9.2466
G01 X13.7969 Y9.2280
G01 X13.7350 Y9.1597
G01 X13.7181 Y9.1419
G01 X13.7003 Y9.1250
G01 X13.6320 Y9.0631
G01 X13.6134 Y9.0470
G01 X13.5941 Y9.0319
G01 X13.5200 Y8.9770
G01 X13.4999 Y8.9629
G01 X13.4792 Y8.9497
G01 X13.4001 Y8.9023
G01 X13.3787 Y8.8902
G01 X13.3568 Y8.8792
G01 X13.2734 Y8.8397
G01 X13.2510 Y8.8298
G01 X13.2281 Y8.8210
G01 X13.1413 Y8.7899
G01 X13.1180 Y8.7822
G01 X13.0943 Y8.7757
G01 X13.0048 Y8.7532
G01 X12.9809 Y8.7479
G01 X12.9567 Y8.7437
G01 X12.8655 Y8.7301
G01 X12.8411 Y8.7271
G01 X12.8167 Y8.7253
G01 X12.7245 Y8.7208
G01 X12.7000 Y8.7202
G01 X12.6755 Y8.7208
G01 X12.5833 Y8.7253
G01 X12.5589 Y8.7271
G01 X12.5345 Y8.7301
G01 X12.4433 Y8.7437
G01 X12.4191 Y8.7479
G01 X12.3952 Y8.7532
G01 X12.3057 Y8.7757
G01 X12.2820 Y8.7822
G01 X12.2587 Y8.7899
G01 X12.1719 Y8.8210
G01 X12.1490 Y8.8298
G01 X12.1266 Y8.8397
G01 X12.0432 Y8.8792
G01 X12.0213 Y8.8902
G01 X11.9999 Y8.9023
G01 X11.9208 Y8.9497
G01 X11.9104 Y8.9562
G01 X11.8900 Y8.9698
G01 X11.8059 Y9.0319
G01 X11.7866 Y9.0470
G01 X11.7680 Y9.0631
G01 X11.6997 Y9.1250
G01 X11.6819 Y9.1419
G01 X11.6650 Y9.1597
G01 X11.6031 Y9.2280
G01 X11.5949 Y9.2372
G01 X11.5816 Y9.2534
G01 X10.1346 Y9.2534
G01 X10.1145 Y9.2537
G01 X10.0567 Y9.2568
G01 X10.0392 Y9.2584
G01 X10.0258 Y9.2600
G01 X9.9819 Y9.2666
G01 X9.9513 Y9.2721
G01 X9.9250 Y9.2782
G01 X9.8820 Y9.2894
G01 X9.8690 Y9.2932
G01 X9.8395 Y9.3030
G01 X9.7979 Y9.3183
G01 X9.7854 Y9.3234
G01 X9.7570 Y9.3361
G01 X9.7170 Y9.3554
G01 X9.7050 Y9.3616
G01 X9.6780 Y9.3771
G01 X9.6402 Y9.4002
G01 X9.6288 Y9.4076
G01 X9.6035 Y9.4256
G01 X9.5681 Y9.4523
G01 X9.5575 Y9.4608
G01 X9.5341 Y9.4812
G01 X9.5014 Y9.5112
G01 X9.4918 Y9.5207
G01 X6.9726 Y12.0908
G01 X6.9641 Y12.0996
G01 X6.9352 Y12.1317
G01 X6.9150 Y12.1554
G01 X6.8986 Y12.1768
G01 X6.8724 Y12.2126
G01 X6.8553 Y12.2386
G01 X6.8258 Y12.2884
G01 X6.8174 Y12.3038
G01 X6.8054 Y12.3281
G01 X6.7867 Y12.3683
G01 X6.7799 Y12.3845
G01 X6.7704 Y12.4098
G01 X6.7558 Y12.4517
G01 X6.7506 Y12.4685
G01 X6.7435 Y12.4946
G01 X6.7331 Y12.5377
G01 X6.7296 Y12.5550
G01 X6.7251 Y12.5817
G01 X6.7190 Y12.6256
G01 X6.7161 Y12.6566
G01 X6.7140 Y12.7009
G01 X6.7134 Y12.7254
G01 X6.7134 Y14.1885
G01 X6.6556 Y14.2409
G01 X6.6378 Y14.2578
G01 X6.6209 Y14.2756
G01 X6.5623 Y14.3402
G01 X6.5463 Y14.3588
G01 X6.5312 Y14.3782
G01 X6.4792 Y14.4482
G01 X6.4651 Y14.4683
G01 X6.4520 Y14.4890
G01 X6.4071 Y14.5639
G01 X6.3950 Y14.5852
G01 X6.3840 Y14.6072
G01 X6.3467 Y14.6860
G01 X6.3367 Y14.7085
G01 X6.3279 Y14.7314
G01 X6.2985 Y14.8135
G01 X6.2908 Y14.8368
G01 X6.2843 Y14.8604
G01 X6.2631 Y14.9451
G01 X6.2577 Y14.9690
G01 X6.2535 Y14.9932
G01 X6.2407 Y15.0795
G01 X6.2377 Y15.1039
G01 X6.2359 Y15.1283
G01 X6.2316 Y15.2155
G01 X6.2310 Y15.2400
G01 X6.2316 Y15.2645
G01 X6.2359 Y15.3517
G01 X6.2377 Y15.3761
G01 X6.2407 Y15.4005
G01 X6.2535 Y15.4868
G01 X6.2577 Y15.5110
G01 X6.2631 Y15.5349
G01 X6.2874 Y15.6314
G01 X6.2945 Y15.6549
G01 X6.2985 Y15.6665
G01 X6.3279 Y15.7486
G01 X6.3367 Y15.7715
G01 X6.3467 Y15.7940
G01 X6.3840 Y15.8728
G01 X6.3950 Y15.8948
G01 X6.4071 Y15.9161
G01 X6.4520 Y15.9910
G01 X6.4651 Y16.0117
G01 X6.4792 Y16.0318
G01 X6.5312 Y16.1018
G01 X6.5463 Y16.1212
G01 X6.5623 Y16.1398
G01 X6.6209 Y16.2044
G01 X6.6378 Y16.2222
G01 X6.6556 Y16.2391
G01 X6.7202 Y16.2977
G01 X6.7388 Y16.3137
G01 X6.7582 Y16.3288
G01 X6.8282 Y16.3808
G01 X6.8483 Y16.3949
G01 X6.8690 Y16.4080
G01 X6.9439 Y16.4529
G01 X6.9652 Y16.4650
G01 X6.9872 Y16.4760
G01 X7.0660 Y16.5133
G01 X7.0885 Y16.5233
G01 X7.1114 Y16.5321
G01 X7.1935 Y16.5615
G01 X7.2168 Y16.5692
G01 X7.2404 Y16.5757
G01 X7.3251 Y16.5969
G01 X7.3490 Y16.6023
G01 X7.3732 Y16.6065
G01 X7.4595 Y16.6193
G01 X7.4839 Y16.6223
G01 X7.5083 Y16.6241
G01 X7.5955 Y16.6284
G01 X7.6200 Y16.6290
G01 X7.6445 Y16.6284
G01 X7.7317 Y16.6241
G01 X7.7561 Y16.6223
G01 X7.7805 Y16.6193
G01 X7.8668 Y16.6065
G01 X7.8910 Y16.6023
G01 X7.9149 Y16.5969
G01 X7.9996 Y16.5757
G01 X8.0232 Y16.5692
G01 X8.0465 Y16.5615
G01 X8.1286 Y16.5321
G01 X8.1515 Y16.5233
G01 X8.1740 Y16.5133
G01 X8.2528 Y16.4760
G01 X8.2748 Y16.4650
G01 X8.2961 Y16.4529
G01 X8.3710 Y16.4080
G01 X8.3917 Y16.3949
G01 X8.4118 Y16.3808
G01 X8.4818 Y16.3288
G01 X8.5012 Y16.3137
G01 X8.5198 Y16.2977
G01 X8.5844 Y16.2391
G01 X8.6022 Y16.2222
G01 X8.6191 Y16.2044
G01 X8.6777 Y16.1398
G01 X8.6937 Y16.1212
G01 X8.7088 Y16.1018
G01 X8.7608 Y16.0318
G01 X8.7749 Y16.0117
G01 X8.7880 Y15.9910
G01 X8.8329 Y15.9161
G01 X8.8450 Y15.8948
G01 X8.8560 Y15.8728
G01 X8.8933 Y15.7940
G01 X8.9033 Y15.7715
G01 X8.9121 Y15.7486
G01 X8.9415 Y15.6665
G01 X8.9492 Y15.6432
G01 X8.9557 Y15.6196
G01 X8.9769 Y15.5349
G01 X8.9823 Y15.5110
G01 X8.9865 Y15.4868
G01 X8.9993 Y15.4005
G01 X9.0023 Y15.3761
G01 X9.0034 Y15.3639
G01 X9.0088 Y15.2523
G01 X9.0090 Y15.2400
G01 X9.0084 Y15.2155
G01 X9.0041 Y15.1283
G01 X9.0023 Y15.1039
G01 X8.9993 Y15.0795
G01 X8.9865 Y14.9932
G01 X8.9823 Y14.9690
G01 X8.9769 Y14.9451
G01 X8.9557 Y14.8604
G01 X8.9492 Y14.8368
G01 X8.9415 Y14.8135
G01 X8.9121 Y14.7314
G01 X8.9033 Y14.7085
G01 X8.8933 Y14.6860
G01 X8.8560 Y14.6072
G01 X8.8450 Y14.5852
G01 X8.8329 Y14.5639
G01 X8.7880 Y14.4890
G01 X8.7749 Y14.4683
G01 X8.7608 Y14.4482
G01 X8.7014 Y14.3684
G01 X8.6937 Y14.3588
G01 X8.6777 Y14.3402
G01 X8.6191 Y14.2756
G01 X8.6022 Y14.2578
G01 X8.5844 Y14.2409
G01 X8.5266 Y14.1885
G01 X8.5266 Y13.0956
G01 X10.5154 Y11.0666
G01 X11.5816 Y11.0666
G01 X11.5949 Y11.0828
G01 X11.6031 Y11.0920
G01 X11.6650 Y11.1603
G01 X11.6819 Y11.1781
G01 X11.6997 Y11.1950
G01 X11.7680 Y11.2569
G01 X11.7866 Y11.2730
G01 X11.8059 Y11.2881
G01 X11.8800 Y11.3430
G01 X11.9001 Y11.3571
G01 X11.9208 Y11.3703
G01 X11.9999 Y11.4177
G01 X12.0213 Y11.4298
G01 X12.0432 Y11.4408
G01 X12.1266 Y11.4803
G01 X12.1490 Y11.4902
G01 X12.1719 Y11.4990
G01 X12.2587 Y11.5301
G01 X12.2820 Y11.5378
G01 X12.3057 Y11.5443
G01 X12.3952 Y11.5668
G01 X12.4191 Y11.5721
G01 X12.4433 Y11.5763
G01 X12.5345 Y11.5899
G01 X12.5589 Y11.5929
G01 X12.5833 Y11.5947
G01 X12.6755 Y11.5992
G01 X12.7000 Y11.5998
G01 X12.7123 Y11.5996
G01 X12.8289 Y11.5939
G01 X12.8533 Y11.5915
G01 X12.8655 Y11.5899
G01 X12.9567 Y11.5763
G01 X12.9809 Y11.5721
G01 X13.0048 Y11.5668
G01 X13.0943 Y11.5443
G01 X13.1180 Y11.5378
G01 X13.1413 Y11.5301
G01 X13.2281 Y11.4990
G01 X13.2510 Y11.4902
G01 X13.2734 Y11.4803
G01 X13.3568 Y11.4408
G01 X13.3787 Y11.4298
G01 X13.4001 Y11.4177
G01 X13.4792 Y11.3703
G01 X13.4999 Y11.3571
G01 X13.5200 Y11.3430
G01 X13.5941 Y11.2881
G01 X13.6134 Y11.2730
G01 X13.6320 Y11.2569
G01 X13.7003 Y11.1950
G01 X13.7181 Y11.1781
G01 X13.7350 Y11.1603
G01 X13.7969 Y11.0920
G01 X13.8130 Y11.0734
G01 X13.8281 Y11.0541
G01 X13.8830 Y10.9800
G01 X13.8971 Y10.9599
G01 X13.9103 Y10.9392
G01 X13.9577 Y10.8601
G01 X13.9700 Y10.8383
G01 X13.9823 Y10.8601
G01 X14.0297 Y10.9392
G01 X14.0429 Y10.9599
G01 X14.0570 Y10.9800
G01 X14.1119 Y11.0541
G01 X14.1270 Y11.0734
G01 X14.1431 Y11.0920
G01 X14.2050 Y11.1603
G01 X14.2219 Y11.1781
G01 X14.2397 Y11.1950
G01 X14.3080 Y11.2569
G01 X14.3259 Y11.2724
G01 X14.3081 Y12.7142
G01 X14.3081 Y12.7389
G01 X14.3106 Y12.7929
G01 X14.3123 Y12.8135
G01 X14.3138 Y12.8277
G01 X14.3215 Y12.8811
G01 X14.3253 Y12.9015
G01 X14.3315 Y12.9293
G01 X14.3411 Y12.9679
G01 X14.3511 Y13.0014
G01 X14.3691 Y13.0524
G01 X14.3823 Y13.0847
G01 X14.4052 Y13.1337
G01 X14.4117 Y13.1464
G01 X14.4215 Y13.1646
G01 X14.4418 Y13.1988
G01 X14.4568 Y13.2231
G01 X14.4684 Y13.2402
G01 X14.5004 Y13.2837
G01 X14.5225 Y13.3109
G01 X14.5586 Y13.3511
G01 X14.5832 Y13.3759
G01 X14.6230 Y13.4124
G01 X14.6339 Y13.4216
G01 X14.6500 Y13.4347
G01 X14.6613 Y13.4433
G01 X14.6932 Y13.4670
G01 X14.7049 Y13.4752
G01 X14.7222 Y13.4866
G01 X14.7562 Y13.5073
G01 X14.7684 Y13.5146
G01 X14.7866 Y13.5246
G01 X14.7992 Y13.5312
G01 X14.8479 Y13.5545
G01 X14.8802 Y13.5680
G01 X14.9310 Y13.5864
G01 X14.9507 Y13.5927
G01 X14.9644 Y13.5967
G01 X15.0029 Y13.6067
G01 X15.0167 Y13.6101
G01 X15.0370 Y13.6144
G01 X15.0651 Y13.6193
G01 X15.1044 Y13.6252
G01 X15.1186 Y13.6269
G01 X15.1392 Y13.6288
G01 X15.1534 Y13.6297
G01 X15.1931 Y13.6317
G01 X15.2074 Y13.6320
G01 X21.7273 Y13.6090
G01 X21.7372 Y13.6215
G01 X21.7532 Y13.6400
G01 X21.8160 Y13.7093
G01 X21.8329 Y13.7271
G01 X21.8507 Y13.7440
G01 X21.9292 Y13.8149
G01 X21.9385 Y13.8228
G01 X21.9579 Y13.8379
G01 X22.0330 Y13.8936
G01 X22.0530 Y13.9077
G01 X22.0738 Y13.9208
G01 X22.1558 Y13.9700
G01 X22.0738 Y14.0192
G01 X22.0633 Y14.0256
G01 X22.0429 Y14.0392
G01 X21.9481 Y14.1095
G01 X21.9385 Y14.1172
G01 X21.9200 Y14.1332
G01 X21.8507 Y14.1960
G01 X21.8329 Y14.2129
G01 X21.8160 Y14.2307
G01 X21.7532 Y14.3000
G01 X21.7451 Y14.3092
G01 X21.7295 Y14.3281
G01 X21.6664 Y14.4130
G01 X21.6523 Y14.4330
G01 X21.6392 Y14.4538
G01 X21.5911 Y14.5339
G01 X21.5790 Y14.5553
G01 X21.5680 Y14.5772
G01 X21.5280 Y14.6617
G01 X21.5181 Y14.6842
G01 X21.5092 Y14.7071
G01 X21.4777 Y14.7951
G01 X21.4700 Y14.8184
G01 X21.4635 Y14.8420
G01 X21.4408 Y14.9327
G01 X21.4354 Y14.9566
G01 X21.4312 Y14.9808
G01 X21.4175 Y15.0733
G01 X21.4145 Y15.0976
G01 X21.4127 Y15.1221
G01 X21.4081 Y15.2155
G01 X21.4075 Y15.2400
G01 X21.4081 Y15.2645
G01 X21.4127 Y15.3579
G01 X21.4145 Y15.3824
G01 X21.4175 Y15.4067
G01 X21.4312 Y15.4992
G01 X21.4354 Y15.5234
G01 X21.4408 Y15.5473
G01 X21.4635 Y15.6380
G01 X21.4700 Y15.6616
G01 X21.4777 Y15.6849
G01 X21.5135 Y15.7845
G01 X21.5229 Y15.8071
G01 X21.5280 Y15.8183
G01 X21.5680 Y15.9028
G01 X21.5790 Y15.9247
G01 X21.5911 Y15.9461
G01 X21.6392 Y16.0262
G01 X21.6523 Y16.0470
G01 X21.6664 Y16.0670
G01 X21.7221 Y16.1421
G01 X21.7372 Y16.1615
G01 X21.7532 Y16.1800
G01 X21.8160 Y16.2493
G01 X21.8329 Y16.2671
G01 X21.8507 Y16.2840
G01 X21.9200 Y16.3468
G01 X21.9385 Y16.3628
G01 X21.9481 Y16.3705
G01 X22.0330 Y16.4336
G01 X22.0530 Y16.4477
G01 X22.0738 Y16.4608
G01 X22.1558 Y16.5100
G01 X22.0738 Y16.5592
G01 X22.0530 Y16.5723
G01 X22.0330 Y16.5864
G01 X21.9579 Y16.6421
G01 X21.9385 Y16.6572
G01 X21.9200 Y16.6732
G01 X21.8507 Y16.7360
G01 X21.8329 Y16.7529
G01 X21.8160 Y16.7707
G01 X21.7532 Y16.8400
G01 X21.7372 Y16.8585
G01 X21.7221 Y16.8779
G01 X21.6664 Y16.9530
G01 X21.6523 Y16.9730
G01 X21.6392 Y16.9938
G01 X21.5911 Y17.0739
G01 X21.5790 Y17.0953
G01 X21.5680 Y17.1172
G01 X21.5280 Y17.2017
G01 X21.5181 Y17.2242
G01 X21.5092 Y17.2471
G01 X21.4777 Y17.3351
G01 X21.4700 Y17.3584
G01 X21.4635 Y17.3820
G01 X21.4408 Y17.4727
G01 X21.4354 Y17.4966
G01 X21.4312 Y17.5208
G01 X21.4175 Y17.6133
G01 X21.4145 Y17.6376
G01 X21.4127 Y17.6621
G01 X21.4081 Y17.7555
G01 X21.4075 Y17.7800
G01 X21.4081 Y17.8045
G01 X21.4127 Y17.8979
G01 X21.4145 Y17.9224
G01 X21.4175 Y17.9467
G01 X21.4312 Y18.0392
G01 X21.4354 Y18.0634
G01 X21.4408 Y18.0873
G01 X21.4635 Y18.1780
G01 X21.4700 Y18.2016
G01 X21.4777 Y18.2249
G01 X21.5092 Y18.3129
G01 X21.5181 Y18.3358
G01 X21.5280 Y18.3583
G01 X21.5680 Y18.4428
G01 X21.5790 Y18.4647
G01 X21.5911 Y18.4861
G01 X21.6392 Y18.5662
G01 X21.6523 Y18.5870
G01 X21.6664 Y18.6070
G01 X21.7221 Y18.6821
G01 X21.7372 Y18.7015
G01 X21.7532 Y18.7200
G01 X21.8160 Y18.7893
G01 X21.8329 Y18.8071
G01 X21.8507 Y18.8240
G01 X21.9200 Y18.8868
G01 X21.9385 Y18.9028
G01 X21.9579 Y18.9179
G01 X22.0330 Y18.9736
G01 X22.0530 Y18.9877
G01 X22.0738 Y19.0008
G01 X22.1645 Y19.0551
G01 X22.1753 Y19.0610
G01 X22.1972 Y19.0720
G01 X22.2817 Y19.1120
G01 X22.3042 Y19.1219
G01 X22.3271 Y19.1308
G01 X22.4151 Y19.1623
G01 X22.4384 Y19.1700
G01 X22.4620 Y19.1765
G01 X22.5527 Y19.1992
G01 X22.5766 Y19.2046
G01 X22.6008 Y19.2088
G01 X22.6933 Y19.2225
G01 X22.7054 Y19.2242
G01 X22.7299 Y19.2266
G01 X22.8355 Y19.2319
G01 X22.8600 Y19.2325
G01 X22.8845 Y19.2319
G01 X22.9779 Y19.2273
G01 X23.0024 Y19.2255
G01 X23.0146 Y19.2242
G01 X23.1313 Y19.2068
G01 X23.1434 Y19.2046
G01 X23.1673 Y19.1992
G01 X23.2580 Y19.1765
G01 X23.2816 Y19.1700
G01 X23.3049 Y19.1623
G01 X23.3929 Y19.1308
G01 X23.4158 Y19.1219
G01 X23.4383 Y19.1120
G01 X23.5228 Y19.0720
G01 X23.5447 Y19.0610
G01 X23.5661 Y19.0489
G01 X23.6462 Y19.0008
G01 X23.6670 Y18.9877
G01 X23.6771 Y18.9808
G01 X23.7621 Y18.9179
G01 X23.7815 Y18.9028
G01 X23.8000 Y18.8868
G01 X23.8693 Y18.8240
G01 X23.8871 Y18.8071
G01 X23.9040 Y18.7893
G01 X23.9668 Y18.7200
G01 X23.9828 Y18.7015
G01 X23.9979 Y18.6821
G01 X24.0536 Y18.6070
G01 X24.0608 Y18.5971
G01 X24.0744 Y18.5767
G01 X24.1289 Y18.4861
G01 X24.1410 Y18.4647
G01 X24.1520 Y18.4428
G01 X24.1920 Y18.3583
G01 X24.2019 Y18.3358
G01 X24.2108 Y18.3129
G01 X24.2423 Y18.2249
G01 X24.2500 Y18.2016
G01 X24.2565 Y18.1780
G01 X24.2792 Y18.0873
G01 X24.2820 Y18.0754
G01 X24.2868 Y18.0513
G01 X24.3025 Y17.9467
G01 X24.3055 Y17.9224
G01 X24.3073 Y17.8979
G01 X24.3119 Y17.8045
G01 X24.3125 Y17.7800
G01 X24.3123 Y17.7677
G01 X24.3073 Y17.6621
G01 X24.3066 Y17.6499
G01 X24.3042 Y17.6254
G01 X24.2868 Y17.5087
G01 X24.2820 Y17.4846
G01 X24.2792 Y17.4727
G01 X24.2565 Y17.3820
G01 X24.2500 Y17.3584
G01 X24.2462 Y17.3467
G01 X24.2065 Y17.2355
G01 X24.2019 Y17.2242
G01 X24.1920 Y17.2017
G01 X24.1520 Y17.1172
G01 X24.1410 Y17.0953
G01 X24.1289 Y17.0739
G01 X24.0808 Y16.9938
G01 X24.0677 Y16.9730
G01 X24.0608 Y16.9629
G01 X23.9979 Y16.8779
G01 X23.9828 Y16.8585
G01 X23.9749 Y16.8492
G01 X23.8956 Y16.7617
G01 X23.8871 Y16.7529
G01 X23.8693 Y16.7360
G01 X23.7908 Y16.6651
G01 X23.7815 Y16.6572
G01 X23.7621 Y16.6421
G01 X23.6870 Y16.5864
G01 X23.6670 Y16.5723
G01 X23.6462 Y16.5592
G01 X23.5642 Y16.5100
G01 X23.6462 Y16.4608
G01 X23.6670 Y16.4477
G01 X23.6870 Y16.4336
G01 X23.7621 Y16.3779
G01 X23.7815 Y16.3628
G01 X23.8000 Y16.3468
G01 X23.8693 Y16.2840
G01 X23.8871 Y16.2671
G01 X23.9040 Y16.2493
G01 X23.9739 Y16.1720
G01 X25.0499 Y16.1720
G01 X27.0080 Y18.1301
G01 X27.0080 Y25.0285
G01 X22.2395 Y29.8692
G01 X22.2227 Y29.8871
G01 X22.1919 Y29.9216
G01 X22.1733 Y29.9444
G01 X22.1380 Y29.9924
G01 X22.1289 Y30.0058
G01 X22.1149 Y30.0282
G01 X22.0913 Y30.0681
G01 X22.0835 Y30.0824
G01 X22.0718 Y30.1061
G01 X22.0523 Y30.1480
G01 X22.0459 Y30.1630
G01 X22.0366 Y30.1877
G01 X22.0212 Y30.2314
G01 X22.0164 Y30.2470
G01 X22.0095 Y30.2725
G01 X21.9986 Y30.3174
G01 X21.9929 Y30.3464
G01 X21.9862 Y30.3922
G01 X21.9830 Y30.4184
G01 X21.9816 Y30.4346
G01 X21.9794 Y30.4809
G01 X21.9788 Y30.5054
G01 X21.9788 Y33.3886
G01 X21.7639 Y33.1762
G01 X21.7655 Y33.1624
G01 X21.7673 Y33.1379
G01 X21.7719 Y33.0445
G01 X21.7725 Y33.0200
G01 X21.7719 Y32.9955
G01 X21.7673 Y32.9021
G01 X21.7655 Y32.8776
G01 X21.7625 Y32.8533
G01 X21.7488 Y32.7608
G01 X21.7446 Y32.7366
G01 X21.7392 Y32.7127
G01 X21.7165 Y32.6220
G01 X21.7100 Y32.5984
G01 X21.7023 Y32.5751
G01 X21.6665 Y32.4755
G01 X21.6619 Y32.4642
G01 X21.6520 Y32.4417
G01 X21.6120 Y32.3572
G01 X21.6010 Y32.3353
G01 X21.5889 Y32.3139
G01 X21.5408 Y32.2338
G01 X21.5277 Y32.2130
G01 X21.5136 Y32.1930
G01 X21.4579 Y32.1179
G01 X21.4428 Y32.0985
G01 X21.4268 Y32.0800
G01 X21.3640 Y32.0107
G01 X21.3471 Y31.9929
G01 X21.3293 Y31.9760
G01 X21.2600 Y31.9132
G01 X21.2415 Y31.8972
G01 X21.2221 Y31.8821
G01 X21.1470 Y31.8264
G01 X21.1270 Y31.8123
G01 X21.1062 Y31.7992
G01 X21.0261 Y31.7511
G01 X21.0047 Y31.7390
G01 X20.9828 Y31.7280
G01 X20.8983 Y31.6880
G01 X20.8758 Y31.6781
G01 X20.8645 Y31.6735
G01 X20.7649 Y31.6377
G01 X20.7416 Y31.6300
G01 X20.7180 Y31.6235
G01 X20.6273 Y31.6008
G01 X20.6034 Y31.5954
G01 X20.5792 Y31.5912
G01 X20.4867 Y31.5775
G01 X20.4624 Y31.5745
G01 X20.4379 Y31.5727
G01 X20.3445 Y31.5681
G01 X20.3200 Y31.5675
G01 X20.2955 Y31.5681
G01 X20.2021 Y31.5727
G01 X20.1776 Y31.5745
G01 X20.1542 Y31.5774
G01 X16.1233 Y27.5891
G01 X16.1429 Y23.9973
G01 X16.1615 Y23.9828
G01 X16.1800 Y23.9668
G01 X16.2493 Y23.9040
G01 X16.2671 Y23.8871
G01 X16.2840 Y23.8693
G01 X16.3468 Y23.8000
G01 X16.3628 Y23.7815
G01 X16.3705 Y23.7719
G01 X16.4408 Y23.6771
G01 X16.4544 Y23.6567
G01 X16.4608 Y23.6462
G01 X16.5089 Y23.5661
G01 X16.5210 Y23.5447
G01 X16.5320 Y23.5228
G01 X16.5771 Y23.4271
G01 X16.5865 Y23.4045
G01 X16.5908 Y23.3929
G01 X16.6223 Y23.3049
G01 X16.6300 Y23.2816
G01 X16.6365 Y23.2580
G01 X16.6592 Y23.1673
G01 X16.6646 Y23.1434
G01 X16.6688 Y23.1192
G01 X16.6825 Y23.0267
G01 X16.6855 Y23.0024
G01 X16.6873 Y22.9779
G01 X16.6919 Y22.8845
G01 X16.6925 Y22.8600
G01 X16.6923 Y22.8477
G01 X16.6866 Y22.7299
G01 X16.6855 Y22.7176
G01 X16.6825 Y22.6933
G01 X16.6688 Y22.6008
G01 X16.6646 Y22.5766
G01 X16.6592 Y22.5527
G01 X16.6365 Y22.4620
G01 X16.6300 Y22.4384
G01 X16.6223 Y22.4151
G01 X16.5908 Y22.3271
G01 X16.5819 Y22.3042
G01 X16.5720 Y22.2817
G01 X16.5320 Y22.1972
G01 X16.5210 Y22.1753
G01 X16.5089 Y22.1539
G01 X16.4608 Y22.0738
G01 X16.4477 Y22.0530
G01 X16.4336 Y22.0330
G01 X16.3779 Y21.9579
G01 X16.3628 Y21.9385
G01 X16.3468 Y21.9200
G01 X16.2840 Y21.8507
G01 X16.2671 Y21.8329
G01 X16.2493 Y21.8160
G01 X16.1800 Y21.7532
G01 X16.1615 Y21.7372
G01 X16.1421 Y21.7221
G01 X16.0670 Y21.6664
G01 X16.0470 Y21.6523
G01 X16.0262 Y21.6392
G01 X15.9461 Y21.5911
G01 X15.9247 Y21.5790
G01 X15.9028 Y21.5680
G01 X15.8183 Y21.5280
G01 X15.7958 Y21.5181
G01 X15.7729 Y21.5092
G01 X15.6733 Y21.4738
G01 X15.6616 Y21.4700
G01 X15.6380 Y21.4635
G01 X15.5473 Y21.4408
G01 X15.5354 Y21.4380
G01 X15.5113 Y21.4332
G01 X15.3946 Y21.4158
G01 X15.3701 Y21.4134
G01 X15.3579 Y21.4127
G01 X15.2523 Y21.4077
G01 X15.2400 Y21.4075
G01 X15.2155 Y21.4081
G01 X15.1221 Y21.4127
G01 X15.0976 Y21.4145
G01 X15.0733 Y21.4175
G01 X14.9808 Y21.4312
G01 X14.9566 Y21.4354
G01 X14.9446 Y21.4380
G01 X14.8301 Y21.4666
G01 X14.8184 Y21.4700
G01 X14.7951 Y21.4777
G01 X14.6955 Y21.5135
G01 X14.6842 Y21.5181
G01 X14.6617 Y21.5280
G01 X14.5772 Y21.5680
G01 X14.5553 Y21.5790
G01 X14.5339 Y21.5911
G01 X14.4538 Y21.6392
G01 X14.4433 Y21.6456
G01 X14.4229 Y21.6592
G01 X14.3281 Y21.7295
G01 X14.3092 Y21.7451
G01 X14.3000 Y21.7532
G01 X14.2217 Y21.8244
G01 X14.2129 Y21.8329
G01 X14.1960 Y21.8507
G01 X14.1332 Y21.9200
G01 X14.1172 Y21.9385
G01 X14.1021 Y21.9579
G01 X14.0392 Y22.0429
G01 X14.0256 Y22.0633
G01 X14.0192 Y22.0738
G01 X13.9711 Y22.1539
G01 X13.9590 Y22.1753
G01 X13.9480 Y22.1972
G01 X13.9080 Y22.2817
G01 X13.8981 Y22.3042
G01 X13.8892 Y22.3271
G01 X13.8577 Y22.4151
G01 X13.8500 Y22.4384
G01 X13.8435 Y22.4620
G01 X13.8180 Y22.5646
G01 X13.8154 Y22.5766
G01 X13.8112 Y22.6008
G01 X13.7975 Y22.6933
G01 X13.7945 Y22.7176
G01 X13.7927 Y22.7421
G01 X13.7881 Y22.8355
G01 X13.7875 Y22.8600
G01 X13.7881 Y22.8845
G01 X13.7934 Y22.9901
G01 X13.7958 Y23.0146
G01 X13.7975 Y23.0267
G01 X13.8112 Y23.1192
G01 X13.8154 Y23.1434
G01 X13.8208 Y23.1673
G01 X13.8435 Y23.2580
G01 X13.8500 Y23.2816
G01 X13.8577 Y23.3049
G01 X13.8892 Y23.3929
G01 X13.8981 Y23.4158
G01 X13.9080 Y23.4383
G01 X13.9480 Y23.5228
G01 X13.9590 Y23.5447
G01 X13.9711 Y23.5661
G01 X14.0192 Y23.6462
G01 X14.0323 Y23.6670
G01 X14.0464 Y23.6870
G01 X14.1021 Y23.7621
G01 X14.1172 Y23.7815
G01 X14.1332 Y23.8000
G01 X14.2044 Y23.8783
G01 X14.2217 Y23.8956
G01 X14.2307 Y23.9040
G01 X14.3000 Y23.9668
G01 X14.3185 Y23.9828
G01 X14.3297 Y23.9917
G01 X14.3100 Y27.5878
G01 X11.0040 Y30.8938
G01 X11.0167 Y30.8671
G01 X11.0234 Y30.8514
G01 X11.0330 Y30.8265
G01 X11.0481 Y30.7839
G01 X11.0570 Y30.7548
G01 X11.0713 Y30.6980
G01 X11.0772 Y30.6682
G01 X11.0840 Y30.6235
G01 X11.0874 Y30.5969
G01 X11.0897 Y30.5666
G01 X11.0918 Y30.5226
G01 X11.0920 Y30.5103
G01 X11.0690 Y23.9927
G01 X11.0815 Y23.9828
G01 X11.1000 Y23.9668
G01 X11.1693 Y23.9040
G01 X11.1871 Y23.8871
G01 X11.2040 Y23.8693
G01 X11.2668 Y23.8000
G01 X11.2828 Y23.7815
G01 X11.2905 Y23.7719
G01 X11.3608 Y23.6771
G01 X11.3677 Y23.6670
G01 X11.3808 Y23.6462
G01 X11.4289 Y23.5661
G01 X11.4410 Y23.5447
G01 X11.4520 Y23.5228
G01 X11.4920 Y23.4383
G01 X11.5019 Y23.4158
G01 X11.5108 Y23.3929
G01 X11.5423 Y23.3049
G01 X11.5500 Y23.2816
G01 X11.5565 Y23.2580
G01 X11.5792 Y23.1673
G01 X11.5846 Y23.1434
G01 X11.5888 Y23.1192
G01 X11.6025 Y23.0267
G01 X11.6055 Y23.0024
G01 X11.6073 Y22.9779
G01 X11.6119 Y22.8845
G01 X11.6125 Y22.8600
G01 X11.6119 Y22.8355
G01 X11.6073 Y22.7421
G01 X11.6055 Y22.7176
G01 X11.6025 Y22.6933
G01 X11.5868 Y22.5887
G01 X11.5846 Y22.5766
G01 X11.5792 Y22.5527
G01 X11.5565 Y22.4620
G01 X11.5500 Y22.4384
G01 X11.5423 Y22.4151
G01 X11.5108 Y22.3271
G01 X11.5019 Y22.3042
G01 X11.4920 Y22.2817
G01 X11.4520 Y22.1972
G01 X11.4410 Y22.1753
G01 X11.4289 Y22.1539
G01 X11.3808 Y22.0738
G01 X11.3677 Y22.0530
G01 X11.3536 Y22.0330
G01 X11.2979 Y21.9579
G01 X11.2828 Y21.9385
G01 X11.2668 Y21.9200
G01 X11.2040 Y21.8507
G01 X11.1956 Y21.8417
G01 X11.1783 Y21.8244
G01 X11.1000 Y21.7532
G01 X11.0815 Y21.7372
G01 X11.0621 Y21.7221
G01 X10.9771 Y21.6592
G01 X10.9670 Y21.6523
G01 X10.9462 Y21.6392
G01 X10.8661 Y21.5911
G01 X10.8447 Y21.5790
G01 X10.8228 Y21.5680
G01 X10.7383 Y21.5280
G01 X10.7158 Y21.5181
G01 X10.6929 Y21.5092
G01 X10.5933 Y21.4738
G01 X10.5816 Y21.4700
G01 X10.5580 Y21.4635
G01 X10.4673 Y21.4408
G01 X10.4434 Y21.4354
G01 X10.4192 Y21.4312
G01 X10.3267 Y21.4175
G01 X10.3024 Y21.4145
G01 X10.2779 Y21.4127
G01 X10.1845 Y21.4081
G01 X10.1600 Y21.4075
G01 X10.1355 Y21.4081
G01 X10.0421 Y21.4127
G01 X10.0176 Y21.4145
G01 X10.0054 Y21.4158
G01 X9.9008 Y21.4312
G01 X9.8766 Y21.4354
G01 X9.8646 Y21.4380
G01 X9.7501 Y21.4666
G01 X9.7384 Y21.4700
G01 X9.7151 Y21.4777
G01 X9.6155 Y21.5135
G01 X9.6042 Y21.5181
G01 X9.5817 Y21.5280
G01 X9.4972 Y21.5680
G01 X9.4753 Y21.5790
G01 X9.4539 Y21.5911
G01 X9.3738 Y21.6392
G01 X9.3530 Y21.6523
G01 X9.3330 Y21.6664
G01 X9.2579 Y21.7221
G01 X9.2385 Y21.7372
G01 X9.2200 Y21.7532
G01 X9.1507 Y21.8160
G01 X9.1329 Y21.8329
G01 X9.1160 Y21.8507
G01 X9.0532 Y21.9200
G01 X9.0372 Y21.9385
G01 X9.0221 Y21.9579
G01 X8.9664 Y22.0330
G01 X8.9523 Y22.0530
G01 X8.9392 Y22.0738
G01 X8.8911 Y22.1539
G01 X8.8790 Y22.1753
G01 X8.8680 Y22.1972
G01 X8.8280 Y22.2817
G01 X8.8181 Y22.3042
G01 X8.8092 Y22.3271
G01 X8.7777 Y22.4151
G01 X8.7700 Y22.4384
G01 X8.7635 Y22.4620
G01 X8.7408 Y22.5527
G01 X8.7354 Y22.5766
G01 X8.7332 Y22.5887
G01 X8.7175 Y22.6933
G01 X8.7145 Y22.7176
G01 X8.7127 Y22.7421
G01 X8.7081 Y22.8355
G01 X8.7075 Y22.8600
G01 X8.7081 Y22.8845
G01 X8.7127 Y22.9779
G01 X8.7145 Y23.0024
G01 X8.7175 Y23.0267
G01 X8.7312 Y23.1192
G01 X8.7354 Y23.1434
G01 X8.7408 Y23.1673
G01 X8.7635 Y23.2580
G01 X8.7700 Y23.2816
G01 X8.7777 Y23.3049
G01 X8.8092 Y23.3929
G01 X8.8181 Y23.4158
G01 X8.8280 Y23.4383
G01 X8.8680 Y23.5228
G01 X8.8790 Y23.5447
G01 X8.8911 Y23.5661
G01 X8.9392 Y23.6462
G01 X8.9523 Y23.6670
G01 X8.9664 Y23.6870
G01 X9.0221 Y23.7621
G01 X9.0372 Y23.7815
G01 X9.0532 Y23.8000
G01 X9.1244 Y23.8783
G01 X9.1329 Y23.8871
G01 X9.1507 Y23.9040
G01 X9.2200 Y23.9668
G01 X9.2385 Y23.9828
G01 X9.2558 Y23.9963
G01 X9.2756 Y29.5939
G01 X6.2015 Y29.5772
G01 X6.1930 Y29.5666
G01 X6.1769 Y29.5480
G01 X6.1150 Y29.4797
G01 X6.0981 Y29.4619
G01 X6.0803 Y29.4450
G01 X6.0120 Y29.3831
G01 X5.9934 Y29.3670
G01 X5.9741 Y29.3519
G01 X5.9000 Y29.2970
G01 X5.8799 Y29.2829
G01 X5.8592 Y29.2697
G01 X5.7801 Y29.2223
G01 X5.7583 Y29.2100
G01 X5.7801 Y29.1977
G01 X5.8592 Y29.1503
G01 X5.8799 Y29.1371
G01 X5.9000 Y29.1230
G01 X5.9741 Y29.0681
G01 X5.9934 Y29.0530
G01 X6.0120 Y29.0369
G01 X6.0803 Y28.9750
G01 X6.0981 Y28.9581
G01 X6.1150 Y28.9403
G01 X6.1769 Y28.8720
G01 X6.1916 Y28.8551
G01 X7.6092 Y28.8719
G01 X7.6308 Y28.8719
G01 X7.6874 Y28.8694
G01 X7.7059 Y28.8679
G01 X7.7332 Y28.8646
G01 X7.7757 Y28.8585
G01 X7.7939 Y28.8552
G01 X7.8208 Y28.8492
G01 X7.8624 Y28.8389
G01 X7.8935 Y28.8297
G01 X7.9469 Y28.8110
G01 X7.9769 Y28.7988
G01 X8.0282 Y28.7748
G01 X8.0447 Y28.7663
G01 X8.0687 Y28.7529
G01 X8.1056 Y28.7309
G01 X8.1172 Y28.7235
G01 X8.1326 Y28.7131
G01 X8.1672 Y28.6879
G01 X8.1891 Y28.6711
G01 X8.2034 Y28.6593
G01 X8.2456 Y28.6215
G01 X8.2686 Y28.5988
G01 X8.2977 Y28.5672
G01 X8.3158 Y28.5466
G01 X8.3359 Y28.5212
G01 X8.3616 Y28.4868
G01 X8.3694 Y28.4756
G01 X8.3869 Y28.4483
G01 X8.4091 Y28.4116
G01 X8.4181 Y28.3954
G01 X8.4245 Y28.3832
G01 X8.4432 Y28.3446
G01 X8.4564 Y28.3151
G01 X8.4664 Y28.2894
G01 X8.4810 Y28.2491
G01 X8.4853 Y28.2360
G01 X8.4941 Y28.2049
G01 X8.5047 Y28.1634
G01 X8.5076 Y28.1499
G01 X8.5134 Y28.1181
G01 X8.5198 Y28.0757
G01 X8.5214 Y28.0620
G01 X8.5240 Y28.0298
G01 X8.5263 Y27.9870
G01 X8.5266 Y27.9732
G01 X8.5266 Y21.3715
G01 X8.5844 Y21.3191
G01 X8.6022 Y21.3022
G01 X8.6191 Y21.2844
G01 X8.6777 Y21.2198
G01 X8.6937 Y21.2012
G01 X8.7014 Y21.1916
G01 X8.7608 Y21.1118
G01 X8.7749 Y21.0917
G01 X8.7880 Y21.0710
G01 X8.8329 Y20.9961
G01 X8.8450 Y20.9748
G01 X8.8560 Y20.9528
G01 X8.8933 Y20.8740
G01 X8.9033 Y20.8515
G01 X8.9121 Y20.8286
G01 X8.9415 Y20.7465
G01 X8.9492 Y20.7232
G01 X8.9557 Y20.6996
G01 X8.9769 Y20.6149
G01 X8.9823 Y20.5910
G01 X8.9865 Y20.5668
G01 X9.0010 Y20.4683
G01 X9.0034 Y20.4439
G01 X9.0041 Y20.4317
G01 X9.0084 Y20.3445
G01 X9.0090 Y20.3200
G01 X9.0084 Y20.2955
G01 X9.0046 Y20.2176
G01 X10.8350 Y18.3869
G01 X10.8702 Y18.3483
G01 X10.8862 Y18.3297
G01 X10.9013 Y18.3104
G01 X10.9323 Y18.2684
G01 X10.9459 Y18.2480
G01 X10.9729 Y18.2033
G01 X10.9790 Y18.1927
G01 X10.9906 Y18.1711
G01 X11.0182 Y18.1128
G01 X11.0275 Y18.0901
G01 X11.0493 Y18.0295
G01 X11.0564 Y18.0060
G01 X11.0720 Y17.9435
G01 X11.0768 Y17.9194
G01 X11.0863 Y17.8557
G01 X11.0887 Y17.8312
G01 X11.0894 Y17.8190
G01 X11.0914 Y17.7791
G01 X11.0920 Y17.7546
G01 X11.0920 Y16.1720
G01 X14.3194 Y16.1720
G01 X14.3257 Y16.6678
G01 X14.3080 Y16.6831
G01 X14.2397 Y16.7450
G01 X14.2219 Y16.7619
G01 X14.2050 Y16.7797
G01 X14.1431 Y16.8480
G01 X14.1270 Y16.8666
G01 X14.1119 Y16.8859
G01 X14.0570 Y16.9600
G01 X14.0429 Y16.9801
G01 X14.0297 Y17.0008
G01 X13.9823 Y17.0799
G01 X13.9700 Y17.1017
G01 X13.9577 Y17.0799
G01 X13.9103 Y17.0008
G01 X13.8971 Y16.9801
G01 X13.8830 Y16.9600
G01 X13.8281 Y16.8859
G01 X13.8130 Y16.8666
G01 X13.7969 Y16.8480
G01 X13.7350 Y16.7797
G01 X13.7181 Y16.7619
G01 X13.7003 Y16.7450
G01 X13.6320 Y16.6831
G01 X13.6134 Y16.6670
G01 X13.5941 Y16.6519
G01 X13.5200 Y16.5970
G01 X13.4999 Y16.5829
G01 X13.4792 Y16.5697
G01 X13.4001 Y16.5223
G01 X13.3787 Y16.5102
G01 X13.3568 Y16.4992
G01 X13.2734 Y16.4597
G01 X13.2510 Y16.4498
G01 X13.2281 Y16.4410
G01 X13.1413 Y16.4099
G01 X13.1180 Y16.4022
G01 X13.0943 Y16.3957
G01 X13.0048 Y16.3732
G01 X12.9809 Y16.3679
G01 X12.9567 Y16.3637
G01 X12.8533 Y16.3485
G01 X12.8411 Y16.3471
G01 X12.8167 Y16.3453
G01 X12.7245 Y16.3408
G01 X12.7000 Y16.3402
G01 X12.6755 Y16.3408
G01 X12.5833 Y16.3453
G01 X12.5589 Y16.3471
G01 X12.5345 Y16.3501
G01 X12.4433 Y16.3637
G01 X12.4191 Y16.3679
G01 X12.3952 Y16.3732
G01 X12.3057 Y16.3957
G01 X12.2820 Y16.4022
G01 X12.2587 Y16.4099
G01 X12.1719 Y16.4410
G01 X12.1490 Y16.4498
G01 X12.1266 Y16.4597
G01 X12.0432 Y16.4992
G01 X12.0213 Y16.5102
G01 X11.9999 Y16.5223
G01 X11.9208 Y16.5697
G01 X11.9001 Y16.5829
G01 X11.8800 Y16.5970
G01 X11.8059 Y16.6519
G01 X11.7866 Y16.6670
G01 X11.7680 Y16.6831
G01 X11.6997 Y16.7450
G01 X11.6819 Y16.7619
G01 X11.6650 Y16.7797
G01 X11.6031 Y16.8480
G01 X11.5870 Y16.8666
G01 X11.5719 Y16.8859
G01 X11.5170 Y16.9600
G01 X11.5029 Y16.9801
G01 X11.4897 Y17.0008
G01 X11.4423 Y17.0799
G01 X11.4302 Y17.1013
G01 X11.4192 Y17.1232
G01 X11.3797 Y17.2066
G01 X11.3698 Y17.2290
G01 X11.3610 Y17.2519
G01 X11.3299 Y17.3387
G01 X11.3222 Y17.3620
G01 X11.3157 Y17.3857
G01 X11.2932 Y17.4752
G01 X11.2879 Y17.4991
G01 X11.2837 Y17.5233
G01 X11.2701 Y17.6145
G01 X11.2671 Y17.6389
G01 X11.2653 Y17.6633
G01 X11.2608 Y17.7555
G01 X11.2602 Y17.7800
G01 X11.2608 Y17.8045
G01 X11.2653 Y17.8967
G01 X11.2671 Y17.9211
G01 X11.2701 Y17.9455
G01 X11.2856 Y18.0488
G01 X11.2904 Y18.0729
G01 X11.2932 Y18.0848
G01 X11.3157 Y18.1743
G01 X11.3222 Y18.1980
G01 X11.3299 Y18.2213
G01 X11.3610 Y18.3081
G01 X11.3698 Y18.3310
G01 X11.3797 Y18.3534
G01 X11.4192 Y18.4368
G01 X11.4302 Y18.4587
G01 X11.4423 Y18.4801
G01 X11.4897 Y18.5592
G01 X11.5029 Y18.5799
G01 X11.5170 Y18.6000
G01 X11.5794 Y18.6838
G01 X11.5949 Y18.7028
G01 X11.6031 Y18.7120
G01 X11.6650 Y18.7803
G01 X11.6819 Y18.7981
G01 X11.6997 Y18.8150
G01 X11.7680 Y18.8769
G01 X11.7858 Y18.8923
G01 X11.7680 Y20.3169
G01 X11.7686 Y20.3445
G01 X11.7705 Y20.3869
G01 X11.7735 Y20.4195
G01 X11.7814 Y20.4752
G01 X11.7848 Y20.4938
G01 X11.7908 Y20.5208
G01 X11.8009 Y20.5620
G01 X11.8047 Y20.5753
G01 X11.8103 Y20.5934
G01 X11.8242 Y20.6334
G01 X11.8339 Y20.6593
G01 X11.8412 Y20.6768
G01 X11.8649 Y20.7278
G01 X11.8802 Y20.7568
G01 X11.9017 Y20.7933
G01 X11.9163 Y20.8168
G01 X11.9268 Y20.8325
G01 X11.9601 Y20.8779
G01 X11.9807 Y20.9033
G01 X12.0182 Y20.9453
G01 X12.0313 Y20.9588
G01 X12.0513 Y20.9780
G01 X12.0826 Y21.0066
G01 X12.0931 Y21.0156
G01 X12.1078 Y21.0275
G01 X12.1417 Y21.0531
G01 X12.1641 Y21.0692
G01 X12.1799 Y21.0797
G01 X12.2279 Y21.1089
G01 X12.2567 Y21.1245
G01 X12.2949 Y21.1430
G01 X12.3201 Y21.1544
G01 X12.3376 Y21.1616
G01 X12.3506 Y21.1664
G01 X12.3904 Y21.1809
G01 X12.4036 Y21.1851
G01 X12.4217 Y21.1906
G01 X12.4351 Y21.1941
G01 X12.4762 Y21.2046
G01 X12.4897 Y21.2075
G01 X12.5083 Y21.2112
G01 X12.5219 Y21.2134
G01 X12.5638 Y21.2198
G01 X12.5776 Y21.2214
G01 X12.5964 Y21.2232
G01 X12.6102 Y21.2240
G01 X12.6526 Y21.2263
G01 X12.6664 Y21.2266
G01 X17.4045 Y21.2266
G01 X18.8767 Y22.6989
G01 X18.8745 Y22.7176
G01 X18.8727 Y22.7421
G01 X18.8681 Y22.8355
G01 X18.8675 Y22.8600
G01 X18.8681 Y22.8845
G01 X18.8727 Y22.9779
G01 X18.8745 Y23.0024
G01 X18.8775 Y23.0267
G01 X18.8912 Y23.1192
G01 X18.8954 Y23.1434
G01 X18.9008 Y23.1673
G01 X18.9235 Y23.2580
G01 X18.9300 Y23.2816
G01 X18.9377 Y23.3049
G01 X18.9692 Y23.3929
G01 X18.9781 Y23.4158
G01 X18.9880 Y23.4383
G01 X19.0280 Y23.5228
G01 X19.0390 Y23.5447
G01 X19.0511 Y23.5661
G01 X19.0992 Y23.6462
G01 X19.1123 Y23.6670
G01 X19.1264 Y23.6870
G01 X19.1821 Y23.7621
G01 X19.1972 Y23.7815
G01 X19.2132 Y23.8000
G01 X19.2760 Y23.8693
G01 X19.2929 Y23.8871
G01 X19.3107 Y23.9040
G01 X19.3800 Y23.9668
G01 X19.3985 Y23.9828
G01 X19.4179 Y23.9979
G01 X19.4930 Y24.0536
G01 X19.5130 Y24.0677
G01 X19.5338 Y24.0808
G01 X19.6139 Y24.1289
G01 X19.6353 Y24.1410
G01 X19.6572 Y24.1520
G01 X19.7417 Y24.1920
G01 X19.7642 Y24.2019
G01 X19.7871 Y24.2108
G01 X19.8751 Y24.2423
G01 X19.8984 Y24.2500
G01 X19.9220 Y24.2565
G01 X20.0127 Y24.2792
G01 X20.0366 Y24.2846
G01 X20.0608 Y24.2888
G01 X20.1654 Y24.3042
G01 X20.1899 Y24.3066
G01 X20.2021 Y24.3073
G01 X20.2955 Y24.3119
G01 X20.3200 Y24.3125
G01 X20.3445 Y24.3119
G01 X20.4379 Y24.3073
G01 X20.4624 Y24.3055
G01 X20.4867 Y24.3025
G01 X20.5792 Y24.2888
G01 X20.6034 Y24.2846
G01 X20.6273 Y24.2792
G01 X20.7180 Y24.2565
G01 X20.7416 Y24.2500
G01 X20.7649 Y24.2423
G01 X20.8645 Y24.2065
G01 X20.8871 Y24.1971
G01 X20.8983 Y24.1920
G01 X20.9828 Y24.1520
G01 X21.0047 Y24.1410
G01 X21.0261 Y24.1289
G01 X21.1062 Y24.0808
G01 X21.1270 Y24.0677
G01 X21.1470 Y24.0536
G01 X21.2221 Y23.9979
G01 X21.2415 Y23.9828
G01 X21.2600 Y23.9668
G01 X21.3293 Y23.9040
G01 X21.3471 Y23.8871
G01 X21.3640 Y23.8693
G01 X21.4268 Y23.8000
G01 X21.4428 Y23.7815
G01 X21.4579 Y23.7621
G01 X21.5136 Y23.6870
G01 X21.5277 Y23.6670
G01 X21.5408 Y23.6462
G01 X21.5889 Y23.5661
G01 X21.6010 Y23.5447
G01 X21.6120 Y23.5228
G01 X21.6520 Y23.4383
G01 X21.6619 Y23.4158
G01 X21.6708 Y23.3929
G01 X21.7023 Y23.3049
G01 X21.7100 Y23.2816
G01 X21.7165 Y23.2580
G01 X21.7392 Y23.1673
G01 X21.7446 Y23.1434
G01 X21.7468 Y23.1313
G01 X21.7625 Y23.0267
G01 X21.7655 Y23.0024
G01 X21.7673 Y22.9779
G01 X21.7719 Y22.8845
G01 X21.7725 Y22.8600
G01 X21.7719 Y22.8355
G01 X21.7673 Y22.7421
G01 X21.7655 Y22.7176
G01 X21.7625 Y22.6933
G01 X21.7488 Y22.6008
G01 X21.7446 Y22.5766
G01 X21.7392 Y22.5527
G01 X21.7165 Y22.4620
G01 X21.7100 Y22.4384
G01 X21.7023 Y22.4151
G01 X21.6708 Y22.3271
G01 X21.6619 Y22.3042
G01 X21.6520 Y22.2817
G01 X21.6120 Y22.1972
G01 X21.6010 Y22.1753
G01 X21.5889 Y22.1539
G01 X21.5408 Y22.0738
G01 X21.5277 Y22.0530
G01 X21.5136 Y22.0330
G01 X21.4579 Y21.9579
G01 X21.4428 Y21.9385
G01 X21.4268 Y21.9200
G01 X21.3640 Y21.8507
G01 X21.3471 Y21.8329
G01 X21.3293 Y21.8160
G01 X21.2508 Y21.7451
G01 X21.2415 Y21.7372
G01 X21.2221 Y21.7221
G01 X21.1470 Y21.6664
G01 X21.1270 Y21.6523
G01 X21.1062 Y21.6392
G01 X21.0261 Y21.5911
G01 X21.0047 Y21.5790
G01 X20.9828 Y21.5680
G01 X20.8983 Y21.5280
G01 X20.8758 Y21.5181
G01 X20.8529 Y21.5092
G01 X20.7649 Y21.4777
G01 X20.7416 Y21.4700
G01 X20.7180 Y21.4635
G01 X20.6273 Y21.4408
G01 X20.6034 Y21.4354
G01 X20.5792 Y21.4312
G01 X20.4867 Y21.4175
G01 X20.4624 Y21.4145
G01 X20.4379 Y21.4127
G01 X20.3445 Y21.4081
G01 X20.3200 Y21.4075
G01 X20.2955 Y21.4081
G01 X20.2021 Y21.4127
G01 X20.1776 Y21.4145
G01 X20.1589 Y21.4167
G01 X19.8151 Y21.0730
G01 X19.8371 Y21.0869
G01 X19.8819 Y21.1136
G01 X19.8926 Y21.1196
G01 X19.9146 Y21.1306
G01 X19.9506 Y21.1476
G01 X19.9731 Y21.1576
G01 X19.9960 Y21.1664
G01 X20.0451 Y21.1839
G01 X20.0686 Y21.1910
G01 X20.0805 Y21.1941
G01 X20.1192 Y21.2038
G01 X20.1431 Y21.2092
G01 X20.1673 Y21.2134
G01 X20.2189 Y21.2209
G01 X20.2434 Y21.2233
G01 X20.2556 Y21.2240
G01 X20.2955 Y21.2260
G01 X20.3200 Y21.2266
G01 X22.4845 Y21.2266
G01 X23.9567 Y22.6989
G01 X23.9545 Y22.7176
G01 X23.9527 Y22.7421
G01 X23.9481 Y22.8355
G01 X23.9475 Y22.8600
G01 X23.9481 Y22.8845
G01 X23.9527 Y22.9779
G01 X23.9545 Y23.0024
G01 X23.9575 Y23.0267
G01 X23.9712 Y23.1192
G01 X23.9754 Y23.1434
G01 X23.9808 Y23.1673
G01 X24.0035 Y23.2580
G01 X24.0100 Y23.2816
G01 X24.0177 Y23.3049
G01 X24.0492 Y23.3929
G01 X24.0581 Y23.4158
G01 X24.0680 Y23.4383
G01 X24.1080 Y23.5228
G01 X24.1190 Y23.5447
G01 X24.1311 Y23.5661
G01 X24.1792 Y23.6462
G01 X24.1923 Y23.6670
G01 X24.2064 Y23.6870
G01 X24.2621 Y23.7621
G01 X24.2772 Y23.7815
G01 X24.2932 Y23.8000
G01 X24.3560 Y23.8693
G01 X24.3729 Y23.8871
G01 X24.3907 Y23.9040
G01 X24.4600 Y23.9668
G01 X24.4785 Y23.9828
G01 X24.4979 Y23.9979
G01 X24.5730 Y24.0536
G01 X24.5930 Y24.0677
G01 X24.6138 Y24.0808
G01 X24.6939 Y24.1289
G01 X24.7153 Y24.1410
G01 X24.7372 Y24.1520
G01 X24.8217 Y24.1920
G01 X24.8442 Y24.2019
G01 X24.8671 Y24.2108
G01 X24.9667 Y24.2462
G01 X24.9784 Y24.2500
G01 X25.0020 Y24.2565
G01 X25.1046 Y24.2820
G01 X25.1166 Y24.2846
G01 X25.1408 Y24.2888
G01 X25.2333 Y24.3025
G01 X25.2576 Y24.3055
G01 X25.2821 Y24.3073
G01 X25.3755 Y24.3119
G01 X25.4000 Y24.3125
G01 X25.4245 Y24.3119
G01 X25.5179 Y24.3073
G01 X25.5424 Y24.3055
G01 X25.5667 Y24.3025
G01 X25.6592 Y24.2888
G01 X25.6834 Y24.2846
G01 X25.7073 Y24.2792
G01 X25.7980 Y24.2565
G01 X25.8216 Y24.2500
G01 X25.8449 Y24.2423
G01 X25.9329 Y24.2108
G01 X25.9558 Y24.2019
G01 X25.9783 Y24.1920
G01 X26.0628 Y24.1520
G01 X26.0847 Y24.1410
G01 X26.1061 Y24.1289
G01 X26.1862 Y24.0808
G01 X26.2070 Y24.0677
G01 X26.2171 Y24.0608
G01 X26.3021 Y23.9979
G01 X26.3215 Y23.9828
G01 X26.3400 Y23.9668
G01 X26.4093 Y23.9040
G01 X26.4271 Y23.8871
G01 X26.4440 Y23.8693
G01 X26.5068 Y23.8000
G01 X26.5228 Y23.7815
G01 X26.5379 Y23.7621
G01 X26.5936 Y23.6870
G01 X26.6077 Y23.6670
G01 X26.6208 Y23.6462
G01 X26.6689 Y23.5661
G01 X26.6810 Y23.5447
G01 X26.6866 Y23.5338
G01 X26.7371 Y23.4271
G01 X26.7419 Y23.4158
G01 X26.7508 Y23.3929
G01 X26.7823 Y23.3049
G01 X26.7900 Y23.2816
G01 X26.7965 Y23.2580
G01 X26.8192 Y23.1673
G01 X26.8220 Y23.1554
G01 X26.8268 Y23.1313
G01 X26.8442 Y23.0146
G01 X26.8466 Y22.9901
G01 X26.8473 Y22.9779
G01 X26.8523 Y22.8723
G01 X26.8525 Y22.8600
G01 X26.8519 Y22.8355
G01 X26.8473 Y22.7421
G01 X26.8455 Y22.7176
G01 X26.8425 Y22.6933
G01 X26.8288 Y22.6008
G01 X26.8246 Y22.5766
G01 X26.8192 Y22.5527
G01 X26.7965 Y22.4620
G01 X26.7900 Y22.4384
G01 X26.7823 Y22.4151
G01 X26.7508 Y22.3271
G01 X26.7419 Y22.3042
G01 X26.7320 Y22.2817
G01 X26.6920 Y22.1972
G01 X26.6810 Y22.1753
G01 X26.6689 Y22.1539
G01 X26.6208 Y22.0738
G01 X26.6077 Y22.0530
G01 X26.5936 Y22.0330
G01 X26.5379 Y21.9579
G01 X26.5228 Y21.9385
G01 X26.5068 Y21.9200
G01 X26.4440 Y21.8507
G01 X26.4271 Y21.8329
G01 X26.4183 Y21.8244
G01 X26.3400 Y21.7532
G01 X26.3215 Y21.7372
G01 X26.3119 Y21.7295
G01 X26.2171 Y21.6592
G01 X26.2070 Y21.6523
G01 X26.1862 Y21.6392
G01 X26.1061 Y21.5911
G01 X26.0847 Y21.5790
G01 X26.0628 Y21.5680
G01 X25.9783 Y21.5280
G01 X25.9671 Y21.5229
G01 X25.9445 Y21.5135
G01 X25.8449 Y21.4777
G01 X25.8216 Y21.4700
G01 X25.7980 Y21.4635
G01 X25.7073 Y21.4408
G01 X25.6834 Y21.4354
G01 X25.6592 Y21.4312
G01 X25.5667 Y21.4175
G01 X25.5424 Y21.4145
G01 X25.5179 Y21.4127
G01 X25.4245 Y21.4081
G01 X25.4000 Y21.4075
G01 X25.3755 Y21.4081
G01 X25.2821 Y21.4127
G01 X25.2576 Y21.4145
G01 X25.2389 Y21.4167
G01 X23.4923 Y19.6704
G01 X23.4445 Y19.6271
G01 X23.4351 Y19.6192
G01 X23.4158 Y19.6041
G01 X23.3837 Y19.5803
G01 X23.3637 Y19.5662
G01 X23.3429 Y19.5531
G01 X23.2981 Y19.5264
G01 X23.2765 Y19.5148
G01 X23.2654 Y19.5094
G01 X23.2294 Y19.4924
G01 X23.2069 Y19.4824
G01 X23.1840 Y19.4736
G01 X23.1465 Y19.4601
G01 X23.1232 Y19.4524
G01 X23.1114 Y19.4490
G01 X23.0489 Y19.4334
G01 X23.0248 Y19.4286
G01 X23.0127 Y19.4266
G01 X22.9732 Y19.4208
G01 X22.9489 Y19.4178
G01 X22.9244 Y19.4160
G01 X22.8845 Y19.4140
G01 X22.8600 Y19.4134
G01 X20.6955 Y19.4134
G01 X19.2119 Y17.9298
G01 X19.2139 Y17.9089
G01 X19.2147 Y17.8967
G01 X19.2192 Y17.8045
G01 X19.2198 Y17.7800
G01 X19.2192 Y17.7555
G01 X19.2147 Y17.6633
G01 X19.2129 Y17.6389
G01 X19.2099 Y17.6145
G01 X19.1963 Y17.5233
G01 X19.1921 Y17.4991
G01 X19.1868 Y17.4752
G01 X19.1643 Y17.3857
G01 X19.1578 Y17.3620
G01 X19.1501 Y17.3387
G01 X19.1190 Y17.2519
G01 X19.1102 Y17.2290
G01 X19.1003 Y17.2066
G01 X19.0608 Y17.1232
G01 X19.0498 Y17.1013
G01 X19.0377 Y17.0799
G01 X18.9903 Y17.0008
G01 X18.9771 Y16.9801
G01 X18.9630 Y16.9600
G01 X18.9081 Y16.8859
G01 X18.8930 Y16.8666
G01 X18.8769 Y16.8480
G01 X18.8150 Y16.7797
G01 X18.7981 Y16.7619
G01 X18.7803 Y16.7450
G01 X18.7120 Y16.6831
G01 X18.6934 Y16.6670
G01 X18.6741 Y16.6519
G01 X18.6000 Y16.5970
G01 X18.5799 Y16.5829
G01 X18.5592 Y16.5697
G01 X18.4695 Y16.5161
G01 X18.4478 Y16.5046
G01 X18.4368 Y16.4992
G01 X18.3534 Y16.4597
G01 X18.3310 Y16.4498
G01 X18.3081 Y16.4410
G01 X18.2213 Y16.4099
G01 X18.1980 Y16.4022
G01 X18.1743 Y16.3957
G01 X18.0848 Y16.3732
G01 X18.0609 Y16.3679
G01 X18.0367 Y16.3637
G01 X17.9455 Y16.3501
G01 X17.9211 Y16.3471
G01 X17.8967 Y16.3453
G01 X17.8045 Y16.3408
G01 X17.7800 Y16.3402
G01 X17.7555 Y16.3408
G01 X17.6633 Y16.3453
G01 X17.6389 Y16.3471
G01 X17.6145 Y16.3501
G01 X17.5233 Y16.3637
G01 X17.4991 Y16.3679
G01 X17.4752 Y16.3732
G01 X17.3857 Y16.3957
G01 X17.3620 Y16.4022
G01 X17.3387 Y16.4099
G01 X17.2519 Y16.4410
G01 X17.2290 Y16.4498
G01 X17.2066 Y16.4597
G01 X17.1232 Y16.4992
G01 X17.1013 Y16.5102
G01 X17.0799 Y16.5223
G01 X17.0008 Y16.5697
G01 X16.9801 Y16.5829
G01 X16.9600 Y16.5970
G01 X16.8859 Y16.6519
G01 X16.8666 Y16.6670
G01 X16.8480 Y16.6831
G01 X16.7797 Y16.7450
G01 X16.7619 Y16.7619
G01 X16.7450 Y16.7797
G01 X16.6831 Y16.8480
G01 X16.6670 Y16.8666
G01 X16.6519 Y16.8859
G01 X16.5970 Y16.9600
G01 X16.5829 Y16.9801
G01 X16.5697 Y17.0008
G01 X16.5223 Y17.0799
G01 X16.5100 Y17.1017
G01 X16.4977 Y17.0799
G01 X16.4503 Y17.0008
G01 X16.4371 Y16.9801
G01 X16.4230 Y16.9600
G01 X16.3681 Y16.8859
G01 X16.3530 Y16.8666
G01 X16.3369 Y16.8480
G01 X16.2750 Y16.7797
G01 X16.2581 Y16.7619
G01 X16.2403 Y16.7450
G01 X16.1720 Y16.6831
G01 X16.1534 Y16.6670
G01 X16.1389 Y16.6556
G01 X16.1208 Y15.2417
G01 X16.1178 Y15.1872
G01 X16.1160 Y15.1683
G01 X16.1123 Y15.1408
G01 X16.1058 Y15.0990
G01 X16.1021 Y15.0804
G01 X16.0958 Y15.0534
G01 X16.0852 Y15.0125
G01 X16.0754 Y14.9811
G01 X16.0562 Y14.9284
G01 X16.0434 Y14.8981
G01 X16.0191 Y14.8475
G01 X16.0034 Y14.8186
G01 X15.9743 Y14.7707
G01 X15.9558 Y14.7435
G01 X15.9221 Y14.6986
G01 X15.9011 Y14.6733
G01 X15.8631 Y14.6320
G01 X15.8398 Y14.6089
G01 X15.7979 Y14.5715
G01 X15.7724 Y14.5508
G01 X15.7271 Y14.5176
G01 X15.6997 Y14.4995
G01 X15.6513 Y14.4710
G01 X15.6223 Y14.4557
G01 X15.5714 Y14.4320
G01 X15.5409 Y14.4196
G01 X15.4880 Y14.4010
G01 X15.4698 Y14.3955
G01 X15.4430 Y14.3883
G01 X15.4019 Y14.3784
G01 X15.3833 Y14.3746
G01 X15.3697 Y14.3722
G01 X15.3278 Y14.3662
G01 X15.3003 Y14.3629
G01 X15.2814 Y14.3613
G01 X15.2269 Y14.3589
G01 X10.1854 Y14.3588
G01 X10.1609 Y14.3594
G01 X10.1210 Y14.3614
G01 X10.0965 Y14.3632
G01 X10.0722 Y14.3662
G01 X10.0327 Y14.3720
G01 X10.0085 Y14.3762
G01 X9.9846 Y14.3816
G01 X9.9340 Y14.3944
G01 X9.9222 Y14.3978
G01 X9.8989 Y14.4055
G01 X9.8614 Y14.4190
G01 X9.8385 Y14.4278
G01 X9.8160 Y14.4378
G01 X9.7800 Y14.4548
G01 X9.7580 Y14.4658
G01 X9.7367 Y14.4779
G01 X9.6920 Y14.5049
G01 X9.6716 Y14.5185
G01 X9.6617 Y14.5257
G01 X9.6296 Y14.5495
G01 X9.6103 Y14.5646
G01 X9.5917 Y14.5806
G01 X9.5531 Y14.6158
G01 X9.5358 Y14.6331
G01 X9.5006 Y14.6717
G01 X9.4846 Y14.6903
G01 X9.4769 Y14.6998
G01 X9.4457 Y14.7417
G01 X9.4316 Y14.7617
G01 X9.4185 Y14.7825
G01 X9.3918 Y14.8273
G01 X9.3858 Y14.8380
G01 X9.3748 Y14.8600
G01 X9.3526 Y14.9072
G01 X9.3433 Y14.9299
G01 X9.3255 Y14.9789
G01 X9.3178 Y15.0022
G01 X9.3113 Y15.0259
G01 X9.3016 Y15.0646
G01 X9.2962 Y15.0885
G01 X9.2940 Y15.1006
G01 X9.2845 Y15.1643
G01 X9.2821 Y15.1888
G01 X9.2814 Y15.2010
G01 X9.2794 Y15.2409
G01 X9.2788 Y15.2654
G01 X9.2788 Y17.3791
G01 X7.7224 Y18.9354
G01 X7.6445 Y18.9316
G01 X7.6200 Y18.9310
G01 X7.6077 Y18.9312
G01 X7.5083 Y18.9359
G01 X7.4961 Y18.9366
G01 X7.4717 Y18.9390
G01 X7.3732 Y18.9535
G01 X7.3490 Y18.9577
G01 X7.3251 Y18.9631
G01 X7.2404 Y18.9843
G01 X7.2168 Y18.9908
G01 X7.2051 Y18.9945
G01 X7.1114 Y19.0279
G01 X7.0885 Y19.0367
G01 X7.0660 Y19.0467
G01 X6.9872 Y19.0840
G01 X6.9652 Y19.0950
G01 X6.9439 Y19.1071
G01 X6.8690 Y19.1520
G01 X6.8483 Y19.1651
G01 X6.8282 Y19.1792
G01 X6.7582 Y19.2312
G01 X6.7388 Y19.2463
G01 X6.7294 Y19.2542
G01 X6.6556 Y19.3209
G01 X6.6378 Y19.3378
G01 X6.6209 Y19.3556
G01 X6.5623 Y19.4202
G01 X6.5463 Y19.4388
G01 X6.5312 Y19.4582
G01 X6.4792 Y19.5282
G01 X6.4651 Y19.5483
G01 X6.4520 Y19.5690
G01 X6.4071 Y19.6439
G01 X6.3950 Y19.6652
G01 X6.3840 Y19.6872
G01 X6.3467 Y19.7660
G01 X6.3367 Y19.7885
G01 X6.3279 Y19.8114
G01 X6.2985 Y19.8935
G01 X6.2908 Y19.9168
G01 X6.2843 Y19.9404
G01 X6.2631 Y20.0251
G01 X6.2577 Y20.0490
G01 X6.2535 Y20.0732
G01 X6.2407 Y20.1595
G01 X6.2377 Y20.1839
G01 X6.2359 Y20.2083
G01 X6.2316 Y20.2955
G01 X6.2310 Y20.3200
G01 X6.2316 Y20.3445
G01 X6.2359 Y20.4317
G01 X6.2377 Y20.4561
G01 X6.2407 Y20.4805
G01 X6.2535 Y20.5668
G01 X6.2577 Y20.5910
G01 X6.2631 Y20.6149
G01 X6.2843 Y20.6996
G01 X6.2908 Y20.7232
G01 X6.2985 Y20.7465
G01 X6.3279 Y20.8286
G01 X6.3367 Y20.8515
G01 X6.3467 Y20.8740
G01 X6.3840 Y20.9528
G01 X6.3950 Y20.9748
G01 X6.4071 Y20.9961
G01 X6.4520 Y21.0710
G01 X6.4651 Y21.0917
G01 X6.4792 Y21.1118
G01 X6.5312 Y21.1818
G01 X6.5463 Y21.2012
G01 X6.5623 Y21.2198
G01 X6.6209 Y21.2844
G01 X6.6378 Y21.3022
G01 X6.6556 Y21.3191
G01 X6.7134 Y21.3715
G01 X6.7134 Y27.0479
G01 X6.2050 Y27.0419
G01 X6.1930 Y27.0266
G01 X6.1769 Y27.0080
G01 X6.1150 Y26.9397
G01 X6.0981 Y26.9219
G01 X6.0803 Y26.9050
G01 X6.0120 Y26.8431
G01 X5.9934 Y26.8270
G01 X5.9741 Y26.8119
G01 X5.9000 Y26.7570
G01 X5.8799 Y26.7429
G01 X5.8592 Y26.7297
G01 X5.7801 Y26.6823
G01 X5.7583 Y26.6700
G01 X5.7801 Y26.6577
G01 X5.8592 Y26.6103
G01 X5.8799 Y26.5971
G01 X5.9000 Y26.5830
G01 X5.9741 Y26.5281
G01 X5.9934 Y26.5130
G01 X6.0120 Y26.4969
G01 X6.0803 Y26.4350
G01 X6.0981 Y26.4181
G01 X6.1150 Y26.4003
G01 X6.1769 Y26.3320
G01 X6.1930 Y26.3134
G01 X6.2081 Y26.2941
G01 X6.2630 Y26.2200
G01 X6.2771 Y26.1999
G01 X6.2903 Y26.1792
G01 X6.3377 Y26.1001
G01 X6.3498 Y26.0787
G01 X6.3608 Y26.0568
G01 X6.4003 Y25.9734
G01 X6.4102 Y25.9510
G01 X6.4190 Y25.9281
G01 X6.4501 Y25.8413
G01 X6.4578 Y25.8180
G01 X6.4643 Y25.7943
G01 X6.4868 Y25.7048
G01 X6.4921 Y25.6809
G01 X6.4963 Y25.6567
G01 X6.5099 Y25.5655
G01 X6.5129 Y25.5411
G01 X6.5147 Y25.5167
G01 X6.5196 Y25.4123
G01 X6.5196 Y25.3877
G01 X6.5192 Y25.3755
G01 X6.5147 Y25.2833
G01 X6.5129 Y25.2589
G01 X6.5099 Y25.2345
G01 X6.4963 Y25.1433
G01 X6.4921 Y25.1191
G01 X6.4868 Y25.0952
G01 X6.4643 Y25.0057
G01 X6.4578 Y24.9820
G01 X6.4501 Y24.9587
G01 X6.4190 Y24.8719
G01 X6.4102 Y24.8490
G01 X6.4003 Y24.8266
G01 X6.3608 Y24.7432
G01 X6.3498 Y24.7213
G01 X6.3377 Y24.6999
G01 X6.2903 Y24.6208
G01 X6.2838 Y24.6104
G01 X6.2702 Y24.5900
G01 X6.2081 Y24.5059
G01 X6.1930 Y24.4866
G01 X6.1769 Y24.4680
G01 X6.1150 Y24.3997
G01 X6.0981 Y24.3819
G01 X6.0803 Y24.3650
G01 X6.0120 Y24.3031
G01 X6.0028 Y24.2949
G01 X5.9866 Y24.2816
G01 X5.9866 Y8.9085
G01 X6.0134 Y8.9019
G01 X6.0368 Y8.8948
G01 X6.0599 Y8.8865
G01 X6.0713 Y8.8819
G01 X6.0938 Y8.8720
G01 X6.1157 Y8.8610
G01 X6.1264 Y8.8550
G01 X6.1475 Y8.8424
G01 X6.1679 Y8.8288
G01 X6.1876 Y8.8142
G01 X6.1972 Y8.8065
G01 X6.2158 Y8.7905
G01 X6.2335 Y8.7735
G01 X6.2505 Y8.7558
G01 X6.2665 Y8.7372
G01 X6.2816 Y8.7178
G01 X6.2957 Y8.6978
G01 X6.3024 Y8.6875
G01 X6.3150 Y8.6664
G01 X6.3266 Y8.6448
G01 X6.3371 Y8.6226
G01 X6.3419 Y8.6113
G01 X6.3508 Y8.5884
G01 X6.3585 Y8.5651
G01 X6.3650 Y8.5415
G01 X6.3704 Y8.5175
G01 X6.3746 Y8.4934
G01 X6.3776 Y8.4690
G01 X6.3794 Y8.4445
G01 X6.3800 Y8.4200
G01 X6.3800 Y8.1439
G01 X6.4117 Y8.2109
G01 X6.4227 Y8.2328
G01 X6.4348 Y8.2542
G01 X6.4752 Y8.3215
G01 X6.4883 Y8.3422
G01 X6.4952 Y8.3524
G01 X6.5492 Y8.4254
G01 X6.5643 Y8.4447
G01 X6.5722 Y8.4541
G01 X6.6414 Y8.5305
G01 X6.6587 Y8.5478
G01 X6.6677 Y8.5562
G01 X6.7259 Y8.6089
G01 X6.7445 Y8.6249
G01 X6.7541 Y8.6326
G01 X6.8368 Y8.6940
G01 X6.8470 Y8.7009
G01 X6.8677 Y8.7140
G01 X6.9456 Y8.7606
G01 X6.9673 Y8.7721
G01 X6.9783 Y8.7775
G01 X7.0604 Y8.8162
G01 X7.0831 Y8.8256
G01 X7.0946 Y8.8299
G01 X7.1685 Y8.8563
G01 X7.1918 Y8.8640
G01 X7.2155 Y8.8706
G01 X7.2916 Y8.8896
G01 X7.3156 Y8.8950
G01 X7.3398 Y8.8992
G01 X7.4174 Y8.9107
G01 X7.4418 Y8.9137
G01 X7.4663 Y8.9155
G01 X7.5447 Y8.9194
G01 X7.5692 Y8.9200
G01 X7.5937 Y8.9194
G01 X7.6721 Y8.9155
G01 X7.6966 Y8.9137
G01 X7.7210 Y8.9107
G01 X7.7986 Y8.8992
G01 X7.8228 Y8.8950
G01 X7.8468 Y8.8896
G01 X7.9229 Y8.8706
G01 X7.9466 Y8.8640
G01 X7.9699 Y8.8563
G01 X8.0438 Y8.8299
G01 X8.0667 Y8.8210
G01 X8.0891 Y8.8111
G01 X8.1601 Y8.7775
G01 X8.1820 Y8.7665
G01 X8.2034 Y8.7544
G01 X8.2707 Y8.7140
G01 X8.2914 Y8.7009
G01 X8.3115 Y8.6868
G01 X8.3746 Y8.6400
G01 X8.3939 Y8.6249
G01 X8.4125 Y8.6089
G01 X8.4707 Y8.5562
G01 X8.4884 Y8.5392
G01 X8.5054 Y8.5215
G01 X8.5581 Y8.4633
G01 X8.5741 Y8.4447
G01 X8.5892 Y8.4254
G01 X8.6360 Y8.3623
G01 X8.6501 Y8.3422
G01 X8.6632 Y8.3215
G01 X8.7036 Y8.2542
G01 X8.7157 Y8.2328
G01 X8.7267 Y8.2109
G01 X8.7603 Y8.1399
G01 X8.7702 Y8.1175
G01 X8.7791 Y8.0946
G01 X8.8055 Y8.0207
G01 X8.8132 Y7.9974
G01 X8.8198 Y7.9737
G01 X8.8388 Y7.8976
G01 X8.8442 Y7.8736
G01 X8.8484 Y7.8494
G01 X8.8599 Y7.7718
G01 X8.8629 Y7.7474
G01 X8.8647 Y7.7229
G01 X8.8691 Y7.6316
G01 X10.5580 Y5.9612
G01 X25.0418 Y5.9612
G01 X25.9056 Y6.8514
G00 Z2.0000
G00 X28.0560 Y6.4638
G01 F60.00
G01 Z-0.0500
G01 F100.00
G01 X28.0761 Y6.4623
G01 X28.0883 Y6.4610
G01 X28.1868 Y6.4465
G01 X28.2110 Y6.4423
G01 X28.2349 Y6.4369
G01 X28.3196 Y6.4157
G01 X28.3432 Y6.4092
G01 X28.3665 Y6.4015
G01 X28.4486 Y6.3721
G01 X28.4715 Y6.3633
G01 X28.4940 Y6.3533
G01 X28.5728 Y6.3160
G01 X28.5948 Y6.3050
G01 X28.6161 Y6.2929
G01 X28.6910 Y6.2480
G01 X28.7117 Y6.2349
G01 X28.7318 Y6.2208
G01 X28.8018 Y6.1688
G01 X28.8212 Y6.1537
G01 X28.8398 Y6.1377
G01 X28.9044 Y6.0791
G01 X28.9222 Y6.0622
G01 X28.9391 Y6.0444
G01 X28.9977 Y5.9798
G01 X29.0137 Y5.9612
G01 X29.0288 Y5.9418
G01 X29.0808 Y5.8718
G01 X29.0949 Y5.8517
G01 X29.1080 Y5.8310
G01 X29.1529 Y5.7561
G01 X29.1650 Y5.7348
G01 X29.1760 Y5.7128
G01 X29.2133 Y5.6340
G01 X29.2233 Y5.6115
G01 X29.2321 Y5.5886
G01 X29.2655 Y5.4949
G01 X29.2726 Y5.4714
G01 X29.2757 Y5.4596
G01 X29.2969 Y5.3749
G01 X29.3023 Y5.3510
G01 X29.3065 Y5.3268
G01 X29.3193 Y5.2405
G01 X29.3223 Y5.2161
G01 X29.3234 Y5.2039
G01 X29.3288 Y5.0923
G01 X29.3290 Y5.0800
G01 X29.3284 Y5.0555
G01 X29.3241 Y4.9683
G01 X29.3223 Y4.9439
G01 X29.3193 Y4.9195
G01 X29.3065 Y4.8332
G01 X29.3023 Y4.8090
G01 X29.2998 Y4.7970
G01 X29.2757 Y4.7004
G01 X29.2692 Y4.6768
G01 X29.2615 Y4.6535
G01 X29.2278 Y4.5598
G01 X29.2184 Y4.5372
G01 X29.2133 Y4.5260
G01 X29.1760 Y4.4472
G01 X29.1650 Y4.4252
G01 X29.1529 Y4.4039
G01 X29.1080 Y4.3290
G01 X29.0949 Y4.3083
G01 X29.0808 Y4.2882
G01 X29.0288 Y4.2182
G01 X29.0137 Y4.1988
G01 X28.9977 Y4.1802
G01 X28.9391 Y4.1156
G01 X28.9222 Y4.0978
G01 X28.9044 Y4.0809
G01 X28.8388 Y4.0215
G01 X28.8318 Y3.4212
G01 X40.2845 Y3.4212
G01 X42.2525 Y5.4294
G01 X42.2610 Y6.1294
G01 X42.1771 Y6.1296
G01 X42.1526 Y6.1308
G01 X42.1404 Y6.1318
G01 X42.1160 Y6.1348
G01 X42.0919 Y6.1390
G01 X42.0799 Y6.1416
G01 X42.0560 Y6.1475
G01 X42.0326 Y6.1546
G01 X42.0095 Y6.1629
G01 X41.9868 Y6.1723
G01 X41.9646 Y6.1828
G01 X41.9430 Y6.1944
G01 X41.9219 Y6.2070
G01 X41.9015 Y6.2206
G01 X41.8818 Y6.2352
G01 X41.8628 Y6.2508
G01 X41.8446 Y6.2673
G01 X41.8273 Y6.2846
G01 X41.8108 Y6.3028
G01 X41.7952 Y6.3218
G01 X41.7806 Y6.3415
G01 X41.7670 Y6.3619
G01 X41.7544 Y6.3830
G01 X41.7428 Y6.4046
G01 X41.7323 Y6.4268
G01 X41.7229 Y6.4495
G01 X41.7146 Y6.4726
G01 X41.7075 Y6.4960
G01 X41.7016 Y6.5199
G01 X41.6968 Y6.5439
G01 X41.6935 Y6.5655
G01 X41.6762 Y6.5491
G01 X41.6042 Y6.4838
G01 X41.5856 Y6.4678
G01 X41.5663 Y6.4527
G01 X41.4882 Y6.3947
G01 X41.4681 Y6.3806
G01 X41.4474 Y6.3675
G01 X41.3640 Y6.3175
G01 X41.3427 Y6.3054
G01 X41.3207 Y6.2944
G01 X41.2329 Y6.2528
G01 X41.2104 Y6.2429
G01 X41.1875 Y6.2340
G01 X41.0960 Y6.2013
G01 X41.0727 Y6.1936
G01 X41.0490 Y6.1870
G01 X40.9547 Y6.1634
G01 X40.9308 Y6.1580
G01 X40.9066 Y6.1538
G01 X40.8105 Y6.1396
G01 X40.7861 Y6.1366
G01 X40.7616 Y6.1348
G01 X40.6645 Y6.1300
G01 X40.6400 Y6.1294
G01 X40.6155 Y6.1300
G01 X40.5184 Y6.1348
G01 X40.4939 Y6.1366
G01 X40.4695 Y6.1396
G01 X40.3734 Y6.1538
G01 X40.3492 Y6.1580
G01 X40.3253 Y6.1634
G01 X40.2310 Y6.1870
G01 X40.2073 Y6.1936
G01 X40.1840 Y6.2013
G01 X40.0925 Y6.2340
G01 X40.0696 Y6.2429
G01 X40.0583 Y6.2477
G01 X39.9482 Y6.2998
G01 X39.9373 Y6.3054
G01 X39.9160 Y6.3175
G01 X39.8326 Y6.3675
G01 X39.8119 Y6.3806
G01 X39.7918 Y6.3947
G01 X39.7137 Y6.4527
G01 X39.6944 Y6.4678
G01 X39.6850 Y6.4757
G01 X39.6038 Y6.5491
G01 X39.5948 Y6.5574
G01 X39.5774 Y6.5748
G01 X39.4957 Y6.6650
G01 X39.4801 Y6.6840
G01 X39.4581 Y6.7134
G01 X28.2982 Y6.7134
G01 X28.0560 Y6.4638
G00 Z2.0000
G00 X31.1842 Y11.4300
G01 F60.00
G01 Z-0.0500
G01 F100.00
G01 X31.2662 Y11.3808
G01 X31.2870 Y11.3677
G01 X31.3070 Y11.3536
G01 X31.3821 Y11.2979
G01 X31.3919 Y11.2905
G01 X31.4108 Y11.2749
G01 X31.4893 Y11.2040
G01 X31.5071 Y11.1871
G01 X31.5240 Y11.1693
G01 X31.5868 Y11.1000
G01 X31.6028 Y11.0815
G01 X31.6145 Y11.0666
G01 X37.7472 Y11.0666
G01 X38.6796 Y12.0083
G01 X38.6415 Y11.9801
G01 X38.6192 Y11.9651
G01 X38.5769 Y11.9395
G01 X38.5535 Y11.9263
G01 X38.5308 Y11.9148
G01 X38.4977 Y11.8991
G01 X38.4745 Y11.8887
G01 X38.4494 Y11.8790
G01 X38.4149 Y11.8665
G01 X38.3908 Y11.8585
G01 X38.3649 Y11.8513
G01 X38.3170 Y11.8393
G01 X38.2906 Y11.8340
G01 X38.2418 Y11.8266
G01 X38.2166 Y11.8234
G01 X38.1898 Y11.8214
G01 X38.1409 Y11.8190
G01 X31.6164 Y11.7959
G01 X31.6028 Y11.7785
G01 X31.5949 Y11.7692
G01 X31.5156 Y11.6817
G01 X31.5071 Y11.6729
G01 X31.4893 Y11.6560
G01 X31.4108 Y11.5851
G01 X31.3919 Y11.5695
G01 X31.3821 Y11.5621
G01 X31.3070 Y11.5064
G01 X31.2870 Y11.4923
G01 X31.2662 Y11.4792
G01 X31.1842 Y11.4300
G00 Z2.0000
G00 X27.4351 Y15.9930
G01 F60.00
G01 Z-0.0500
G01 F100.00
G01 X27.4571 Y16.0069
G01 X27.4913 Y16.0275
G01 X27.5126 Y16.0396
G01 X27.5235 Y16.0452
G01 X27.5706 Y16.0676
G01 X27.5931 Y16.0776
G01 X27.6160 Y16.0864
G01 X27.6535 Y16.0999
G01 X27.6768 Y16.1076
G01 X27.6886 Y16.1110
G01 X27.7392 Y16.1238
G01 X27.7631 Y16.1292
G01 X27.7873 Y16.1334
G01 X27.8268 Y16.1392
G01 X27.8389 Y16.1409
G01 X27.8634 Y16.1433
G01 X27.9155 Y16.1460
G01 X27.9400 Y16.1466
G01 X29.3455 Y16.1466
G01 X29.3572 Y16.1615
G01 X29.3732 Y16.1800
G01 X29.4444 Y16.2583
G01 X29.4617 Y16.2756
G01 X29.5188 Y16.3276
G01 X29.5030 Y16.3281
G01 X29.4785 Y16.3299
G01 X29.4541 Y16.3329
G01 X29.4300 Y16.3371
G01 X29.4180 Y16.3397
G01 X29.3941 Y16.3456
G01 X29.3707 Y16.3527
G01 X29.3476 Y16.3610
G01 X29.3249 Y16.3704
G01 X29.3027 Y16.3809
G01 X29.2811 Y16.3925
G01 X29.2600 Y16.4051
G01 X29.2497 Y16.4118
G01 X29.2297 Y16.4259
G01 X29.2103 Y16.4410
G01 X29.1917 Y16.4570
G01 X29.1739 Y16.4739
G01 X29.1570 Y16.4917
G01 X29.1410 Y16.5103
G01 X29.1259 Y16.5297
G01 X29.1118 Y16.5497
G01 X29.0986 Y16.5705
G01 X29.0865 Y16.5918
G01 X29.0809 Y16.6027
G01 X29.0704 Y16.6249
G01 X29.0610 Y16.6476
G01 X29.0527 Y16.6707
G01 X29.0456 Y16.6941
G01 X29.0397 Y16.7180
G01 X29.0349 Y16.7420
G01 X29.0313 Y16.7663
G01 X29.0299 Y16.7785
G01 X29.0281 Y16.8030
G01 X29.0275 Y16.8275
G01 X29.0275 Y18.7325
G01 X29.0281 Y18.7570
G01 X29.0289 Y18.7693
G01 X29.0313 Y18.7937
G01 X29.0349 Y18.8180
G01 X29.0397 Y18.8420
G01 X29.0456 Y18.8659
G01 X29.0527 Y18.8893
G01 X29.0610 Y18.9124
G01 X29.0704 Y18.9351
G01 X29.0809 Y18.9573
G01 X29.0865 Y18.9682
G01 X29.0925 Y18.9789
G01 X29.1051 Y19.0000
G01 X29.1187 Y19.0204
G01 X29.1333 Y19.0401
G01 X29.1489 Y19.0591
G01 X29.1654 Y19.0773
G01 X29.1827 Y19.0946
G01 X29.2009 Y19.1111
G01 X29.2199 Y19.1267
G01 X29.2396 Y19.1413
G01 X29.2600 Y19.1549
G01 X29.2705 Y19.1614
G01 X29.2918 Y19.1735
G01 X29.3137 Y19.1845
G01 X29.3249 Y19.1896
G01 X29.3362 Y19.1944
G01 X29.3591 Y19.2033
G01 X29.3824 Y19.2110
G01 X29.3941 Y19.2144
G01 X29.4060 Y19.2175
G01 X29.4300 Y19.2229
G01 X29.4541 Y19.2271
G01 X29.4663 Y19.2287
G01 X29.4785 Y19.2301
G01 X29.5030 Y19.2319
G01 X29.5275 Y19.2325
G01 X31.4325 Y19.2325
G01 X31.4570 Y19.2319
G01 X31.4693 Y19.2311
G01 X31.4937 Y19.2287
G01 X31.5180 Y19.2251
G01 X31.5420 Y19.2203
G01 X31.5540 Y19.2175
G01 X31.5659 Y19.2144
G01 X31.5893 Y19.2073
G01 X31.6009 Y19.2033
G01 X31.6238 Y19.1944
G01 X31.6351 Y19.1896
G01 X31.6573 Y19.1791
G01 X31.6789 Y19.1675
G01 X31.7000 Y19.1549
G01 X31.7204 Y19.1413
G01 X31.7303 Y19.1341
G01 X31.7497 Y19.1190
G01 X31.7683 Y19.1030
G01 X31.7861 Y19.0861
G01 X31.8030 Y19.0683
G01 X31.8111 Y19.0591
G01 X31.8267 Y19.0401
G01 X31.8341 Y19.0303
G01 X31.8482 Y19.0103
G01 X31.8549 Y19.0000
G01 X31.8675 Y18.9789
G01 X31.8791 Y18.9573
G01 X31.8896 Y18.9351
G01 X31.8990 Y18.9124
G01 X31.9033 Y18.9009
G01 X31.9110 Y18.8776
G01 X31.9144 Y18.8659
G01 X31.9203 Y18.8420
G01 X31.9251 Y18.8180
G01 X31.9271 Y18.8059
G01 X31.9301 Y18.7815
G01 X31.9319 Y18.7570
G01 X31.9323 Y18.7448
G01 X31.9325 Y16.8275
G01 X31.9319 Y16.8030
G01 X31.9301 Y16.7785
G01 X31.9287 Y16.7663
G01 X31.9251 Y16.7420
G01 X31.9203 Y16.7180
G01 X31.9144 Y16.6941
G01 X31.9110 Y16.6824
G01 X31.9033 Y16.6591
G01 X31.8990 Y16.6476
G01 X31.8896 Y16.6249
G01 X31.8791 Y16.6027
G01 X31.8675 Y16.5811
G01 X31.8614 Y16.5705
G01 X31.8482 Y16.5497
G01 X31.8341 Y16.5297
G01 X31.8190 Y16.5103
G01 X31.8030 Y16.4917
G01 X31.7861 Y16.4739
G01 X31.7683 Y16.4570
G01 X31.7497 Y16.4410
G01 X31.7401 Y16.4333
G01 X31.7204 Y16.4187
G01 X31.7000 Y16.4051
G01 X31.6789 Y16.3925
G01 X31.6573 Y16.3809
G01 X31.6351 Y16.3704
G01 X31.6124 Y16.3610
G01 X31.5893 Y16.3527
G01 X31.5659 Y16.3456
G01 X31.5420 Y16.3397
G01 X31.5300 Y16.3371
G01 X31.5059 Y16.3329
G01 X31.4815 Y16.3299
G01 X31.4570 Y16.3281
G01 X31.4412 Y16.3276
G01 X31.4983 Y16.2756
G01 X31.5156 Y16.2583
G01 X31.5868 Y16.1800
G01 X31.6028 Y16.1615
G01 X31.6145 Y16.1466
G01 X34.4255 Y16.1466
G01 X34.4372 Y16.1615
G01 X34.4532 Y16.1800
G01 X34.5160 Y16.2493
G01 X34.5244 Y16.2583
G01 X34.5417 Y16.2756
G01 X34.6200 Y16.3468
G01 X34.6385 Y16.3628
G01 X34.6579 Y16.3779
G01 X34.7330 Y16.4336
G01 X34.7530 Y16.4477
G01 X34.7738 Y16.4608
G01 X34.8539 Y16.5089
G01 X34.8753 Y16.5210
G01 X34.8972 Y16.5320
G01 X34.9817 Y16.5720
G01 X35.0042 Y16.5819
G01 X35.0271 Y16.5908
G01 X35.1151 Y16.6223
G01 X35.1384 Y16.6300
G01 X35.1620 Y16.6365
G01 X35.2527 Y16.6592
G01 X35.2766 Y16.6646
G01 X35.3008 Y16.6688
G01 X35.3933 Y16.6825
G01 X35.4176 Y16.6855
G01 X35.4421 Y16.6873
G01 X35.5355 Y16.6919
G01 X35.5600 Y16.6925
G01 X35.5845 Y16.6919
G01 X35.6779 Y16.6873
G01 X35.7024 Y16.6855
G01 X35.7267 Y16.6825
G01 X35.8192 Y16.6688
G01 X35.8434 Y16.6646
G01 X35.8673 Y16.6592
G01 X35.9580 Y16.6365
G01 X35.9816 Y16.6300
G01 X36.0049 Y16.6223
G01 X36.0929 Y16.5908
G01 X36.1158 Y16.5819
G01 X36.1383 Y16.5720
G01 X36.2228 Y16.5320
G01 X36.2447 Y16.5210
G01 X36.2661 Y16.5089
G01 X36.3462 Y16.4608
G01 X36.3670 Y16.4477
G01 X36.3771 Y16.4408
G01 X36.4621 Y16.3779
G01 X36.4815 Y16.3628
G01 X36.5000 Y16.3468
G01 X36.5693 Y16.2840
G01 X36.5871 Y16.2671
G01 X36.5956 Y16.2583
G01 X36.6749 Y16.1708
G01 X36.6828 Y16.1615
G01 X36.6979 Y16.1421
G01 X36.7536 Y16.0670
G01 X36.7677 Y16.0470
G01 X36.7808 Y16.0262
G01 X36.8289 Y15.9461
G01 X36.8410 Y15.9247
G01 X36.8520 Y15.9028
G01 X36.8920 Y15.8183
G01 X36.9019 Y15.7958
G01 X36.9108 Y15.7729
G01 X36.9423 Y15.6849
G01 X36.9500 Y15.6616
G01 X36.9565 Y15.6380
G01 X36.9792 Y15.5473
G01 X36.9846 Y15.5234
G01 X36.9888 Y15.4992
G01 X37.0025 Y15.4067
G01 X37.0055 Y15.3824
G01 X37.0073 Y15.3579
G01 X37.0119 Y15.2645
G01 X37.0125 Y15.2400
G01 X37.0119 Y15.2155
G01 X37.0066 Y15.1099
G01 X37.0055 Y15.0976
G01 X37.0025 Y15.0733
G01 X36.9888 Y14.9808
G01 X36.9846 Y14.9566
G01 X36.9792 Y14.9327
G01 X36.9565 Y14.8420
G01 X36.9500 Y14.8184
G01 X36.9423 Y14.7951
G01 X36.9108 Y14.7071
G01 X36.9019 Y14.6842
G01 X36.8920 Y14.6617
G01 X36.8520 Y14.5772
G01 X36.8410 Y14.5553
G01 X36.8289 Y14.5339
G01 X36.7808 Y14.4538
G01 X36.7677 Y14.4330
G01 X36.7608 Y14.4229
G01 X36.6979 Y14.3379
G01 X36.6828 Y14.3185
G01 X36.6668 Y14.3000
G01 X36.6040 Y14.2307
G01 X36.5871 Y14.2129
G01 X36.5693 Y14.1960
G01 X36.5000 Y14.1332
G01 X36.4815 Y14.1172
G01 X36.4621 Y14.1021
G01 X36.3870 Y14.0464
G01 X36.3670 Y14.0323
G01 X36.3462 Y14.0192
G01 X36.2661 Y13.9711
G01 X36.2555 Y13.9649
G01 X36.2338 Y13.9534
G01 X36.1383 Y13.9080
G01 X36.1158 Y13.8981
G01 X36.0929 Y13.8892
G01 X36.0049 Y13.8577
G01 X35.9816 Y13.8500
G01 X35.9580 Y13.8435
G01 X35.8673 Y13.8208
G01 X35.8434 Y13.8154
G01 X35.8192 Y13.8112
G01 X35.7267 Y13.7975
G01 X35.7024 Y13.7945
G01 X35.6779 Y13.7927
G01 X35.5845 Y13.7881
G01 X35.5600 Y13.7875
G01 X35.5355 Y13.7881
G01 X35.4421 Y13.7927
G01 X35.4176 Y13.7945
G01 X35.3933 Y13.7975
G01 X35.3008 Y13.8112
G01 X35.2766 Y13.8154
G01 X35.2527 Y13.8208
G01 X35.1620 Y13.8435
G01 X35.1384 Y13.8500
G01 X35.1151 Y13.8577
G01 X35.0271 Y13.8892
G01 X35.0042 Y13.8981
G01 X34.9817 Y13.9080
G01 X34.8972 Y13.9480
G01 X34.8753 Y13.9590
G01 X34.8539 Y13.9711
G01 X34.7738 Y14.0192
G01 X34.7530 Y14.0323
G01 X34.7330 Y14.0464
G01 X34.6579 Y14.1021
G01 X34.6385 Y14.1172
G01 X34.6200 Y14.1332
G01 X34.5417 Y14.2044
G01 X34.5244 Y14.2217
G01 X34.5160 Y14.2307
G01 X34.4532 Y14.3000
G01 X34.4372 Y14.3185
G01 X34.4255 Y14.3334
G01 X31.6145 Y14.3334
G01 X31.6028 Y14.3185
G01 X31.5868 Y14.3000
G01 X31.5240 Y14.2307
G01 X31.5071 Y14.2129
G01 X31.4893 Y14.1960
G01 X31.4108 Y14.1251
G01 X31.3919 Y14.1095
G01 X31.3821 Y14.1021
G01 X31.3070 Y14.0464
G01 X31.2870 Y14.0323
G01 X31.2662 Y14.0192
G01 X31.1842 Y13.9700
G01 X31.2662 Y13.9208
G01 X31.2870 Y13.9077
G01 X31.3070 Y13.8936
G01 X31.3821 Y13.8379
G01 X31.3919 Y13.8305
G01 X31.4108 Y13.8149
G01 X31.4893 Y13.7440
G01 X31.5071 Y13.7271
G01 X31.5240 Y13.7093
G01 X31.5868 Y13.6400
G01 X31.6028 Y13.6215
G01 X31.6126 Y13.6091
G01 X37.2188 Y13.6288
G01 X37.2188 Y17.3791
G01 X35.1845 Y19.4134
G01 X30.4800 Y19.4134
G01 X30.4555 Y19.4140
G01 X30.4034 Y19.4167
G01 X30.3789 Y19.4191
G01 X30.3668 Y19.4208
G01 X30.3273 Y19.4266
G01 X30.3031 Y19.4308
G01 X30.2792 Y19.4362
G01 X30.2405 Y19.4459
G01 X30.2168 Y19.4524
G01 X30.2051 Y19.4561
G01 X30.1445 Y19.4779
G01 X30.1331 Y19.4824
G01 X30.1106 Y19.4924
G01 X30.0746 Y19.5094
G01 X30.0526 Y19.5204
G01 X30.0313 Y19.5325
G01 X29.9971 Y19.5531
G01 X29.9763 Y19.5662
G01 X29.9662 Y19.5731
G01 X29.9144 Y19.6115
G01 X29.8955 Y19.6271
G01 X29.8863 Y19.6352
G01 X29.8567 Y19.6620
G01 X29.8389 Y19.6789
G01 X29.8220 Y19.6967
G01 X29.7952 Y19.7263
G01 X29.7871 Y19.7355
G01 X29.7715 Y19.7544
G01 X29.7331 Y19.8062
G01 X29.7262 Y19.8163
G01 X29.7131 Y19.8371
G01 X29.6925 Y19.8713
G01 X29.6804 Y19.8926
G01 X29.6694 Y19.9146
G01 X29.6524 Y19.9506
G01 X29.6424 Y19.9731
G01 X29.6379 Y19.9845
G01 X29.6161 Y20.0451
G01 X29.6090 Y20.0686
G01 X29.6059 Y20.0805
G01 X29.5962 Y20.1192
G01 X29.5908 Y20.1431
G01 X29.5866 Y20.1673
G01 X29.5808 Y20.2068
G01 X29.5791 Y20.2189
G01 X29.5767 Y20.2434
G01 X29.5740 Y20.2955
G01 X29.5734 Y20.3200
G01 X29.5734 Y21.7255
G01 X29.5492 Y21.7451
G01 X29.4707 Y21.8160
G01 X29.4529 Y21.8329
G01 X29.4360 Y21.8507
G01 X29.3732 Y21.9200
G01 X29.3572 Y21.9385
G01 X29.3421 Y21.9579
G01 X29.2792 Y22.0429
G01 X29.2723 Y22.0530
G01 X29.2592 Y22.0738
G01 X29.2111 Y22.1539
G01 X29.1990 Y22.1753
G01 X29.1880 Y22.1972
G01 X29.1480 Y22.2817
G01 X29.1381 Y22.3042
G01 X29.1292 Y22.3271
G01 X29.0977 Y22.4151
G01 X29.0900 Y22.4384
G01 X29.0835 Y22.4620
G01 X29.0608 Y22.5527
G01 X29.0554 Y22.5766
G01 X29.0532 Y22.5887
G01 X29.0375 Y22.6933
G01 X29.0345 Y22.7176
G01 X29.0327 Y22.7421
G01 X29.0281 Y22.8355
G01 X29.0275 Y22.8600
G01 X29.0281 Y22.8845
G01 X29.0327 Y22.9779
G01 X29.0345 Y23.0024
G01 X29.0375 Y23.0267
G01 X29.0512 Y23.1192
G01 X29.0554 Y23.1434
G01 X29.0608 Y23.1673
G01 X29.0835 Y23.2580
G01 X29.0900 Y23.2816
G01 X29.0977 Y23.3049
G01 X29.1292 Y23.3929
G01 X29.1381 Y23.4158
G01 X29.1480 Y23.4383
G01 X29.1880 Y23.5228
G01 X29.1990 Y23.5447
G01 X29.2111 Y23.5661
G01 X29.2592 Y23.6462
G01 X29.2656 Y23.6567
G01 X29.2792 Y23.6771
G01 X29.3421 Y23.7621
G01 X29.3572 Y23.7815
G01 X29.3732 Y23.8000
G01 X29.4360 Y23.8693
G01 X29.4529 Y23.8871
G01 X29.4707 Y23.9040
G01 X29.5400 Y23.9668
G01 X29.5585 Y23.9828
G01 X29.5779 Y23.9979
G01 X29.6530 Y24.0536
G01 X29.6629 Y24.0608
G01 X29.6833 Y24.0744
G01 X29.7739 Y24.1289
G01 X29.7953 Y24.1410
G01 X29.8172 Y24.1520
G01 X29.9017 Y24.1920
G01 X29.9242 Y24.2019
G01 X29.9471 Y24.2108
G01 X30.0351 Y24.2423
G01 X30.0584 Y24.2500
G01 X30.0820 Y24.2565
G01 X30.1727 Y24.2792
G01 X30.1966 Y24.2846
G01 X30.2208 Y24.2888
G01 X30.3133 Y24.3025
G01 X30.3376 Y24.3055
G01 X30.3621 Y24.3073
G01 X30.4555 Y24.3119
G01 X30.4800 Y24.3125
G01 X30.5045 Y24.3119
G01 X30.5979 Y24.3073
G01 X30.6224 Y24.3055
G01 X30.6467 Y24.3025
G01 X30.7392 Y24.2888
G01 X30.7513 Y24.2868
G01 X30.7754 Y24.2820
G01 X30.8780 Y24.2565
G01 X30.9016 Y24.2500
G01 X30.9249 Y24.2423
G01 X31.0129 Y24.2108
G01 X31.0358 Y24.2019
G01 X31.0583 Y24.1920
G01 X31.1428 Y24.1520
G01 X31.1647 Y24.1410
G01 X31.1861 Y24.1289
G01 X31.2662 Y24.0808
G01 X31.2870 Y24.0677
G01 X31.3070 Y24.0536
G01 X31.3821 Y23.9979
G01 X31.4015 Y23.9828
G01 X31.4200 Y23.9668
G01 X31.4893 Y23.9040
G01 X31.5071 Y23.8871
G01 X31.5240 Y23.8693
G01 X31.5868 Y23.8000
G01 X31.6028 Y23.7815
G01 X31.6179 Y23.7621
G01 X31.6736 Y23.6870
G01 X31.6877 Y23.6670
G01 X31.7008 Y23.6462
G01 X31.7489 Y23.5661
G01 X31.7610 Y23.5447
G01 X31.7720 Y23.5228
G01 X31.8120 Y23.4383
G01 X31.8219 Y23.4158
G01 X31.8308 Y23.3929
G01 X31.8623 Y23.3049
G01 X31.8700 Y23.2816
G01 X31.8765 Y23.2580
G01 X31.8992 Y23.1673
G01 X31.9046 Y23.1434
G01 X31.9088 Y23.1192
G01 X31.9225 Y23.0267
G01 X31.9255 Y23.0024
G01 X31.9273 Y22.9779
G01 X31.9319 Y22.8845
G01 X31.9325 Y22.8600
G01 X31.9319 Y22.8355
G01 X31.9273 Y22.7421
G01 X31.9255 Y22.7176
G01 X31.9225 Y22.6933
G01 X31.9088 Y22.6008
G01 X31.9046 Y22.5766
G01 X31.9020 Y22.5646
G01 X31.8734 Y22.4501
G01 X31.8700 Y22.4384
G01 X31.8623 Y22.4151
G01 X31.8308 Y22.3271
G01 X31.8219 Y22.3042
G01 X31.8120 Y22.2817
G01 X31.7720 Y22.1972
G01 X31.7610 Y22.1753
G01 X31.7489 Y22.1539
G01 X31.7008 Y22.0738
G01 X31.6877 Y22.0530
G01 X31.6736 Y22.0330
G01 X31.6179 Y21.9579
G01 X31.6028 Y21.9385
G01 X31.5868 Y21.9200
G01 X31.5240 Y21.8507
G01 X31.5071 Y21.8329
G01 X31.4893 Y21.8160
G01 X31.4108 Y21.7451
G01 X31.3866 Y21.7255
G01 X31.3866 Y21.2266
G01 X35.5723 Y21.2265
G01 X35.6244 Y21.2240
G01 X35.6489 Y21.2222
G01 X35.6732 Y21.2192
G01 X35.7127 Y21.2134
G01 X35.7369 Y21.2092
G01 X35.7608 Y21.2038
G01 X35.7995 Y21.1941
G01 X35.8232 Y21.1876
G01 X35.8465 Y21.1799
G01 X35.8955 Y21.1621
G01 X35.9182 Y21.1528
G01 X35.9765 Y21.1252
G01 X35.9981 Y21.1136
G01 X36.0534 Y21.0805
G01 X36.0738 Y21.0669
G01 X36.1256 Y21.0285
G01 X36.1445 Y21.0129
G01 X36.1923 Y20.9696
G01 X38.7665 Y18.3957
G01 X38.7834 Y18.3779
G01 X38.8102 Y18.3483
G01 X38.8262 Y18.3297
G01 X38.8413 Y18.3104
G01 X38.8651 Y18.2783
G01 X38.8792 Y18.2583
G01 X38.8923 Y18.2375
G01 X38.9190 Y18.1927
G01 X38.9306 Y18.1711
G01 X38.9582 Y18.1128
G01 X38.9675 Y18.0901
G01 X38.9853 Y18.0411
G01 X38.9930 Y18.0178
G01 X38.9995 Y17.9941
G01 X39.0120 Y17.9435
G01 X39.0168 Y17.9194
G01 X39.0246 Y17.8678
G01 X39.0276 Y17.8435
G01 X39.0294 Y17.8190
G01 X39.0314 Y17.7791
G01 X39.0320 Y17.7546
G01 X39.0319 Y12.7131
G01 X39.0297 Y12.6642
G01 X39.0277 Y12.6374
G01 X39.0246 Y12.6122
G01 X39.0173 Y12.5633
G01 X39.0121 Y12.5370
G01 X39.0003 Y12.4890
G01 X38.9936 Y12.4644
G01 X38.9853 Y12.4389
G01 X38.9730 Y12.4043
G01 X38.9633 Y12.3793
G01 X38.9530 Y12.3560
G01 X38.9374 Y12.3228
G01 X38.9260 Y12.3001
G01 X38.9129 Y12.2767
G01 X38.8874 Y12.2343
G01 X38.8725 Y12.2120
G01 X38.8475 Y12.1778
G01 X39.7588 Y13.0983
G01 X39.7588 Y21.9534
G01 X36.6945 Y21.9534
G01 X36.6828 Y21.9385
G01 X36.6668 Y21.9200
G01 X36.6040 Y21.8507
G01 X36.5871 Y21.8329
G01 X36.5693 Y21.8160
G01 X36.5000 Y21.7532
G01 X36.4815 Y21.7372
G01 X36.4621 Y21.7221
G01 X36.3870 Y21.6664
G01 X36.3670 Y21.6523
G01 X36.3462 Y21.6392
G01 X36.2661 Y21.5911
G01 X36.2447 Y21.5790
G01 X36.2228 Y21.5680
G01 X36.1383 Y21.5280
G01 X36.1158 Y21.5181
G01 X36.0929 Y21.5092
G01 X36.0049 Y21.4777
G01 X35.9816 Y21.4700
G01 X35.9580 Y21.4635
G01 X35.8673 Y21.4408
G01 X35.8434 Y21.4354
G01 X35.8192 Y21.4312
G01 X35.7267 Y21.4175
G01 X35.7024 Y21.4145
G01 X35.6779 Y21.4127
G01 X35.5845 Y21.4081
G01 X35.5600 Y21.4075
G01 X35.5355 Y21.4081
G01 X35.4421 Y21.4127
G01 X35.4176 Y21.4145
G01 X35.3933 Y21.4175
G01 X35.3008 Y21.4312
G01 X35.2766 Y21.4354
G01 X35.2527 Y21.4408
G01 X35.1620 Y21.4635
G01 X35.1384 Y21.4700
G01 X35.1151 Y21.4777
G01 X35.0155 Y21.5135
G01 X34.9929 Y21.5229
G01 X34.9817 Y21.5280
G01 X34.8972 Y21.5680
G01 X34.8753 Y21.5790
G01 X34.8539 Y21.5911
G01 X34.7738 Y21.6392
G01 X34.7530 Y21.6523
G01 X34.7330 Y21.6664
G01 X34.6579 Y21.7221
G01 X34.6385 Y21.7372
G01 X34.6200 Y21.7532
G01 X34.5507 Y21.8160
G01 X34.5329 Y21.8329
G01 X34.5160 Y21.8507
G01 X34.4532 Y21.9200
G01 X34.4372 Y21.9385
G01 X34.4221 Y21.9579
G01 X34.3664 Y22.0330
G01 X34.3523 Y22.0530
G01 X34.3392 Y22.0738
G01 X34.2911 Y22.1539
G01 X34.2790 Y22.1753
G01 X34.2680 Y22.1972
G01 X34.2280 Y22.2817
G01 X34.2181 Y22.3042
G01 X34.2092 Y22.3271
G01 X34.1777 Y22.4151
G01 X34.1700 Y22.4384
G01 X34.1635 Y22.4620
G01 X34.1408 Y22.5527
G01 X34.1354 Y22.5766
G01 X34.1312 Y22.6008
G01 X34.1175 Y22.6933
G01 X34.1158 Y22.7054
G01 X34.1134 Y22.7299
G01 X34.1077 Y22.8477
G01 X34.1077 Y22.8723
G01 X34.1081 Y22.8845
G01 X34.1127 Y22.9779
G01 X34.1145 Y23.0024
G01 X34.1175 Y23.0267
G01 X34.1312 Y23.1192
G01 X34.1354 Y23.1434
G01 X34.1408 Y23.1673
G01 X34.1635 Y23.2580
G01 X34.1700 Y23.2816
G01 X34.1777 Y23.3049
G01 X34.2092 Y23.3929
G01 X34.2135 Y23.4045
G01 X34.2229 Y23.4271
G01 X34.2680 Y23.5228
G01 X34.2790 Y23.5447
G01 X34.2911 Y23.5661
G01 X34.3392 Y23.6462
G01 X34.3456 Y23.6567
G01 X34.3592 Y23.6771
G01 X34.4295 Y23.7719
G01 X34.4372 Y23.7815
G01 X34.4532 Y23.8000
G01 X34.5160 Y23.8693
G01 X34.5329 Y23.8871
G01 X34.5507 Y23.9040
G01 X34.5988 Y23.9476
G01 X34.5830 Y23.9481
G01 X34.5585 Y23.9499
G01 X34.5341 Y23.9529
G01 X34.5220 Y23.9549
G01 X34.4980 Y23.9597
G01 X34.4741 Y23.9656
G01 X34.4507 Y23.9727
G01 X34.4391 Y23.9767
G01 X34.4276 Y23.9810
G01 X34.4049 Y23.9904
G01 X34.3827 Y24.0009
G01 X34.3611 Y24.0125
G01 X34.3400 Y24.0251
G01 X34.3297 Y24.0318
G01 X34.3097 Y24.0459
G01 X34.2903 Y24.0610
G01 X34.2809 Y24.0689
G01 X34.2627 Y24.0854
G01 X34.2454 Y24.1027
G01 X34.2289 Y24.1209
G01 X34.2210 Y24.1303
G01 X34.2059 Y24.1497
G01 X34.1918 Y24.1697
G01 X34.1786 Y24.1905
G01 X34.1665 Y24.2118
G01 X34.1609 Y24.2227
G01 X34.1504 Y24.2449
G01 X34.1410 Y24.2676
G01 X34.1327 Y24.2907
G01 X34.1290 Y24.3024
G01 X34.1225 Y24.3260
G01 X34.1171 Y24.3500
G01 X34.1129 Y24.3741
G01 X34.1099 Y24.3985
G01 X34.1081 Y24.4230
G01 X34.1075 Y24.4475
G01 X34.1075 Y26.3525
G01 X34.1077 Y26.3648
G01 X34.1089 Y26.3893
G01 X34.1113 Y26.4137
G01 X34.1149 Y26.4380
G01 X34.1197 Y26.4620
G01 X34.1256 Y26.4859
G01 X34.1327 Y26.5093
G01 X34.1410 Y26.5324
G01 X34.1504 Y26.5551
G01 X34.1609 Y26.5773
G01 X34.1665 Y26.5882
G01 X34.1786 Y26.6095
G01 X34.1918 Y26.6303
G01 X34.2059 Y26.6503
G01 X34.2210 Y26.6697
G01 X34.2370 Y26.6883
G01 X34.2539 Y26.7060
G01 X34.2717 Y26.7230
G01 X34.2903 Y26.7390
G01 X34.3097 Y26.7541
G01 X34.3297 Y26.7682
G01 X34.3504 Y26.7814
G01 X34.3718 Y26.7935
G01 X34.3937 Y26.8045
G01 X34.4162 Y26.8144
G01 X34.4391 Y26.8233
G01 X34.4624 Y26.8310
G01 X34.4860 Y26.8375
G01 X34.4979 Y26.8403
G01 X34.5220 Y26.8451
G01 X34.5463 Y26.8487
G01 X34.5707 Y26.8511
G01 X34.5952 Y26.8523
G01 X34.6534 Y26.8525
G01 X34.6534 Y27.0497
G01 X33.0266 Y27.0334
G01 X33.0090 Y27.0335
G01 X32.9647 Y27.0354
G01 X32.9336 Y27.0375
G01 X32.9202 Y27.0390
G01 X32.8763 Y27.0451
G01 X32.8496 Y27.0496
G01 X32.8323 Y27.0531
G01 X32.7761 Y27.0669
G01 X32.7463 Y27.0758
G01 X32.6917 Y27.0950
G01 X32.6754 Y27.1015
G01 X32.6506 Y27.1124
G01 X32.6105 Y27.1312
G01 X32.5830 Y27.1458
G01 X32.5332 Y27.1753
G01 X32.5184 Y27.1848
G01 X32.4963 Y27.2003
G01 X32.4606 Y27.2267
G01 X32.4500 Y27.2350
G01 X32.4364 Y27.2463
G01 X32.3933 Y27.2849
G01 X32.3789 Y27.2989
G01 X29.8389 Y29.8389
G01 X29.8220 Y29.8567
G01 X29.7952 Y29.8863
G01 X29.7792 Y29.9049
G01 X29.7641 Y29.9242
G01 X29.7403 Y29.9563
G01 X29.7262 Y29.9763
G01 X29.7195 Y29.9866
G01 X29.6864 Y30.0419
G01 X29.6748 Y30.0635
G01 X29.6694 Y30.0746
G01 X29.6524 Y30.1106
G01 X29.6424 Y30.1331
G01 X29.6336 Y30.1560
G01 X29.6161 Y30.2051
G01 X29.6124 Y30.2168
G01 X29.6059 Y30.2405
G01 X29.5962 Y30.2792
G01 X29.5908 Y30.3031
G01 X29.5866 Y30.3273
G01 X29.5808 Y30.3668
G01 X29.5791 Y30.3789
G01 X29.5767 Y30.4034
G01 X29.5740 Y30.4555
G01 X29.5734 Y30.4800
G01 X29.5734 Y31.8855
G01 X29.5585 Y31.8972
G01 X29.5400 Y31.9132
G01 X29.4707 Y31.9760
G01 X29.4529 Y31.9929
G01 X29.4360 Y32.0107
G01 X29.3732 Y32.0800
G01 X29.3572 Y32.0985
G01 X29.3455 Y32.1134
G01 X26.5345 Y32.1134
G01 X26.5228 Y32.0985
G01 X26.5068 Y32.0800
G01 X26.4440 Y32.0107
G01 X26.4271 Y31.9929
G01 X26.4093 Y31.9760
G01 X26.3400 Y31.9132
G01 X26.3215 Y31.8972
G01 X26.3021 Y31.8821
G01 X26.2270 Y31.8264
G01 X26.2070 Y31.8123
G01 X26.1862 Y31.7992
G01 X26.1061 Y31.7511
G01 X26.0847 Y31.7390
G01 X26.0628 Y31.7280
G01 X25.9783 Y31.6880
G01 X25.9558 Y31.6781
G01 X25.9329 Y31.6692
G01 X25.8449 Y31.6377
G01 X25.8216 Y31.6300
G01 X25.7980 Y31.6235
G01 X25.7073 Y31.6008
G01 X25.6834 Y31.5954
G01 X25.6592 Y31.5912
G01 X25.5667 Y31.5775
G01 X25.5424 Y31.5745
G01 X25.5179 Y31.5727
G01 X25.4245 Y31.5681
G01 X25.4000 Y31.5675
G01 X25.3755 Y31.5681
G01 X25.2821 Y31.5727
G01 X25.2576 Y31.5745
G01 X25.2454 Y31.5758
G01 X25.1408 Y31.5912
G01 X25.1166 Y31.5954
G01 X25.0927 Y31.6008
G01 X25.0020 Y31.6235
G01 X24.9784 Y31.6300
G01 X24.9551 Y31.6377
G01 X24.8671 Y31.6692
G01 X24.8555 Y31.6735
G01 X24.8329 Y31.6829
G01 X24.7372 Y31.7280
G01 X24.7153 Y31.7390
G01 X24.6939 Y31.7511
G01 X24.6033 Y31.8056
G01 X24.5930 Y31.8123
G01 X24.5730 Y31.8264
G01 X24.4979 Y31.8821
G01 X24.4785 Y31.8972
G01 X24.4600 Y31.9132
G01 X24.3907 Y31.9760
G01 X24.3729 Y31.9929
G01 X24.3560 Y32.0107
G01 X24.2932 Y32.0800
G01 X24.2772 Y32.0985
G01 X24.2621 Y32.1179
G01 X24.2064 Y32.1930
G01 X24.1923 Y32.2130
G01 X24.1792 Y32.2338
G01 X24.1311 Y32.3139
G01 X24.1190 Y32.3353
G01 X24.1080 Y32.3572
G01 X24.0680 Y32.4417
G01 X24.0581 Y32.4642
G01 X24.0535 Y32.4755
G01 X24.0177 Y32.5751
G01 X24.0100 Y32.5984
G01 X24.0035 Y32.6220
G01 X23.9780 Y32.7246
G01 X23.9732 Y32.7487
G01 X23.9712 Y32.7608
G01 X23.9575 Y32.8533
G01 X23.9545 Y32.8776
G01 X23.9527 Y32.9021
G01 X23.9481 Y32.9955
G01 X23.9475 Y33.0200
G01 X23.9481 Y33.0445
G01 X23.9527 Y33.1379
G01 X23.9545 Y33.1624
G01 X23.9575 Y33.1867
G01 X23.9712 Y33.2792
G01 X23.9754 Y33.3034
G01 X23.9808 Y33.3273
G01 X24.0035 Y33.4180
G01 X24.0100 Y33.4416
G01 X24.0177 Y33.4649
G01 X24.0492 Y33.5529
G01 X24.0581 Y33.5758
G01 X24.0680 Y33.5983
G01 X24.1080 Y33.6828
G01 X24.1190 Y33.7047
G01 X24.1311 Y33.7261
G01 X24.1792 Y33.8062
G01 X24.1923 Y33.8270
G01 X24.2064 Y33.8470
G01 X24.2621 Y33.9221
G01 X24.2772 Y33.9415
G01 X24.2932 Y33.9600
G01 X24.3560 Y34.0293
G01 X24.3729 Y34.0471
G01 X24.3907 Y34.0640
G01 X24.4600 Y34.1268
G01 X24.4785 Y34.1428
G01 X24.4979 Y34.1579
G01 X24.5730 Y34.2136
G01 X24.5930 Y34.2277
G01 X24.6138 Y34.2408
G01 X24.6939 Y34.2889
G01 X24.7153 Y34.3010
G01 X24.7372 Y34.3120
G01 X24.8217 Y34.3520
G01 X24.8442 Y34.3619
G01 X24.8671 Y34.3708
G01 X24.9551 Y34.4023
G01 X24.9784 Y34.4100
G01 X25.0020 Y34.4165
G01 X25.1046 Y34.4420
G01 X25.1166 Y34.4446
G01 X25.1408 Y34.4488
G01 X25.2333 Y34.4625
G01 X25.2576 Y34.4655
G01 X25.2821 Y34.4673
G01 X25.3755 Y34.4719
G01 X25.4000 Y34.4725
G01 X25.4245 Y34.4719
G01 X25.5301 Y34.4666
G01 X25.5424 Y34.4655
G01 X25.5667 Y34.4625
G01 X25.6592 Y34.4488
G01 X25.6834 Y34.4446
G01 X25.7073 Y34.4392
G01 X25.7980 Y34.4165
G01 X25.8216 Y34.4100
G01 X25.8449 Y34.4023
G01 X25.9329 Y34.3708
G01 X25.9558 Y34.3619
G01 X25.9783 Y34.3520
G01 X26.0628 Y34.3120
G01 X26.0847 Y34.3010
G01 X26.1061 Y34.2889
G01 X26.1862 Y34.2408
G01 X26.2070 Y34.2277
G01 X26.2270 Y34.2136
G01 X26.3021 Y34.1579
G01 X26.3215 Y34.1428
G01 X26.3400 Y34.1268
G01 X26.4183 Y34.0556
G01 X26.4356 Y34.0383
G01 X26.4440 Y34.0293
G01 X26.5068 Y33.9600
G01 X26.5228 Y33.9415
G01 X26.5345 Y33.9266
G01 X29.3455 Y33.9266
G01 X29.3651 Y33.9508
G01 X29.4360 Y34.0293
G01 X29.4529 Y34.0471
G01 X29.4707 Y34.0640
G01 X29.5400 Y34.1268
G01 X29.5585 Y34.1428
G01 X29.5779 Y34.1579
G01 X29.6530 Y34.2136
G01 X29.6730 Y34.2277
G01 X29.6938 Y34.2408
G01 X29.7739 Y34.2889
G01 X29.7953 Y34.3010
G01 X29.8172 Y34.3120
G01 X29.9017 Y34.3520
G01 X29.9242 Y34.3619
G01 X29.9471 Y34.3708
G01 X30.0351 Y34.4023
G01 X30.0584 Y34.4100
G01 X30.0701 Y34.4134
G01 X30.1727 Y34.4392
G01 X30.1966 Y34.4446
G01 X30.2208 Y34.4488
G01 X30.3254 Y34.4642
G01 X30.3499 Y34.4666
G01 X30.3621 Y34.4673
G01 X30.4555 Y34.4719
G01 X30.4800 Y34.4725
G01 X30.5045 Y34.4719
G01 X30.5979 Y34.4673
G01 X30.6224 Y34.4655
G01 X30.6467 Y34.4625
G01 X30.7392 Y34.4488
G01 X30.7634 Y34.4446
G01 X30.7873 Y34.4392
G01 X30.8780 Y34.4165
G01 X30.9016 Y34.4100
G01 X30.9249 Y34.4023
G01 X31.0129 Y34.3708
G01 X31.0358 Y34.3619
G01 X31.0583 Y34.3520
G01 X31.1428 Y34.3120
G01 X31.1538 Y34.3066
G01 X31.1755 Y34.2951
G01 X31.2662 Y34.2408
G01 X31.2870 Y34.2277
G01 X31.3070 Y34.2136
G01 X31.3821 Y34.1579
G01 X31.4015 Y34.1428
G01 X31.4200 Y34.1268
G01 X31.4893 Y34.0640
G01 X31.5071 Y34.0471
G01 X31.5240 Y34.0293
G01 X31.5868 Y33.9600
G01 X31.6028 Y33.9415
G01 X31.6179 Y33.9221
G01 X31.6736 Y33.8470
G01 X31.6877 Y33.8270
G01 X31.7008 Y33.8062
G01 X31.7489 Y33.7261
G01 X31.7610 Y33.7047
G01 X31.7720 Y33.6828
G01 X31.8120 Y33.5983
G01 X31.8219 Y33.5758
G01 X31.8308 Y33.5529
G01 X31.8623 Y33.4649
G01 X31.8700 Y33.4416
G01 X31.8765 Y33.4180
G01 X31.8992 Y33.3273
G01 X31.9046 Y33.3034
G01 X31.9088 Y33.2792
G01 X31.9225 Y33.1867
G01 X31.9255 Y33.1624
G01 X31.9273 Y33.1379
G01 X31.9319 Y33.0445
G01 X31.9325 Y33.0200
G01 X31.9319 Y32.9955
G01 X31.9273 Y32.9021
G01 X31.9255 Y32.8776
G01 X31.9225 Y32.8533
G01 X31.9088 Y32.7608
G01 X31.9046 Y32.7366
G01 X31.8992 Y32.7127
G01 X31.8765 Y32.6220
G01 X31.8700 Y32.5984
G01 X31.8623 Y32.5751
G01 X31.8308 Y32.4871
G01 X31.8219 Y32.4642
G01 X31.8120 Y32.4417
G01 X31.7720 Y32.3572
G01 X31.7610 Y32.3353
G01 X31.7489 Y32.3139
G01 X31.7008 Y32.2338
G01 X31.6877 Y32.2130
G01 X31.6736 Y32.1930
G01 X31.6179 Y32.1179
G01 X31.6028 Y32.0985
G01 X31.5868 Y32.0800
G01 X31.5240 Y32.0107
G01 X31.5071 Y31.9929
G01 X31.4893 Y31.9760
G01 X31.4200 Y31.9132
G01 X31.4015 Y31.8972
G01 X31.3866 Y31.8855
G01 X31.3866 Y30.8555
G01 X33.3918 Y28.8504
G01 X34.6534 Y28.8630
G01 X34.6534 Y29.0275
G01 X34.6075 Y29.0275
G01 X34.5830 Y29.0281
G01 X34.5585 Y29.0299
G01 X34.5341 Y29.0329
G01 X34.5220 Y29.0349
G01 X34.4980 Y29.0397
G01 X34.4741 Y29.0456
G01 X34.4507 Y29.0527
G01 X34.4276 Y29.0610
G01 X34.4162 Y29.0656
G01 X34.3937 Y29.0755
G01 X34.3827 Y29.0809
G01 X34.3611 Y29.0925
G01 X34.3400 Y29.1051
G01 X34.3196 Y29.1187
G01 X34.3097 Y29.1259
G01 X34.2999 Y29.1333
G01 X34.2809 Y29.1489
G01 X34.2627 Y29.1654
G01 X34.2454 Y29.1827
G01 X34.2289 Y29.2009
G01 X34.2210 Y29.2103
G01 X34.2133 Y29.2199
G01 X34.1987 Y29.2396
G01 X34.1918 Y29.2497
G01 X34.1786 Y29.2705
G01 X34.1665 Y29.2918
G01 X34.1555 Y29.3137
G01 X34.1504 Y29.3249
G01 X34.1410 Y29.3476
G01 X34.1327 Y29.3707
G01 X34.1256 Y29.3941
G01 X34.1197 Y29.4180
G01 X34.1171 Y29.4300
G01 X34.1129 Y29.4541
G01 X34.1099 Y29.4785
G01 X34.1089 Y29.4907
G01 X34.1077 Y29.5152
G01 X34.1075 Y31.4325
G01 X34.1081 Y31.4570
G01 X34.1099 Y31.4815
G01 X34.1129 Y31.5059
G01 X34.1171 Y31.5300
G01 X34.1225 Y31.5540
G01 X34.1290 Y31.5776
G01 X34.1367 Y31.6009
G01 X34.1410 Y31.6124
G01 X34.1504 Y31.6351
G01 X34.1555 Y31.6463
G01 X34.1665 Y31.6682
G01 X34.1786 Y31.6895
G01 X34.1851 Y31.7000
G01 X34.1987 Y31.7204
G01 X34.2133 Y31.7401
G01 X34.2289 Y31.7591
G01 X34.2454 Y31.7773
G01 X34.2627 Y31.7946
G01 X34.2809 Y31.8111
G01 X34.2903 Y31.8190
G01 X34.3097 Y31.8341
G01 X34.3297 Y31.8482
G01 X34.3400 Y31.8549
G01 X34.3611 Y31.8675
G01 X34.3718 Y31.8735
G01 X34.3937 Y31.8845
G01 X34.4162 Y31.8944
G01 X34.4391 Y31.9033
G01 X34.4624 Y31.9110
G01 X34.4860 Y31.9175
G01 X34.5100 Y31.9229
G01 X34.5220 Y31.9251
G01 X34.5341 Y31.9271
G01 X34.5585 Y31.9301
G01 X34.5830 Y31.9319
G01 X34.5988 Y31.9324
G01 X34.5507 Y31.9760
G01 X34.5329 Y31.9929
G01 X34.5160 Y32.0107
G01 X34.4532 Y32.0800
G01 X34.4372 Y32.0985
G01 X34.4295 Y32.1081
G01 X34.3592 Y32.2029
G01 X34.3523 Y32.2130
G01 X34.3392 Y32.2338
G01 X34.2911 Y32.3139
G01 X34.2790 Y32.3353
G01 X34.2680 Y32.3572
G01 X34.2280 Y32.4417
G01 X34.2229 Y32.4529
G01 X34.2135 Y32.4755
G01 X34.1777 Y32.5751
G01 X34.1700 Y32.5984
G01 X34.1635 Y32.6220
G01 X34.1408 Y32.7127
G01 X34.1354 Y32.7366
G01 X34.1332 Y32.7487
G01 X34.1158 Y32.8654
G01 X34.1134 Y32.8899
G01 X34.1127 Y32.9021
G01 X34.1081 Y32.9955
G01 X34.1075 Y33.0200
G01 X34.1081 Y33.0445
G01 X34.1127 Y33.1379
G01 X34.1145 Y33.1624
G01 X34.1174 Y33.1861
G01 X32.6668 Y34.6534
G01 X23.7920 Y34.6534
G01 X23.7920 Y30.8769
G01 X28.5690 Y26.0274
G01 X28.5994 Y25.9937
G01 X28.6166 Y25.9737
G01 X28.6267 Y25.9610
G01 X28.6543 Y25.9237
G01 X28.6695 Y25.9021
G01 X28.6783 Y25.8885
G01 X28.7021 Y25.8487
G01 X28.7165 Y25.8230
G01 X28.7225 Y25.8113
G01 X28.7422 Y25.7694
G01 X28.7529 Y25.7452
G01 X28.7589 Y25.7301
G01 X28.7745 Y25.6865
G01 X28.7827 Y25.6614
G01 X28.7872 Y25.6457
G01 X28.7984 Y25.6008
G01 X28.8041 Y25.5750
G01 X28.8091 Y25.5460
G01 X28.8156 Y25.5001
G01 X28.8170 Y25.4870
G01 X28.8191 Y25.4576
G01 X28.8211 Y25.4123
G01 X28.8212 Y25.4000
G01 X28.8212 Y17.7546
G01 X28.8206 Y17.7301
G01 X28.8179 Y17.6780
G01 X28.8155 Y17.6535
G01 X28.8138 Y17.6414
G01 X28.8080 Y17.6019
G01 X28.8038 Y17.5777
G01 X28.7984 Y17.5538
G01 X28.7856 Y17.5032
G01 X28.7785 Y17.4797
G01 X28.7745 Y17.4681
G01 X28.7567 Y17.4191
G01 X28.7474 Y17.3964
G01 X28.7252 Y17.3492
G01 X28.7142 Y17.3272
G01 X28.7021 Y17.3059
G01 X28.6815 Y17.2717
G01 X28.6684 Y17.2509
G01 X28.6615 Y17.2408
G01 X28.6305 Y17.1988
G01 X28.6154 Y17.1795
G01 X28.5994 Y17.1609
G01 X28.5726 Y17.1313
G01 X28.5557 Y17.1135
G01 X27.4351 Y15.9930
G00 Z2.0000
G00 X16.5100 Y18.4583
G01 F60.00
G01 Z-0.0500
G01 F100.00
G01 X16.5223 Y18.4801
G01 X16.5697 Y18.5592
G01 X16.5829 Y18.5799
G01 X16.5970 Y18.6000
G01 X16.6519 Y18.6741
G01 X16.6670 Y18.6934
G01 X16.6831 Y18.7120
G01 X16.7450 Y18.7803
G01 X16.7619 Y18.7981
G01 X16.7797 Y18.8150
G01 X16.8480 Y18.8769
G01 X16.8666 Y18.8930
G01 X16.8859 Y18.9081
G01 X16.9600 Y18.9630
G01 X16.9700 Y18.9702
G01 X16.9904 Y18.9838
G01 X17.0799 Y19.0377
G01 X17.1013 Y19.0498
G01 X17.1232 Y19.0608
G01 X17.2066 Y19.1003
G01 X17.2290 Y19.1102
G01 X17.2519 Y19.1190
G01 X17.3387 Y19.1501
G01 X17.3620 Y19.1578
G01 X17.3857 Y19.1643
G01 X17.4752 Y19.1868
G01 X17.4871 Y19.1896
G01 X17.5112 Y19.1944
G01 X17.6145 Y19.2099
G01 X17.6389 Y19.2129
G01 X17.6633 Y19.2147
G01 X17.7555 Y19.2192
G01 X17.7800 Y19.2198
G01 X17.8045 Y19.2192
G01 X17.8967 Y19.2147
G01 X17.9089 Y19.2139
G01 X17.9298 Y19.2119
G01 X18.2849 Y19.5670
G01 X18.2629 Y19.5531
G01 X18.2181 Y19.5264
G01 X18.1965 Y19.5148
G01 X18.1854 Y19.5094
G01 X18.1494 Y19.4924
G01 X18.1269 Y19.4824
G01 X18.1040 Y19.4736
G01 X18.0665 Y19.4601
G01 X18.0432 Y19.4524
G01 X18.0195 Y19.4459
G01 X17.9689 Y19.4334
G01 X17.9448 Y19.4286
G01 X17.9327 Y19.4266
G01 X17.8932 Y19.4208
G01 X17.8689 Y19.4178
G01 X17.8444 Y19.4160
G01 X17.7923 Y19.4135
G01 X13.5926 Y19.4134
G01 X13.5990 Y18.9043
G01 X13.6134 Y18.8930
G01 X13.6320 Y18.8769
G01 X13.7003 Y18.8150
G01 X13.7181 Y18.7981
G01 X13.7350 Y18.7803
G01 X13.7969 Y18.7120
G01 X13.8130 Y18.6934
G01 X13.8281 Y18.6741
G01 X13.8830 Y18.6000
G01 X13.8971 Y18.5799
G01 X13.9103 Y18.5592
G01 X13.9577 Y18.4801
G01 X13.9700 Y18.4583
G01 X13.9823 Y18.4801
G01 X14.0297 Y18.5592
G01 X14.0429 Y18.5799
G01 X14.0570 Y18.6000
G01 X14.1119 Y18.6741
G01 X14.1270 Y18.6934
G01 X14.1431 Y18.7120
G01 X14.2050 Y18.7803
G01 X14.2219 Y18.7981
G01 X14.2397 Y18.8150
G01 X14.3080 Y18.8769
G01 X14.3266 Y18.8930
G01 X14.3459 Y18.9081
G01 X14.4200 Y18.9630
G01 X14.4401 Y18.9771
G01 X14.4608 Y18.9903
G01 X14.5399 Y19.0377
G01 X14.5613 Y19.0498
G01 X14.5832 Y19.0608
G01 X14.6666 Y19.1003
G01 X14.6890 Y19.1102
G01 X14.7119 Y19.1190
G01 X14.7987 Y19.1501
G01 X14.8220 Y19.1578
G01 X14.8457 Y19.1643
G01 X14.9352 Y19.1868
G01 X14.9591 Y19.1921
G01 X14.9833 Y19.1963
G01 X15.0745 Y19.2099
G01 X15.0989 Y19.2129
G01 X15.1233 Y19.2147
G01 X15.2155 Y19.2192
G01 X15.2400 Y19.2198
G01 X15.2645 Y19.2192
G01 X15.3567 Y19.2147
G01 X15.3811 Y19.2129
G01 X15.4055 Y19.2099
G01 X15.4967 Y19.1963
G01 X15.5209 Y19.1921
G01 X15.5448 Y19.1868
G01 X15.6343 Y19.1643
G01 X15.6580 Y19.1578
G01 X15.6813 Y19.1501
G01 X15.7681 Y19.1190
G01 X15.7910 Y19.1102
G01 X15.8134 Y19.1003
G01 X15.8968 Y19.0608
G01 X15.9187 Y19.0498
G01 X15.9401 Y19.0377
G01 X16.0192 Y18.9903
G01 X16.0399 Y18.9771
G01 X16.0600 Y18.9630
G01 X16.1341 Y18.9081
G01 X16.1534 Y18.8930
G01 X16.1720 Y18.8769
G01 X16.2403 Y18.8150
G01 X16.2581 Y18.7981
G01 X16.2750 Y18.7803
G01 X16.3369 Y18.7120
G01 X16.3530 Y18.6934
G01 X16.3681 Y18.6741
G01 X16.4230 Y18.6000
G01 X16.4371 Y18.5799
G01 X16.4503 Y18.5592
G01 X16.4977 Y18.4801
G01 X16.5100 Y18.4583
G00 Z2.0000
G00 X4.1734 Y24.2816
G01 F60.00
G01 Z-0.0500
G01 F100.00
G01 X4.1734 Y8.9085
G01 X4.1585 Y8.9050
G01 X4.1349 Y8.8985
G01 X4.1116 Y8.8908
G01 X4.1001 Y8.8865
G01 X4.0774 Y8.8771
G01 X4.0662 Y8.8720
G01 X4.0443 Y8.8610
G01 X4.0336 Y8.8550
G01 X4.0230 Y8.8489
G01 X4.0022 Y8.8357
G01 X3.9822 Y8.8216
G01 X3.9628 Y8.8065
G01 X3.9534 Y8.7986
G01 X3.9352 Y8.7821
G01 X3.9179 Y8.7648
G01 X3.9095 Y8.7558
G01 X3.9014 Y8.7466
G01 X3.8858 Y8.7276
G01 X3.8784 Y8.7178
G01 X3.8643 Y8.6978
G01 X3.8511 Y8.6770
G01 X3.8390 Y8.6557
G01 X3.8280 Y8.6338
G01 X3.8229 Y8.6226
G01 X3.8135 Y8.5999
G01 X3.8092 Y8.5884
G01 X3.8015 Y8.5651
G01 X3.7950 Y8.5415
G01 X3.7896 Y8.5175
G01 X3.7874 Y8.5055
G01 X3.7854 Y8.4934
G01 X3.7824 Y8.4690
G01 X3.7806 Y8.4445
G01 X3.7800 Y8.4200
G01 X3.7800 Y6.8200
G01 X3.7802 Y6.8077
G01 X3.7814 Y6.7832
G01 X3.7838 Y6.7588
G01 X3.7874 Y6.7345
G01 X3.7896 Y6.7225
G01 X3.7950 Y6.6985
G01 X3.8015 Y6.6749
G01 X3.8092 Y6.6516
G01 X3.8181 Y6.6287
G01 X3.8280 Y6.6062
G01 X3.8390 Y6.5843
G01 X3.8511 Y6.5630
G01 X3.8643 Y6.5422
G01 X3.8784 Y6.5222
G01 X3.8935 Y6.5028
G01 X3.9095 Y6.4842
G01 X3.9265 Y6.4665
G01 X3.9442 Y6.4495
G01 X3.9534 Y6.4414
G01 X3.9724 Y6.4258
G01 X3.9921 Y6.4112
G01 X4.0125 Y6.3976
G01 X4.0230 Y6.3911
G01 X4.0443 Y6.3790
G01 X4.0662 Y6.3680
G01 X4.0887 Y6.3581
G01 X4.1116 Y6.3492
G01 X4.1349 Y6.3415
G01 X4.1585 Y6.3350
G01 X4.1705 Y6.3322
G01 X4.1945 Y6.3274
G01 X4.2188 Y6.3238
G01 X4.2432 Y6.3214
G01 X4.2555 Y6.3206
G01 X4.2800 Y6.3200
G01 X5.8800 Y6.3200
G01 X5.9045 Y6.3206
G01 X5.9290 Y6.3224
G01 X5.9412 Y6.3238
G01 X5.9655 Y6.3274
G01 X5.9775 Y6.3296
G01 X6.0015 Y6.3350
G01 X6.0134 Y6.3381
G01 X6.0251 Y6.3415
G01 X6.0484 Y6.3492
G01 X6.0713 Y6.3581
G01 X6.0938 Y6.3680
G01 X6.1157 Y6.3790
G01 X6.1370 Y6.3911
G01 X6.1475 Y6.3976
G01 X6.1679 Y6.4112
G01 X6.1876 Y6.4258
G01 X6.2066 Y6.4414
G01 X6.2248 Y6.4579
G01 X6.2335 Y6.4665
G01 X6.2505 Y6.4842
G01 X6.2665 Y6.5028
G01 X6.2816 Y6.5222
G01 X6.2957 Y6.5422
G01 X6.3089 Y6.5630
G01 X6.3210 Y6.5843
G01 X6.3320 Y6.6062
G01 X6.3371 Y6.6174
G01 X6.3465 Y6.6401
G01 X6.3548 Y6.6632
G01 X6.3619 Y6.6866
G01 X6.3678 Y6.7105
G01 X6.3726 Y6.7345
G01 X6.3762 Y6.7588
G01 X6.3776 Y6.7710
G01 X6.3794 Y6.7955
G01 X6.3800 Y6.8200
G01 X6.3800 Y7.0961
G01 X6.4117 Y7.0291
G01 X6.4227 Y7.0072
G01 X6.4348 Y6.9858
G01 X6.4816 Y6.9080
G01 X6.4883 Y6.8978
G01 X6.5024 Y6.8777
G01 X6.5492 Y6.8146
G01 X6.5643 Y6.7953
G01 X6.5722 Y6.7859
G01 X6.6330 Y6.7185
G01 X6.6500 Y6.7008
G01 X6.6677 Y6.6838
G01 X6.7259 Y6.6311
G01 X6.7445 Y6.6151
G01 X6.7638 Y6.6000
G01 X6.8269 Y6.5532
G01 X6.8470 Y6.5391
G01 X6.8572 Y6.5324
G01 X6.9350 Y6.4856
G01 X6.9564 Y6.4735
G01 X6.9783 Y6.4625
G01 X7.0493 Y6.4289
G01 X7.0717 Y6.4190
G01 X7.0946 Y6.4101
G01 X7.1685 Y6.3837
G01 X7.1918 Y6.3760
G01 X7.2036 Y6.3726
G01 X7.2916 Y6.3504
G01 X7.3156 Y6.3450
G01 X7.3398 Y6.3408
G01 X7.4296 Y6.3276
G01 X7.4540 Y6.3252
G01 X7.4663 Y6.3245
G01 X7.5569 Y6.3202
G01 X7.5815 Y6.3202
G01 X7.6150 Y6.3217
G01 X9.5479 Y4.4100
G01 X9.5658 Y4.3932
G01 X9.6014 Y4.3612
G01 X9.6232 Y4.3434
G01 X9.6617 Y4.3149
G01 X9.6829 Y4.3000
G01 X9.7067 Y4.2850
G01 X9.7479 Y4.2606
G01 X9.7612 Y4.2533
G01 X9.7844 Y4.2418
G01 X9.8160 Y4.2270
G01 X9.8397 Y4.2165
G01 X9.8660 Y4.2064
G01 X9.9112 Y4.1905
G01 X9.9257 Y4.1860
G01 X9.9507 Y4.1792
G01 X9.9972 Y4.1678
G01 X10.0121 Y4.1647
G01 X10.0376 Y4.1604
G01 X10.0722 Y4.1554
G01 X10.0979 Y4.1522
G01 X10.1260 Y4.1502
G01 X10.1609 Y4.1486
G01 X10.1854 Y4.1480
G01 X25.4254 Y4.1480
G01 X25.4494 Y4.1484
G01 X25.5039 Y4.1515
G01 X25.5241 Y4.1534
G01 X25.5382 Y4.1551
G01 X25.5921 Y4.1635
G01 X25.6258 Y4.1705
G01 X25.6786 Y4.1841
G01 X25.6980 Y4.1900
G01 X25.7115 Y4.1944
G01 X25.7494 Y4.2082
G01 X25.7758 Y4.2185
G01 X25.7944 Y4.2266
G01 X25.8308 Y4.2440
G01 X25.8561 Y4.2568
G01 X25.8738 Y4.2667
G01 X25.9204 Y4.2951
G01 X25.9373 Y4.3063
G01 X25.9489 Y4.3145
G01 X25.9812 Y4.3387
G01 X26.0034 Y4.3562
G01 X26.0189 Y4.3693
G01 X26.0294 Y4.3788
G01 X26.0590 Y4.4063
G01 X26.0691 Y4.4162
G01 X26.5603 Y4.9224
G01 X26.5735 Y4.8332
G01 X26.5777 Y4.8090
G01 X26.5831 Y4.7851
G01 X26.6043 Y4.7004
G01 X26.6108 Y4.6768
G01 X26.6185 Y4.6535
G01 X26.6479 Y4.5714
G01 X26.6567 Y4.5485
G01 X26.6667 Y4.5260
G01 X26.7040 Y4.4472
G01 X26.7150 Y4.4252
G01 X26.7271 Y4.4039
G01 X26.7720 Y4.3290
G01 X26.7851 Y4.3083
G01 X26.7992 Y4.2882
G01 X26.8586 Y4.2084
G01 X26.8742 Y4.1894
G01 X26.8823 Y4.1802
G01 X26.9493 Y4.1066
G01 X26.9666 Y4.0893
G01 X27.0256 Y4.0356
G01 X27.0185 Y3.4212
G01 X5.4555 Y3.4212
G01 X3.4466 Y5.4301
G01 X3.4466 Y32.6217
G01 X5.4582 Y34.6534
G01 X12.3021 Y34.6534
G01 X13.7961 Y33.1762
G01 X13.7945 Y33.1624
G01 X13.7927 Y33.1379
G01 X13.7881 Y33.0445
G01 X13.7875 Y33.0200
G01 X13.7881 Y32.9955
G01 X13.7927 Y32.9021
G01 X13.7945 Y32.8776
G01 X13.7975 Y32.8533
G01 X13.8112 Y32.7608
G01 X13.8154 Y32.7366
G01 X13.8208 Y32.7127
