(G-CODE GENERATED BY FLATCAM v8.994 - www.flatcam.org - Version Date: 2020/11/7)

(Name: DASDASSD.svg_cnc)
(Type: G-code from Geometry)
(Units: MM)

(Created on Wednesday, 01 May 2024 at 14:17)

(This preprocessor is the default preprocessor used by FlatCAM.)
(It is made to work with MACH3 compatible motion controllers.)

(TOOL DIAMETER: 1.0 mm)
(Feedrate_XY: 120.0 mm/min)
(Feedrate_Z: 60.0 mm/min)
(Feedrate rapids 1500.0 mm/min)

(Z_Cut: -0.0933 mm)
(Z_Move: 2.0 mm)
(Z Start: None mm)
(Z End: 15.0 mm)
(X,Y End: None mm)
(Steps per circle: 64)
(Preprocessor Geometry: default)

(X range:    4.3979 ...    8.5255  mm)
(Y range:    4.0000 ...    9.0203  mm)

(Spindle Speed: 0.0 RPM)
G21
G90
G94

G01 F120.00

M5
G00 Z15.0000
G00 X0.0000 Y0.0000
T1
M6    
(MSG, Change to Tool Dia = 1.0000)
M0
G00 Z15.0000

M03
G01 F120.00
G00 X4.8520 Y4.0525
G01 F60.00
G01 Z-0.0933
G01 F120.00
G01 X4.8632 Y4.0000
G01 X4.9579 Y4.0000
G01 X4.9466 Y4.0433
G01 X4.9402 Y4.0777
G01 X4.9336 Y4.1228
G01 X4.9252 Y4.1947
G01 X4.9184 Y4.2441
G01 X4.9121 Y4.2828
G01 X4.9047 Y4.3221
G01 X4.8988 Y4.3555
G01 X4.8934 Y4.3892
G01 X4.8886 Y4.4218
G01 X4.8859 Y4.4372
G01 X4.8812 Y4.4572
G01 X4.8764 Y4.4718
G01 X4.8733 Y4.4775
G01 X4.8708 Y4.4797
G01 X4.8687 Y4.4826
G01 X4.8663 Y4.4873
G01 X4.8625 Y4.4969
G01 X4.8570 Y4.5143
G01 X4.8499 Y4.5414
G01 X4.8432 Y4.5725
G01 X4.8384 Y4.5988
G01 X4.8263 Y4.6841
G01 X4.8195 Y4.7236
G01 X4.8170 Y4.7354
G01 X4.8145 Y4.7444
G01 X4.8121 Y4.7508
G01 X4.8079 Y4.7580
G01 X4.8052 Y4.7642
G01 X4.8015 Y4.7765
G01 X4.7979 Y4.7910
G01 X4.7853 Y4.8503
G01 X4.7702 Y4.9280
G01 X4.7675 Y4.9435
G01 X4.7643 Y4.9662
G01 X4.7619 Y4.9891
G01 X4.7604 Y5.0100
G01 X4.7598 Y5.0299
G01 X4.7590 Y5.0425
G01 X4.7575 Y5.0571
G01 X4.7547 Y5.0788
G01 X4.7481 Y5.1187
G01 X4.7333 Y5.1901
G01 X4.7228 Y5.2476
G01 X4.7143 Y5.3041
G01 X4.7074 Y5.3614
G01 X4.7020 Y5.4213
G01 X4.6979 Y5.4854
G01 X4.6957 Y5.5315
G01 X4.6889 Y5.7000
G01 X4.7070 Y5.6999
G01 X4.7116 Y5.6992
G01 X4.7170 Y5.6969
G01 X4.7193 Y5.6949
G01 X4.7206 Y5.6907
G01 X4.7244 Y5.6864
G01 X4.7324 Y5.6798
G01 X4.7457 Y5.6703
G01 X4.7651 Y5.6574
G01 X4.7979 Y5.6363
G01 X4.9084 Y5.5669
G01 X4.9348 Y5.5493
G01 X4.9512 Y5.5370
G01 X4.9572 Y5.5330
G01 X4.9607 Y5.5311
G01 X4.9664 Y5.5294
G01 X4.9725 Y5.5266
G01 X5.0005 Y5.5123
G01 X5.1027 Y5.4566
G01 X5.1734 Y5.4188
G01 X5.4095 Y5.2952
G01 X5.4479 Y5.2741
G01 X5.4742 Y5.2587
G01 X5.4890 Y5.2494
G01 X5.5048 Y5.2385
G01 X5.5184 Y5.2281
G01 X5.5305 Y5.2175
G01 X5.5416 Y5.2065
G01 X5.5547 Y5.1921
G01 X5.5708 Y5.1730
G01 X5.5823 Y5.1579
G01 X5.5887 Y5.1480
G01 X5.5919 Y5.1418
G01 X5.5946 Y5.1332
G01 X5.5952 Y5.1277
G01 X5.5947 Y5.1224
G01 X5.5939 Y5.1198
G01 X5.5917 Y5.1145
G01 X5.5881 Y5.1093
G01 X5.5805 Y5.1012
G01 X5.5737 Y5.0956
G01 X5.5655 Y5.0897
G01 X5.5449 Y5.0768
G01 X5.5105 Y5.0579
G01 X5.4522 Y5.0278
G01 X5.4328 Y5.0164
G01 X5.4145 Y5.0044
G01 X5.3919 Y4.9874
G01 X5.3714 Y4.9698
G01 X5.3534 Y4.9517
G01 X5.3452 Y4.9426
G01 X5.3342 Y4.9290
G01 X5.3277 Y4.9200
G01 X5.3219 Y4.9111
G01 X5.3168 Y4.9023
G01 X5.3124 Y4.8938
G01 X5.3087 Y4.8854
G01 X5.3058 Y4.8773
G01 X5.3036 Y4.8694
G01 X5.3023 Y4.8619
G01 X5.3017 Y4.8547
G01 X5.3019 Y4.8480
G01 X5.3030 Y4.8416
G01 X5.3050 Y4.8358
G01 X5.3078 Y4.8304
G01 X5.3115 Y4.8256
G01 X5.3161 Y4.8213
G01 X5.3217 Y4.8177
G01 X5.3318 Y4.8135
G01 X5.3440 Y4.8109
G01 X5.3535 Y4.8101
G01 X5.3867 Y4.8100
G01 X5.4189 Y4.8502
G01 X5.4277 Y4.8601
G01 X5.4423 Y4.8739
G01 X5.4506 Y4.8809
G01 X5.4641 Y4.8912
G01 X5.4833 Y4.9044
G01 X5.4981 Y4.9135
G01 X5.5482 Y4.9399
G01 X5.5860 Y4.9614
G01 X5.6139 Y4.9790
G01 X5.6386 Y4.9963
G01 X5.6600 Y5.0136
G01 X5.6748 Y5.0273
G01 X5.6846 Y5.0375
G01 X5.6905 Y5.0444
G01 X5.7008 Y5.0581
G01 X5.7091 Y5.0719
G01 X5.7154 Y5.0857
G01 X5.7197 Y5.0997
G01 X5.7211 Y5.1068
G01 X5.7223 Y5.1175
G01 X5.7225 Y5.1247
G01 X5.7220 Y5.1356
G01 X5.7203 Y5.1466
G01 X5.7175 Y5.1578
G01 X5.7137 Y5.1692
G01 X5.7088 Y5.1807
G01 X5.7029 Y5.1925
G01 X5.6959 Y5.2045
G01 X5.6849 Y5.2208
G01 X5.6686 Y5.2419
G01 X5.6534 Y5.2593
G01 X5.6302 Y5.2844
G01 X5.6126 Y5.3041
G01 X5.5969 Y5.3229
G01 X5.5934 Y5.3277
G01 X5.5899 Y5.3336
G01 X5.5871 Y5.3362
G01 X5.5815 Y5.3390
G01 X5.5772 Y5.3399
G01 X5.5706 Y5.3405
G01 X5.5646 Y5.3428
G01 X5.5601 Y5.3464
G01 X5.5573 Y5.3507
G01 X5.5491 Y5.3566
G01 X5.5298 Y5.3684
G01 X5.5017 Y5.3843
G01 X5.4404 Y5.4172
G01 X5.2665 Y5.5068
G01 X5.1626 Y5.5617
G01 X5.1140 Y5.5883
G01 X5.0727 Y5.6115
G01 X5.0331 Y5.6345
G01 X4.9940 Y5.6580
G01 X4.9392 Y5.6920
G01 X4.8713 Y5.7355
G01 X4.7853 Y5.7918
G01 X4.7492 Y5.8167
G01 X4.7350 Y5.8275
G01 X4.7269 Y5.8342
G01 X4.7166 Y5.8439
G01 X4.7109 Y5.8502
G01 X4.7060 Y5.8565
G01 X4.7019 Y5.8628
G01 X4.6985 Y5.8692
G01 X4.6948 Y5.8793
G01 X4.6931 Y5.8864
G01 X4.6919 Y5.8940
G01 X4.6912 Y5.9021
G01 X4.6910 Y5.9154
G01 X4.6916 Y5.9304
G01 X4.6928 Y5.9473
G01 X4.6941 Y5.9627
G01 X4.6962 Y5.9797
G01 X4.7004 Y6.0013
G01 X4.7020 Y6.0074
G01 X4.7056 Y6.0180
G01 X4.7075 Y6.0225
G01 X4.7118 Y6.0299
G01 X4.7141 Y6.0328
G01 X4.7190 Y6.0369
G01 X4.7215 Y6.0381
G01 X4.7242 Y6.0387
G01 X4.7270 Y6.0388
G01 X4.7299 Y6.0384
G01 X4.7329 Y6.0374
G01 X4.7391 Y6.0336
G01 X4.7423 Y6.0309
G01 X4.7490 Y6.0238
G01 X4.7560 Y6.0144
G01 X4.7596 Y6.0088
G01 X4.7924 Y5.9564
G01 X4.8075 Y5.9334
G01 X4.8134 Y5.9253
G01 X4.8182 Y5.9194
G01 X4.8221 Y5.9157
G01 X4.8251 Y5.9142
G01 X4.8263 Y5.9142
G01 X4.8274 Y5.9147
G01 X4.8290 Y5.9172
G01 X4.8300 Y5.9218
G01 X4.8305 Y5.9282
G01 X4.8306 Y5.9468
G01 X4.8286 Y6.0258
G01 X4.8287 Y6.0454
G01 X4.8288 Y6.0473
G01 X4.8296 Y6.0491
G01 X4.8313 Y6.0501
G01 X4.8341 Y6.0503
G01 X4.8377 Y6.0497
G01 X4.8477 Y6.0461
G01 X4.8609 Y6.0394
G01 X4.8839 Y6.0255
G01 X4.8974 Y6.0179
G01 X4.9163 Y6.0090
G01 X4.9222 Y6.0067
G01 X4.9335 Y6.0032
G01 X4.9389 Y6.0019
G01 X4.9490 Y6.0004
G01 X4.9583 Y6.0002
G01 X4.9667 Y6.0013
G01 X4.9743 Y6.0037
G01 X4.9809 Y6.0074
G01 X4.9866 Y6.0125
G01 X4.9914 Y6.0188
G01 X4.9951 Y6.0264
G01 X4.9978 Y6.0353
G01 X4.9994 Y6.0455
G01 X4.9999 Y6.0511
G01 X5.0000 Y6.0899
G01 X4.9619 Y6.1174
G01 X4.9506 Y6.1252
G01 X4.9335 Y6.1358
G01 X4.9099 Y6.1490
G01 X4.8950 Y6.1567
G01 X4.8747 Y6.1664
G01 X4.8449 Y6.1792
G01 X4.8308 Y6.1846
G01 X4.8177 Y6.1891
G01 X4.7918 Y6.1963
G01 X4.7886 Y6.1977
G01 X4.7826 Y6.2014
G01 X4.7797 Y6.2036
G01 X4.7743 Y6.2088
G01 X4.7670 Y6.2182
G01 X4.7607 Y6.2294
G01 X4.7555 Y6.2422
G01 X4.7513 Y6.2564
G01 X4.7481 Y6.2717
G01 X4.7460 Y6.2879
G01 X4.7450 Y6.3048
G01 X4.7451 Y6.3222
G01 X4.7469 Y6.3456
G01 X4.7497 Y6.3632
G01 X4.7521 Y6.3747
G01 X4.7551 Y6.3861
G01 X4.7605 Y6.4026
G01 X4.7672 Y6.4183
G01 X4.7750 Y6.4330
G01 X4.7809 Y6.4421
G01 X4.8000 Y6.4692
G01 X4.8003 Y6.5490
G01 X4.8010 Y6.5631
G01 X4.8022 Y6.5758
G01 X4.8038 Y6.5869
G01 X4.8056 Y6.5957
G01 X4.8077 Y6.6019
G01 X4.8088 Y6.6038
G01 X4.8132 Y6.6081
G01 X4.8146 Y6.6104
G01 X4.8171 Y6.6162
G01 X4.8195 Y6.6267
G01 X4.8208 Y6.6423
G01 X4.8229 Y6.6504
G01 X4.8262 Y6.6582
G01 X4.8303 Y6.6649
G01 X4.8326 Y6.6677
G01 X4.8500 Y6.6824
G01 X4.8500 Y6.8218
G01 X4.8683 Y6.8384
G01 X4.8715 Y6.8420
G01 X4.8764 Y6.8499
G01 X4.8814 Y6.8606
G01 X4.8881 Y6.8793
G01 X4.8930 Y6.8962
G01 X4.8994 Y6.9226
G01 X4.9078 Y6.9636
G01 X4.9136 Y6.9879
G01 X4.9215 Y7.0160
G01 X4.9294 Y7.0394
G01 X4.9353 Y7.0533
G01 X4.9380 Y7.0583
G01 X4.9422 Y7.0648
G01 X4.9475 Y7.0744
G01 X4.9600 Y7.1014
G01 X4.9738 Y7.1351
G01 X4.9935 Y7.1887
G01 X5.0065 Y7.2187
G01 X5.0150 Y7.2364
G01 X5.0238 Y7.2536
G01 X5.0326 Y7.2698
G01 X5.0414 Y7.2847
G01 X5.0554 Y7.3060
G01 X5.0654 Y7.3188
G01 X5.0699 Y7.3236
G01 X5.0739 Y7.3271
G01 X5.0775 Y7.3293
G01 X5.0818 Y7.3304
G01 X5.0833 Y7.3315
G01 X5.0870 Y7.3356
G01 X5.0933 Y7.3457
G01 X5.1036 Y7.3674
G01 X5.1116 Y7.3811
G01 X5.1210 Y7.3944
G01 X5.1275 Y7.4023
G01 X5.1382 Y7.4137
G01 X5.1457 Y7.4242
G01 X5.1567 Y7.4430
G01 X5.1679 Y7.4655
G01 X5.1757 Y7.4836
G01 X5.1857 Y7.5089
G01 X5.1939 Y7.5269
G01 X5.2033 Y7.5450
G01 X5.2137 Y7.5629
G01 X5.2248 Y7.5803
G01 X5.2366 Y7.5967
G01 X5.2456 Y7.6083
G01 X5.2723 Y7.6405
G01 X5.2896 Y7.6636
G01 X5.2975 Y7.6753
G01 X5.3013 Y7.6817
G01 X5.3039 Y7.6868
G01 X5.3073 Y7.6952
G01 X5.3111 Y7.7013
G01 X5.3156 Y7.7067
G01 X5.3180 Y7.7090
G01 X5.3229 Y7.7126
G01 X5.3277 Y7.7150
G01 X5.3300 Y7.7167
G01 X5.3340 Y7.7214
G01 X5.3372 Y7.7276
G01 X5.3384 Y7.7310
G01 X5.3398 Y7.7382
G01 X5.3402 Y7.7449
G01 X5.3410 Y7.7482
G01 X5.3421 Y7.7518
G01 X5.3457 Y7.7598
G01 X5.3507 Y7.7686
G01 X5.3571 Y7.7779
G01 X5.3687 Y7.7922
G01 X5.4155 Y7.8396
G01 X5.4432 Y7.8683
G01 X5.4547 Y7.8792
G01 X5.4781 Y7.8986
G01 X5.4925 Y7.9093
G01 X5.5085 Y7.9203
G01 X5.5159 Y7.9260
G01 X5.5237 Y7.9326
G01 X5.5355 Y7.9435
G01 X5.5469 Y7.9551
G01 X5.5573 Y7.9668
G01 X5.5740 Y7.9886
G01 X5.5865 Y8.0037
G01 X5.5983 Y8.0161
G01 X5.6050 Y8.0222
G01 X5.6103 Y8.0260
G01 X5.6692 Y8.0576
G01 X5.6849 Y8.0679
G01 X5.6929 Y8.0745
G01 X5.6959 Y8.0775
G01 X5.6995 Y8.0827
G01 X5.7004 Y8.0867
G01 X5.7036 Y8.0919
G01 X5.7063 Y8.0948
G01 X5.7133 Y8.1013
G01 X5.7272 Y8.1114
G01 X5.7453 Y8.1225
G01 X5.7641 Y8.1349
G01 X5.7988 Y8.1599
G01 X5.8219 Y8.1778
G01 X5.8376 Y8.1910
G01 X5.8496 Y8.2020
G01 X5.8572 Y8.2102
G01 X5.8622 Y8.2131
G01 X5.8654 Y8.2143
G01 X5.8731 Y8.2163
G01 X5.8873 Y8.2180
G01 X5.9040 Y8.2184
G01 X5.9223 Y8.2176
G01 X5.9414 Y8.2156
G01 X5.9603 Y8.2126
G01 X5.9782 Y8.2087
G01 X5.9893 Y8.2056
G01 X5.9992 Y8.2022
G01 X6.0115 Y8.1964
G01 X6.0177 Y8.1922
G01 X6.0274 Y8.1829
G01 X6.0403 Y8.1731
G01 X6.0500 Y8.1672
G01 X6.0655 Y8.1592
G01 X6.0765 Y8.1546
G01 X6.0934 Y8.1488
G01 X6.1104 Y8.1444
G01 X6.1271 Y8.1416
G01 X6.1429 Y8.1406
G01 X6.1528 Y8.1408
G01 X6.1619 Y8.1419
G01 X6.1702 Y8.1439
G01 X6.1774 Y8.1468
G01 X6.1807 Y8.1486
G01 X6.1881 Y8.1539
G01 X6.1981 Y8.1598
G01 X6.2087 Y8.1643
G01 X6.2191 Y8.1673
G01 X6.2284 Y8.1684
G01 X6.2324 Y8.1681
G01 X6.2550 Y8.1650
G01 X6.2615 Y8.2105
G01 X6.1911 Y8.2406
G01 X6.1461 Y8.2612
G01 X6.1302 Y8.2691
G01 X6.1029 Y8.2843
G01 X6.0641 Y8.3048
G01 X6.0544 Y8.3113
G01 X6.0510 Y8.3143
G01 X6.0486 Y8.3173
G01 X6.0471 Y8.3204
G01 X6.0466 Y8.3234
G01 X6.0471 Y8.3266
G01 X6.0485 Y8.3300
G01 X6.0509 Y8.3335
G01 X6.0543 Y8.3373
G01 X6.0586 Y8.3414
G01 X6.0701 Y8.3507
G01 X6.1571 Y8.4156
G01 X6.1677 Y8.4227
G01 X6.1782 Y8.4290
G01 X6.1928 Y8.4361
G01 X6.2009 Y8.4390
G01 X6.2134 Y8.4410
G01 X6.2167 Y8.4422
G01 X6.2235 Y8.4459
G01 X6.2299 Y8.4508
G01 X6.2328 Y8.4537
G01 X6.2354 Y8.4568
G01 X6.2399 Y8.4632
G01 X6.2451 Y8.4692
G01 X6.2480 Y8.4718
G01 X6.2540 Y8.4761
G01 X6.2600 Y8.4790
G01 X6.2628 Y8.4797
G01 X6.2683 Y8.4803
G01 X6.2720 Y8.4811
G01 X6.2809 Y8.4842
G01 X6.2970 Y8.4915
G01 X6.3140 Y8.5009
G01 X6.3292 Y8.5108
G01 X6.3371 Y8.5170
G01 X6.3448 Y8.5242
G01 X6.3524 Y8.5298
G01 X6.3673 Y8.5400
G01 X6.3849 Y8.5511
G01 X6.4088 Y8.5652
G01 X6.4243 Y8.5736
G01 X6.4356 Y8.5789
G01 X6.4381 Y8.5797
G01 X6.4430 Y8.5805
G01 X6.4458 Y8.5818
G01 X6.4489 Y8.5850
G01 X6.4505 Y8.5906
G01 X6.4545 Y8.5934
G01 X6.4620 Y8.5964
G01 X6.4724 Y8.5993
G01 X6.4923 Y8.6032
G01 X6.5336 Y8.6088
G01 X6.5716 Y8.6145
G01 X6.6123 Y8.6211
G01 X6.6927 Y8.6350
G01 X6.7359 Y8.6417
G01 X6.7777 Y8.6476
G01 X6.9684 Y8.6711
G01 X7.0059 Y8.6750
G01 X7.0472 Y8.6785
G01 X7.0980 Y8.6822
G01 X7.2158 Y8.6888
G01 X7.2433 Y8.6910
G01 X7.2723 Y8.6940
G01 X7.2901 Y8.6966
G01 X7.3018 Y8.6991
G01 X7.3051 Y8.7003
G01 X7.3119 Y8.7041
G01 X7.3163 Y8.7057
G01 X7.3274 Y8.7092
G01 X7.3410 Y8.7124
G01 X7.3635 Y8.7163
G01 X7.4100 Y8.7227
G01 X7.4098 Y8.7015
G01 X7.4083 Y8.6945
G01 X7.4037 Y8.6831
G01 X7.3994 Y8.6758
G01 X7.3971 Y8.6725
G01 X7.3875 Y8.6614
G01 X7.3774 Y8.6483
G01 X7.3709 Y8.6390
G01 X7.3616 Y8.6244
G01 X7.3558 Y8.6143
G01 X7.3475 Y8.5985
G01 X7.3398 Y8.5822
G01 X7.3327 Y8.5655
G01 X7.3224 Y8.5370
G01 X7.3139 Y8.5080
G01 X7.3074 Y8.4793
G01 X7.3029 Y8.4512
G01 X7.3013 Y8.4349
G01 X7.3004 Y8.4192
G01 X7.3004 Y8.4041
G01 X7.3008 Y8.3944
G01 X7.3022 Y8.3807
G01 X7.3045 Y8.3680
G01 X7.3076 Y8.3563
G01 X7.3102 Y8.3492
G01 X7.3149 Y8.3396
G01 X7.3186 Y8.3339
G01 X7.3248 Y8.3267
G01 X7.3296 Y8.3227
G01 X7.3400 Y8.3164
G01 X7.3473 Y8.3131
G01 X7.3543 Y8.3112
G01 X7.3611 Y8.3108
G01 X7.3678 Y8.3123
G01 X7.3723 Y8.3143
G01 X7.3793 Y8.3190
G01 X7.3842 Y8.3234
G01 X7.3893 Y8.3288
G01 X7.3975 Y8.3389
G01 X7.4033 Y8.3472
G01 X7.4129 Y8.3618
G01 X7.4272 Y8.3859
G01 X7.4483 Y8.4239
G01 X7.5251 Y8.5684
G01 X7.5562 Y8.6257
G01 X7.5691 Y8.6483
G01 X7.5806 Y8.6674
G01 X7.5909 Y8.6833
G01 X7.6002 Y8.6962
G01 X7.6088 Y8.7064
G01 X7.6170 Y8.7143
G01 X7.6249 Y8.7202
G01 X7.6289 Y8.7225
G01 X7.6349 Y8.7252
G01 X7.6433 Y8.7276
G01 X7.6546 Y8.7291
G01 X7.6673 Y8.7297
G01 X7.6896 Y8.7297
G01 X7.7106 Y8.7283
G01 X7.7218 Y8.7266
G01 X7.7263 Y8.7255
G01 X7.7325 Y8.7230
G01 X7.7352 Y8.7205
G01 X7.7405 Y8.7174
G01 X7.7546 Y8.7119
G01 X7.7741 Y8.7058
G01 X7.8163 Y8.6949
G01 X7.8345 Y8.6896
G01 X7.8571 Y8.6816
G01 X7.8779 Y8.6728
G01 X7.8923 Y8.6655
G01 X7.9057 Y8.6577
G01 X7.9180 Y8.6494
G01 X7.9294 Y8.6406
G01 X7.9397 Y8.6311
G01 X7.9461 Y8.6246
G01 X7.9548 Y8.6142
G01 X7.9625 Y8.6033
G01 X7.9693 Y8.5918
G01 X7.9768 Y8.5756
G01 X7.9826 Y8.5583
G01 X7.9867 Y8.5399
G01 X7.9887 Y8.5254
G01 X7.9898 Y8.5102
G01 X7.9900 Y8.4483
G01 X7.9496 Y8.3924
G01 X7.9370 Y8.3772
G01 X7.9263 Y8.3660
G01 X7.9209 Y8.3616
G01 X7.9189 Y8.3604
G01 X7.9157 Y8.3596
G01 X7.9104 Y8.3566
G01 X7.8983 Y8.3475
G01 X7.8829 Y8.3340
G01 X7.8481 Y8.3006
G01 X7.8249 Y8.2808
G01 X7.8014 Y8.2632
G01 X7.7783 Y8.2482
G01 X7.7651 Y8.2407
G01 X7.7567 Y8.2364
G01 X7.7446 Y8.2311
G01 X7.7372 Y8.2284
G01 X7.7302 Y8.2264
G01 X7.6928 Y8.2185
G01 X7.6742 Y8.2140
G01 X7.6602 Y8.2098
G01 X7.6529 Y8.2069
G01 X7.6467 Y8.2039
G01 X7.6413 Y8.2005
G01 X7.6364 Y8.1966
G01 X7.6182 Y8.1802
G01 X7.6026 Y8.1677
G01 X7.5854 Y8.1550
G01 X7.5671 Y8.1426
G01 X7.5387 Y8.1253
G01 X7.5087 Y8.1091
G01 X7.4938 Y8.1004
G01 X7.4834 Y8.0932
G01 X7.4791 Y8.0891
G01 X7.4752 Y8.0862
G01 X7.4602 Y8.0769
G01 X7.4310 Y8.0605
G01 X7.3710 Y8.0286
G01 X7.3410 Y8.0112
G01 X7.3267 Y8.0015
G01 X7.3214 Y7.9956
G01 X7.3158 Y7.9906
G01 X7.2988 Y7.9776
G01 X7.2767 Y7.9624
G01 X7.2468 Y7.9433
G01 X7.2251 Y7.9305
G01 X7.2086 Y7.9221
G01 X7.2034 Y7.9202
G01 X7.1994 Y7.9198
G01 X7.1933 Y7.9186
G01 X7.1766 Y7.9127
G01 X7.1556 Y7.9035
G01 X7.1325 Y7.8920
G01 X7.1097 Y7.8794
G01 X7.0940 Y7.8699
G01 X7.0806 Y7.8609
G01 X7.0634 Y7.8475
G01 X7.0502 Y7.8402
G01 X7.0421 Y7.8365
G01 X7.0281 Y7.8310
G01 X7.0003 Y7.8218
G01 X6.9743 Y7.8147
G01 X6.9322 Y7.8046
G01 X6.9063 Y7.7977
G01 X6.8784 Y7.7894
G01 X6.8613 Y7.7833
G01 X6.8523 Y7.7794
G01 X6.8485 Y7.7772
G01 X6.8311 Y7.7617
G01 X6.8232 Y7.7556
G01 X6.8152 Y7.7502
G01 X6.8072 Y7.7456
G01 X6.7990 Y7.7417
G01 X6.7861 Y7.7369
G01 X6.7722 Y7.7335
G01 X6.7571 Y7.7313
G01 X6.7405 Y7.7302
G01 X6.7057 Y7.7293
G01 X6.6924 Y7.7282
G01 X6.6764 Y7.7258
G01 X6.6694 Y7.7237
G01 X6.6671 Y7.7226
G01 X6.6637 Y7.7191
G01 X6.6573 Y7.7150
G01 X6.6512 Y7.7119
G01 X6.6396 Y7.7069
G01 X6.6152 Y7.6979
G01 X6.5862 Y7.6886
G01 X6.5488 Y7.6782
G01 X6.5121 Y7.6696
G01 X6.4899 Y7.6655
G01 X6.4528 Y7.6604
G01 X6.4353 Y7.6570
G01 X6.4239 Y7.6537
G01 X6.4168 Y7.6510
G01 X6.4065 Y7.6460
G01 X6.3996 Y7.6419
G01 X6.3853 Y7.6314
G01 X6.3647 Y7.6134
G01 X6.2838 Y7.5353
G01 X6.2168 Y7.4725
G01 X6.1995 Y7.4548
G01 X6.1827 Y7.4362
G01 X6.1665 Y7.4170
G01 X6.1472 Y7.3923
G01 X6.1257 Y7.3620
G01 X6.1063 Y7.3315
G01 X6.0891 Y7.3013
G01 X6.0791 Y7.2816
G01 X6.0724 Y7.2671
G01 X6.0664 Y7.2530
G01 X6.0611 Y7.2394
G01 X6.0567 Y7.2262
G01 X6.0531 Y7.2136
G01 X6.0503 Y7.2015
G01 X6.0484 Y7.1902
G01 X6.0474 Y7.1796
G01 X6.0474 Y7.1699
G01 X6.0490 Y7.1582
G01 X6.0504 Y7.1530
G01 X6.0523 Y7.1483
G01 X6.0547 Y7.1440
G01 X6.0713 Y7.1188
G01 X6.1248 Y7.1250
G01 X6.1754 Y7.2136
G01 X6.1954 Y7.2494
G01 X6.2072 Y7.2715
G01 X6.2108 Y7.2774
G01 X6.2235 Y7.2955
G01 X6.2452 Y7.3244
G01 X6.2718 Y7.3585
G01 X6.3006 Y7.3942
G01 X6.3288 Y7.4282
G01 X6.3503 Y7.4533
G01 X6.3675 Y7.4723
G01 X6.3784 Y7.4828
G01 X6.3937 Y7.4951
G01 X6.4120 Y7.5077
G01 X6.4323 Y7.5203
G01 X6.4594 Y7.5351
G01 X6.4813 Y7.5459
G01 X6.4974 Y7.5530
G01 X6.5177 Y7.5609
G01 X6.5315 Y7.5654
G01 X6.5439 Y7.5685
G01 X6.5511 Y7.5696
G01 X6.5755 Y7.5713
G01 X6.5957 Y7.5744
G01 X6.6160 Y7.5790
G01 X6.6344 Y7.5845
G01 X6.6448 Y7.5883
G01 X6.6528 Y7.5922
G01 X6.6581 Y7.5958
G01 X6.6595 Y7.5976
G01 X6.6605 Y7.6010
G01 X6.6632 Y7.6037
G01 X6.6689 Y7.6065
G01 X6.6779 Y7.6093
G01 X6.6907 Y7.6124
G01 X6.7147 Y7.6171
G01 X6.7957 Y7.6303
G01 X6.8123 Y7.6340
G01 X6.8293 Y7.6389
G01 X6.8462 Y7.6448
G01 X6.8618 Y7.6514
G01 X6.8755 Y7.6584
G01 X6.8926 Y7.6689
G01 X6.9088 Y7.6773
G01 X6.9334 Y7.6885
G01 X6.9667 Y7.7017
G01 X7.0007 Y7.7136
G01 X7.0274 Y7.7217
G01 X7.0417 Y7.7254
G01 X7.0543 Y7.7281
G01 X7.0648 Y7.7297
G01 X7.0729 Y7.7303
G01 X7.0762 Y7.7311
G01 X7.0841 Y7.7341
G01 X7.0934 Y7.7389
G01 X7.1038 Y7.7450
G01 X7.1146 Y7.7522
G01 X7.1396 Y7.7708
G01 X7.1497 Y7.7774
G01 X7.1646 Y7.7861
G01 X7.1739 Y7.7908
G01 X7.1822 Y7.7944
G01 X7.2071 Y7.8023
G01 X7.2287 Y7.8112
G01 X7.2576 Y7.8253
G01 X7.2880 Y7.8421
G01 X7.3080 Y7.8543
G01 X7.3226 Y7.8638
G01 X7.3570 Y7.8883
G01 X7.3802 Y7.9035
G01 X7.4040 Y7.9177
G01 X7.4448 Y7.9389
G01 X7.4796 Y7.9590
G01 X7.5149 Y7.9813
G01 X7.5739 Y8.0213
G01 X7.5974 Y8.0084
G01 X7.6001 Y8.0062
G01 X7.6059 Y7.9999
G01 X7.6149 Y7.9871
G01 X7.6238 Y7.9711
G01 X7.6292 Y7.9593
G01 X7.6459 Y7.9151
G01 X7.6629 Y7.8739
G01 X7.6754 Y7.8456
G01 X7.7024 Y7.7879
G01 X7.6967 Y7.6671
G01 X7.6930 Y7.6146
G01 X7.6893 Y7.5737
G01 X7.6849 Y7.5307
G01 X7.6799 Y7.4868
G01 X7.6737 Y7.4371
G01 X7.6672 Y7.3896
G01 X7.6615 Y7.3513
G01 X7.6552 Y7.3129
G01 X7.6499 Y7.2853
G01 X7.6465 Y7.2697
G01 X7.6439 Y7.2601
G01 X7.6416 Y7.2532
G01 X7.6372 Y7.2434
G01 X7.6331 Y7.2297
G01 X7.6305 Y7.2152
G01 X7.6296 Y7.1981
G01 X7.6275 Y7.1870
G01 X7.6254 Y7.1812
G01 X7.6242 Y7.1789
G01 X7.6229 Y7.1771
G01 X7.6207 Y7.1751
G01 X7.6193 Y7.1724
G01 X7.6176 Y7.1671
G01 X7.6160 Y7.1594
G01 X7.6137 Y7.1437
G01 X7.6113 Y7.1204
G01 X7.6090 Y7.0912
G01 X7.6069 Y7.0562
G01 X7.6034 Y6.9742
G01 X7.6004 Y6.8731
G01 X7.5981 Y6.7540
G01 X7.5966 Y6.6254
G01 X7.5955 Y6.3887
G01 X7.5960 Y5.8081
G01 X7.6300 Y5.7890
G01 X7.6304 Y5.6768
G01 X7.6310 Y5.6435
G01 X7.6335 Y5.5859
G01 X7.6373 Y5.5335
G01 X7.6488 Y5.4358
G01 X7.6544 Y5.3791
G01 X7.6603 Y5.3113
G01 X7.6656 Y5.2678
G01 X7.6702 Y5.2390
G01 X7.6753 Y5.2140
G01 X7.6804 Y5.1946
G01 X7.6863 Y5.1787
G01 X7.6903 Y5.1654
G01 X7.6936 Y5.1503
G01 X7.6971 Y5.1280
G01 X7.6988 Y5.1100
G01 X7.6996 Y5.0977
G01 X7.7004 Y5.0520
G01 X7.7020 Y5.0205
G01 X7.7053 Y4.9835
G01 X7.7096 Y4.9485
G01 X7.7180 Y4.8958
G01 X7.7295 Y4.8363
G01 X7.7428 Y4.7750
G01 X7.7683 Y4.6633
G01 X7.7859 Y4.5781
G01 X7.7956 Y4.5250
G01 X7.8047 Y4.4642
G01 X7.8130 Y4.4169
G01 X7.8216 Y4.3745
G01 X7.8372 Y4.3068
G01 X7.8442 Y4.2719
G01 X7.8481 Y4.2472
G01 X7.8495 Y4.2356
G01 X7.8506 Y4.2190
G01 X7.8524 Y4.2096
G01 X7.8570 Y4.1936
G01 X7.8633 Y4.1769
G01 X7.8684 Y4.1660
G01 X7.8843 Y4.1362
G01 X7.8933 Y4.1158
G01 X7.8990 Y4.1005
G01 X7.9050 Y4.0804
G01 X7.9084 Y4.0657
G01 X7.9100 Y4.0563
G01 X7.9116 Y4.0385
G01 X7.9114 Y4.0263
G01 X7.9086 Y4.0000
G01 X8.0028 Y4.0000
G01 X7.9956 Y4.0587
G01 X7.9929 Y4.0731
G01 X7.9881 Y4.0937
G01 X7.9837 Y4.1093
G01 X7.9789 Y4.1244
G01 X7.9738 Y4.1382
G01 X7.9669 Y4.1548
G01 X7.9620 Y4.1679
G01 X7.9502 Y4.2044
G01 X7.9434 Y4.2280
G01 X7.9352 Y4.2589
G01 X7.9270 Y4.2918
G01 X7.9190 Y4.3260
G01 X7.9114 Y4.3608
G01 X7.9044 Y4.3955
G01 X7.8980 Y4.4294
G01 X7.8925 Y4.4617
G01 X7.8887 Y4.4870
G01 X7.8857 Y4.5103
G01 X7.8815 Y4.5573
G01 X7.8794 Y4.5761
G01 X7.8750 Y4.6048
G01 X7.8703 Y4.6293
G01 X7.8646 Y4.6544
G01 X7.8564 Y4.6855
G01 X7.8485 Y4.7122
G01 X7.8349 Y4.7551
G01 X7.8249 Y4.7901
G01 X7.8162 Y4.8254
G01 X7.8095 Y4.8572
G01 X7.8035 Y4.8904
G01 X7.7975 Y4.9307
G01 X7.7921 Y4.9743
G01 X7.7873 Y5.0219
G01 X7.7846 Y5.0549
G01 X7.7840 Y5.0735
G01 X7.7851 Y5.0869
G01 X7.7868 Y5.0930
G01 X7.7879 Y5.0952
G01 X7.7892 Y5.0967
G01 X7.7907 Y5.0978
G01 X7.7924 Y5.0982
G01 X7.7942 Y5.0981
G01 X7.7963 Y5.0973
G01 X7.8010 Y5.0942
G01 X7.8036 Y5.0917
G01 X7.8094 Y5.0850
G01 X7.8160 Y5.0761
G01 X7.8273 Y5.0583
G01 X7.8358 Y5.0435
G01 X7.8585 Y5.0018
G01 X7.8677 Y4.9866
G01 X7.8773 Y4.9724
G01 X7.8865 Y4.9601
G01 X7.8946 Y4.9506
G01 X7.9189 Y4.9276
G01 X7.9490 Y4.9353
G01 X7.9571 Y4.9387
G01 X7.9638 Y4.9431
G01 X7.9689 Y4.9486
G01 X7.9709 Y4.9517
G01 X7.9737 Y4.9587
G01 X7.9750 Y4.9669
G01 X7.9748 Y4.9761
G01 X7.9731 Y4.9865
G01 X7.9698 Y4.9981
G01 X7.9651 Y5.0108
G01 X7.9588 Y5.0248
G01 X7.9471 Y5.0471
G01 X7.8903 Y5.1507
G01 X7.8693 Y5.1899
G01 X7.8522 Y5.2242
G01 X7.8405 Y5.2509
G01 X7.8352 Y5.2650
G01 X7.8310 Y5.2783
G01 X7.8279 Y5.2911
G01 X7.8262 Y5.3003
G01 X7.8250 Y5.3123
G01 X7.8249 Y5.3210
G01 X7.8257 Y5.3325
G01 X7.8270 Y5.3411
G01 X7.8290 Y5.3496
G01 X7.8327 Y5.3611
G01 X7.8377 Y5.3727
G01 X7.8438 Y5.3845
G01 X7.8492 Y5.3937
G01 X7.8576 Y5.4063
G01 X7.8672 Y5.4195
G01 X7.8781 Y5.4334
G01 X7.9004 Y5.4596
G01 X7.9268 Y5.4888
G01 X8.0377 Y5.6069
G01 X8.1627 Y5.7411
G01 X8.2137 Y5.7966
G01 X8.2498 Y5.8377
G01 X8.2631 Y5.8537
G01 X8.2770 Y5.8712
G01 X8.3008 Y5.9038
G01 X8.3505 Y5.9773
G01 X8.3648 Y5.9994
G01 X8.3785 Y6.0216
G01 X8.3949 Y6.0496
G01 X8.4133 Y6.0834
G01 X8.4277 Y6.1117
G01 X8.4437 Y6.1456
G01 X8.4560 Y6.1738
G01 X8.4696 Y6.2075
G01 X8.4798 Y6.2352
G01 X8.4907 Y6.2682
G01 X8.4987 Y6.2952
G01 X8.5070 Y6.3270
G01 X8.5138 Y6.3581
G01 X8.5190 Y6.3882
G01 X8.5228 Y6.4174
G01 X8.5249 Y6.4453
G01 X8.5255 Y6.4721
G01 X8.5247 Y6.4933
G01 X8.5228 Y6.5134
G01 X8.5205 Y6.5288
G01 X8.5174 Y6.5434
G01 X8.5135 Y6.5572
G01 X8.5077 Y6.5733
G01 X8.5021 Y6.5852
G01 X8.4958 Y6.5963
G01 X8.4886 Y6.6064
G01 X8.4807 Y6.6155
G01 X8.4678 Y6.6279
G01 X8.4536 Y6.6400
G01 X8.4387 Y6.6515
G01 X8.4229 Y6.6624
G01 X8.4093 Y6.6707
G01 X8.3913 Y6.6807
G01 X8.3758 Y6.6884
G01 X8.3550 Y6.6977
G01 X8.3324 Y6.7068
G01 X8.3079 Y6.7157
G01 X8.2757 Y6.7262
G01 X8.2523 Y6.7332
G01 X8.2209 Y6.7420
G01 X8.1869 Y6.7510
G01 X8.1251 Y6.7664
G01 X8.0655 Y6.7832
G01 X8.0159 Y6.7987
G01 X7.9626 Y6.8175
G01 X7.9287 Y6.8288
G01 X7.8983 Y6.8384
G01 X7.8765 Y6.8447
G01 X7.8569 Y6.8498
G01 X7.8395 Y6.8537
G01 X7.8243 Y6.8565
G01 X7.8112 Y6.8582
G01 X7.8027 Y6.8586
G01 X7.7955 Y6.8584
G01 X7.7654 Y6.8550
G01 X7.7460 Y6.7997
G01 X7.7622 Y6.7835
G01 X7.7667 Y6.7795
G01 X7.7770 Y6.7727
G01 X7.7878 Y6.7669
G01 X7.8083 Y6.7577
G01 X7.8342 Y6.7478
G01 X7.8600 Y6.7389
G01 X7.8962 Y6.7276
G01 X7.9459 Y6.7133
G01 X8.0319 Y6.6902
G01 X8.0808 Y6.6767
G01 X8.1397 Y6.6596
G01 X8.2047 Y6.6396
G01 X8.2324 Y6.6321
G01 X8.2486 Y6.6290
G01 X8.2611 Y6.6247
G01 X8.2847 Y6.6148
G01 X8.3187 Y6.5987
G01 X8.3380 Y6.5902
G01 X8.3583 Y6.5824
G01 X8.3647 Y6.5806
G01 X8.3689 Y6.5799
G01 X8.3745 Y6.5772
G01 X8.3777 Y6.5750
G01 X8.3848 Y6.5692
G01 X8.3921 Y6.5620
G01 X8.3993 Y6.5537
G01 X8.4200 Y6.5273
G01 X8.4196 Y6.4314
G01 X8.4181 Y6.3936
G01 X8.4157 Y6.3665
G01 X8.4129 Y6.3445
G01 X8.4092 Y6.3229
G01 X8.4045 Y6.3016
G01 X8.3977 Y6.2761
G01 X8.3909 Y6.2550
G01 X8.3830 Y6.2337
G01 X8.3741 Y6.2121
G01 X8.3639 Y6.1902
G01 X8.3501 Y6.1632
G01 X8.3372 Y6.1400
G01 X8.3199 Y6.1110
G01 X8.3007 Y6.0808
G01 X8.2756 Y6.0435
G01 X8.1862 Y5.9168
G01 X8.1684 Y5.8939
G01 X8.1420 Y5.8628
G01 X8.1093 Y5.8258
G01 X8.0767 Y5.7902
G01 X7.9807 Y5.6890
G01 X7.9178 Y5.6205
G01 X7.8902 Y5.5893
G01 X7.8695 Y5.5654
G01 X7.8531 Y5.5456
G01 X7.8256 Y5.5110
G01 X7.8119 Y5.4954
G01 X7.8039 Y5.4874
G01 X7.7967 Y5.4814
G01 X7.7901 Y5.4773
G01 X7.7870 Y5.4759
G01 X7.7812 Y5.4747
G01 X7.7784 Y5.4747
G01 X7.7757 Y5.4753
G01 X7.7705 Y5.4779
G01 X7.7654 Y5.4823
G01 X7.7603 Y5.4886
G01 X7.7552 Y5.4969
G01 X7.7498 Y5.5070
G01 X7.7410 Y5.5256
G01 X7.7108 Y5.5950
G01 X7.7050 Y5.8308
G01 X7.6765 Y5.8483
G01 X7.6668 Y6.1246
G01 X7.6652 Y6.2012
G01 X7.6649 Y6.2684
G01 X7.6658 Y6.3377
G01 X7.6680 Y6.4037
G01 X7.6712 Y6.4618
G01 X7.6760 Y6.5220
G01 X7.6816 Y6.5752
G01 X7.6883 Y6.6265
G01 X7.6941 Y6.6637
G01 X7.7104 Y6.7587
G01 X7.7003 Y6.8037
G01 X7.6985 Y6.8142
G01 X7.6961 Y6.8406
G01 X7.6946 Y6.8755
G01 X7.6942 Y6.9163
G01 X7.6948 Y6.9608
G01 X7.7010 Y7.1250
G01 X7.7282 Y7.2301
G01 X7.7344 Y7.2578
G01 X7.7400 Y7.2860
G01 X7.7453 Y7.3185
G01 X7.7484 Y7.3428
G01 X7.7498 Y7.3593
G01 X7.7511 Y7.3929
G01 X7.7545 Y7.4249
G01 X7.7597 Y7.4568
G01 X7.7628 Y7.4713
G01 X7.7670 Y7.4882
G01 X7.7694 Y7.5005
G01 X7.7735 Y7.5301
G01 X7.7755 Y7.5522
G01 X7.7772 Y7.5772
G01 X7.7793 Y7.6364
G01 X7.7799 Y7.6934
G01 X7.7800 Y7.8673
G01 X7.7571 Y7.8966
G01 X7.7516 Y7.9052
G01 X7.7439 Y7.9200
G01 X7.7395 Y7.9303
G01 X7.7360 Y7.9403
G01 X7.7312 Y7.9594
G01 X7.7267 Y7.9729
G01 X7.7218 Y7.9825
G01 X7.7160 Y7.9887
G01 X7.7147 Y7.9909
G01 X7.7126 Y7.9964
G01 X7.7104 Y8.0068
G01 X7.7098 Y8.0183
G01 X7.7092 Y8.0223
G01 X7.7083 Y8.0264
G01 X7.7056 Y8.0344
G01 X7.7019 Y8.0417
G01 X7.6997 Y8.0449
G01 X7.6974 Y8.0477
G01 X7.6914 Y8.0534
G01 X7.6884 Y8.0570
G01 X7.6859 Y8.0609
G01 X7.6840 Y8.0650
G01 X7.6826 Y8.0693
G01 X7.6818 Y8.0737
G01 X7.6815 Y8.0828
G01 X7.6821 Y8.0874
G01 X7.6846 Y8.0966
G01 X7.6864 Y8.1011
G01 X7.6913 Y8.1099
G01 X7.6975 Y8.1180
G01 X7.7011 Y8.1217
G01 X7.7092 Y8.1284
G01 X7.7137 Y8.1313
G01 X7.7233 Y8.1360
G01 X7.7284 Y8.1377
G01 X7.7337 Y8.1389
G01 X7.7392 Y8.1397
G01 X7.7474 Y8.1401
G01 X7.7533 Y8.1410
G01 X7.7643 Y8.1438
G01 X7.7773 Y8.1483
G01 X7.7919 Y8.1542
G01 X7.8078 Y8.1612
G01 X7.8244 Y8.1692
G01 X7.8471 Y8.1809
G01 X7.8638 Y8.1902
G01 X7.8798 Y8.1997
G01 X7.9038 Y8.2153
G01 X7.9194 Y8.2270
G01 X7.9432 Y8.2489
G01 X7.9582 Y8.2612
G01 X7.9715 Y8.2704
G01 X7.9786 Y8.2743
G01 X7.9845 Y8.2767
G01 X7.9906 Y8.2808
G01 X7.9963 Y8.2865
G01 X8.0011 Y8.2935
G01 X8.0047 Y8.3010
G01 X8.0084 Y8.3127
G01 X8.0101 Y8.3164
G01 X8.0141 Y8.3232
G01 X8.0185 Y8.3287
G01 X8.0208 Y8.3309
G01 X8.0231 Y8.3326
G01 X8.0275 Y8.3349
G01 X8.0324 Y8.3395
G01 X8.0382 Y8.3468
G01 X8.0478 Y8.3617
G01 X8.0575 Y8.3797
G01 X8.0820 Y8.4333
G01 X8.0763 Y8.5106
G01 X8.0735 Y8.5356
G01 X8.0706 Y8.5538
G01 X8.0670 Y8.5714
G01 X8.0627 Y8.5886
G01 X8.0561 Y8.6105
G01 X8.0504 Y8.6263
G01 X8.0420 Y8.6463
G01 X8.0349 Y8.6605
G01 X8.0247 Y8.6785
G01 X8.0165 Y8.6911
G01 X8.0047 Y8.7068
G01 X7.9920 Y8.7212
G01 X7.9820 Y8.7310
G01 X7.9716 Y8.7400
G01 X7.9644 Y8.7455
G01 X7.9495 Y8.7554
G01 X7.9379 Y8.7618
G01 X7.9299 Y8.7655
G01 X7.9136 Y8.7718
G01 X7.9009 Y8.7753
G01 X7.8880 Y8.7779
G01 X7.8747 Y8.7795
G01 X7.8579 Y8.7801
G01 X7.8483 Y8.7817
G01 X7.8404 Y8.7848
G01 X7.8368 Y8.7875
G01 X7.8348 Y8.7900
G01 X7.8320 Y8.7923
G01 X7.8251 Y8.7956
G01 X7.8152 Y8.7989
G01 X7.7972 Y8.8033
G01 X7.7739 Y8.8075
G01 X7.7531 Y8.8106
G01 X7.6888 Y8.8184
G01 X7.6690 Y8.8225
G01 X7.6527 Y8.8276
G01 X7.6448 Y8.8313
G01 X7.6420 Y8.8331
G01 X7.6401 Y8.8349
G01 X7.6291 Y8.8481
G01 X7.7298 Y8.9548
G01 X7.7218 Y8.9808
G01 X7.7197 Y8.9863
G01 X7.7152 Y8.9960
G01 X7.7127 Y9.0003
G01 X7.7074 Y9.0075
G01 X7.7046 Y9.0106
G01 X7.6985 Y9.0154
G01 X7.6920 Y9.0186
G01 X7.6850 Y9.0201
G01 X7.6776 Y9.0200
G01 X7.6737 Y9.0193
G01 X7.6656 Y9.0168
G01 X7.6571 Y9.0126
G01 X7.6482 Y9.0067
G01 X7.6389 Y8.9992
G01 X7.6293 Y8.9901
G01 X7.6141 Y8.9733
G01 X7.5817 Y8.9340
G01 X7.5563 Y8.9018
G01 X7.5379 Y8.8765
G01 X7.5293 Y8.8633
G01 X7.5226 Y8.8508
G01 X7.5204 Y8.8438
G01 X7.5193 Y8.8335
G01 X7.5183 Y8.8302
G01 X7.5175 Y8.8293
G01 X7.3921 Y8.8137
G01 X7.3420 Y8.8064
G01 X7.2886 Y8.7977
G01 X7.2433 Y8.7917
G01 X7.1705 Y8.7838
G01 X7.0368 Y8.7720
G01 X6.9465 Y8.7627
G01 X6.8967 Y8.7568
G01 X6.8566 Y8.7514
G01 X6.8213 Y8.7461
G01 X6.7803 Y8.7390
G01 X6.7477 Y8.7344
G01 X6.6972 Y8.7287
G01 X6.6351 Y8.7232
G01 X6.6045 Y8.7198
G01 X6.5794 Y8.7160
G01 X6.5654 Y8.7131
G01 X6.5566 Y8.7104
G01 X6.5551 Y8.7095
G01 X6.5527 Y8.7073
G01 X6.5502 Y8.7060
G01 X6.5468 Y8.7047
G01 X6.5375 Y8.7026
G01 X6.5189 Y8.7004
G01 X6.4947 Y8.6996
G01 X6.4837 Y8.6983
G01 X6.4721 Y8.6963
G01 X6.4602 Y8.6937
G01 X6.4482 Y8.6906
G01 X6.4249 Y8.6831
G01 X6.4143 Y8.6789
G01 X6.4047 Y8.6745
G01 X6.3927 Y8.6679
G01 X6.3868 Y8.6636
G01 X6.3845 Y8.6615
G01 X6.3801 Y8.6551
G01 X6.3761 Y8.6522
G01 X6.3710 Y8.6504
G01 X6.3658 Y8.6498
G01 X6.3569 Y8.6462
G01 X6.3379 Y8.6362
G01 X6.3201 Y8.6255
G01 X6.2414 Y8.5747
G01 X6.1513 Y8.5180
G01 X6.0399 Y8.4462
G01 X5.9750 Y8.4058
G01 X5.9516 Y8.3922
G01 X5.9143 Y8.3733
G01 X5.8750 Y8.3527
G01 X5.7811 Y8.3628
G01 X5.7288 Y8.3690
G01 X5.6760 Y8.3758
G01 X5.6013 Y8.3863
G01 X5.5553 Y8.3922
G01 X5.5250 Y8.3954
G01 X5.5057 Y8.3968
G01 X5.4891 Y8.3974
G01 X5.4750 Y8.3971
G01 X5.4670 Y8.3964
G01 X5.4567 Y8.3946
G01 X5.4510 Y8.3929
G01 X5.4440 Y8.3896
G01 X5.4386 Y8.3853
G01 X5.4347 Y8.3800
G01 X5.4329 Y8.3760
G01 X5.4310 Y8.3690
G01 X5.4303 Y8.3637
G01 X5.4300 Y8.3550
G01 X5.4301 Y8.3530
G01 X5.4313 Y8.3490
G01 X5.4352 Y8.3428
G01 X5.4390 Y8.3386
G01 X5.4439 Y8.3343
G01 X5.4563 Y8.3258
G01 X5.4719 Y8.3173
G01 X5.4902 Y8.3091
G01 X5.5056 Y8.3031
G01 X5.5277 Y8.2957
G01 X5.5513 Y8.2889
G01 X5.5697 Y8.2843
G01 X5.6012 Y8.2778
G01 X5.6266 Y8.2739
G01 X5.6517 Y8.2713
G01 X5.6700 Y8.2703
G01 X5.6849 Y8.2699
G01 X5.6926 Y8.2689
G01 X5.7065 Y8.2658
G01 X5.7163 Y8.2630
G01 X5.7526 Y8.2495
G01 X5.7334 Y8.2285
G01 X5.7222 Y8.2194
G01 X5.7075 Y8.2097
G01 X5.6966 Y8.2033
G01 X5.6672 Y8.1884
G01 X5.6612 Y8.1847
G01 X5.6503 Y8.1769
G01 X5.6417 Y8.1691
G01 X5.6384 Y8.1654
G01 X5.6360 Y8.1618
G01 X5.6319 Y8.1527
G01 X5.6301 Y8.1501
G01 X5.6259 Y8.1455
G01 X5.6210 Y8.1421
G01 X5.6184 Y8.1410
G01 X5.6117 Y8.1398
G01 X5.6043 Y8.1363
G01 X5.5976 Y8.1319
G01 X5.5854 Y8.1226
G01 X5.5713 Y8.1106
G01 X5.5611 Y8.1014
G01 X5.5175 Y8.0588
G01 X5.4907 Y8.0346
G01 X5.4746 Y8.0213
G01 X5.4642 Y8.0135
G01 X5.4583 Y8.0096
G01 X5.4422 Y7.9999
G01 X5.4291 Y7.9904
G01 X5.4111 Y7.9753
G01 X5.3987 Y7.9634
G01 X5.3584 Y7.9209
G01 X5.3072 Y7.8678
G01 X5.2921 Y7.8511
G01 X5.2792 Y7.8352
G01 X5.2690 Y7.8210
G01 X5.2624 Y7.8095
G01 X5.2603 Y7.8039
G01 X5.2595 Y7.7943
G01 X5.2580 Y7.7885
G01 X5.2537 Y7.7791
G01 X5.2482 Y7.7701
G01 X5.2402 Y7.7586
G01 X5.2249 Y7.7382
G01 X5.1728 Y7.6715
G01 X5.1598 Y7.6537
G01 X5.1494 Y7.6384
G01 X5.1443 Y7.6303
G01 X5.1411 Y7.6241
G01 X5.1403 Y7.6220
G01 X5.1387 Y7.6125
G01 X5.1365 Y7.6054
G01 X5.1316 Y7.5925
G01 X5.1249 Y7.5777
G01 X5.1110 Y7.5506
G01 X5.0952 Y7.5235
G01 X5.0855 Y7.5088
G01 X5.0693 Y7.4864
G01 X5.0591 Y7.4712
G01 X5.0464 Y7.4509
G01 X5.0302 Y7.4224
G01 X5.0183 Y7.4049
G01 X5.0077 Y7.3908
G01 X4.9964 Y7.3771
G01 X4.9645 Y7.3418
G01 X4.9539 Y7.3293
G01 X4.9505 Y7.3244
G01 X4.9484 Y7.3189
G01 X4.9420 Y7.3043
G01 X4.9057 Y7.2275
G01 X4.8925 Y7.1972
G01 X4.8864 Y7.1818
G01 X4.8822 Y7.1696
G01 X4.8806 Y7.1637
G01 X4.8791 Y7.1537
G01 X4.8751 Y7.1420
G01 X4.8686 Y7.1289
G01 X4.8605 Y7.1162
G01 X4.8576 Y7.1109
G01 X4.8531 Y7.1011
G01 X4.8468 Y7.0853
G01 X4.8372 Y7.0565
G01 X4.8277 Y7.0230
G01 X4.8190 Y6.9866
G01 X4.8115 Y6.9498
G01 X4.8083 Y6.9385
G01 X4.8040 Y6.9266
G01 X4.7990 Y6.9151
G01 X4.7937 Y6.9048
G01 X4.7897 Y6.8982
G01 X4.7869 Y6.8923
G01 X4.7829 Y6.8809
G01 X4.7791 Y6.8666
G01 X4.7756 Y6.8502
G01 X4.7726 Y6.8322
G01 X4.7702 Y6.8133
G01 X4.7681 Y6.7906
G01 X4.7662 Y6.7751
G01 X4.7637 Y6.7589
G01 X4.7598 Y6.7371
G01 X4.7552 Y6.7159
G01 X4.7501 Y6.6964
G01 X4.7462 Y6.6834
G01 X4.7394 Y6.6645
G01 X4.7351 Y6.6514
G01 X4.7309 Y6.6368
G01 X4.7256 Y6.6160
G01 X4.7209 Y6.5946
G01 X4.7180 Y6.5789
G01 X4.7157 Y6.5640
G01 X4.7124 Y6.5376
G01 X4.7099 Y6.5221
G01 X4.7071 Y6.5090
G01 X4.7042 Y6.4989
G01 X4.7014 Y6.4923
G01 X4.7001 Y6.4906
G01 X4.6974 Y6.4897
G01 X4.6948 Y6.4878
G01 X4.6936 Y6.4862
G01 X4.6917 Y6.4820
G01 X4.6905 Y6.4766
G01 X4.6898 Y6.4670
G01 X4.6887 Y6.4586
G01 X4.6851 Y6.4439
G01 X4.6800 Y6.4292
G01 X4.6661 Y6.3984
G01 X4.6200 Y6.4072
G01 X4.6201 Y6.3257
G01 X4.6214 Y6.2943
G01 X4.6234 Y6.2752
G01 X4.6260 Y6.2617
G01 X4.6281 Y6.2567
G01 X4.6305 Y6.2544
G01 X4.6330 Y6.2510
G01 X4.6348 Y6.2464
G01 X4.6358 Y6.2411
G01 X4.6357 Y6.2325
G01 X4.6331 Y6.2150
G01 X4.5470 Y6.2062
G01 X4.5092 Y6.2010
G01 X4.4897 Y6.1973
G01 X4.4725 Y6.1932
G01 X4.4574 Y6.1884
G01 X4.4485 Y6.1848
G01 X4.4366 Y6.1788
G01 X4.4267 Y6.1720
G01 X4.4209 Y6.1669
G01 X4.4137 Y6.1584
G01 X4.4098 Y6.1521
G01 X4.4050 Y6.1417
G01 X4.4016 Y6.1301
G01 X4.3993 Y6.1170
G01 X4.3982 Y6.1026
G01 X4.3981 Y6.0809
G01 X4.3998 Y6.0495
G01 X4.4023 Y6.0278
G01 X4.4054 Y6.0124
G01 X4.4086 Y6.0016
G01 X4.4144 Y5.9877
G01 X4.4201 Y5.9773
G01 X4.4270 Y5.9666
G01 X4.4384 Y5.9516
G01 X4.4488 Y5.9394
G01 X4.4654 Y5.9212
G01 X4.4970 Y5.8890
G01 X4.5984 Y5.7882
G01 X4.6111 Y5.5374
G01 X4.6197 Y5.3862
G01 X4.6234 Y5.3293
G01 X4.6269 Y5.2835
G01 X4.6302 Y5.2478
G01 X4.6337 Y5.2190
G01 X4.6359 Y5.2057
G01 X4.6385 Y5.1947
G01 X4.6401 Y5.1900
G01 X4.6448 Y5.1799
G01 X4.6485 Y5.1698
G01 X4.6559 Y5.1440
G01 X4.6618 Y5.1182
G01 X4.6682 Y5.0839
G01 X4.6736 Y5.0480
G01 X4.6775 Y5.0126
G01 X4.6795 Y4.9849
G01 X4.6805 Y4.9515
G01 X4.6824 Y4.9310
G01 X4.6881 Y4.8914
G01 X4.6963 Y4.8467
G01 X4.7063 Y4.8001
G01 X4.7175 Y4.7551
G01 X4.7290 Y4.7151
G01 X4.7347 Y4.6980
G01 X4.7400 Y4.6837
G01 X4.7422 Y4.6759
G01 X4.7442 Y4.6665
G01 X4.7467 Y4.6501
G01 X4.7487 Y4.6320
G01 X4.7498 Y4.6134
G01 X4.7507 Y4.5783
G01 X4.7519 Y4.5644
G01 X4.7546 Y4.5471
G01 X4.7568 Y4.5391
G01 X4.7580 Y4.5363
G01 X4.7608 Y4.5323
G01 X4.7624 Y4.5290
G01 X4.7639 Y4.5247
G01 X4.7670 Y4.5136
G01 X4.7707 Y4.4924
G01 X4.7743 Y4.4611
G01 X4.7755 Y4.4538
G01 X4.7786 Y4.4405
G01 X4.7821 Y4.4300
G01 X4.7840 Y4.4261
G01 X4.7859 Y4.4232
G01 X4.7917 Y4.4177
G01 X4.7943 Y4.4138
G01 X4.7984 Y4.4060
G01 X4.8024 Y4.3960
G01 X4.8065 Y4.3841
G01 X4.8117 Y4.3654
G01 X4.8155 Y4.3497
G01 X4.8203 Y4.3266
G01 X4.8267 Y4.2887
G01 X4.8310 Y4.2551
G01 X4.8337 Y4.2276
G01 X4.8375 Y4.1710
G01 X4.8413 Y4.1291
G01 X4.8465 Y4.0852
G01 X4.8493 Y4.0670
G01 X4.8520 Y4.0525
G00 Z2.0000
G00 X4.6054 Y5.9631
G01 F60.00
G01 Z-0.0933
G01 F120.00
G01 X4.6018 Y5.9513
G01 X4.5998 Y5.9471
G01 X4.5976 Y5.9442
G01 X4.5950 Y5.9424
G01 X4.5920 Y5.9418
G01 X4.5884 Y5.9423
G01 X4.5842 Y5.9441
G01 X4.5793 Y5.9470
G01 X4.5735 Y5.9511
G01 X4.5592 Y5.9629
G01 X4.5461 Y5.9753
G01 X4.5378 Y5.9845
G01 X4.5299 Y5.9943
G01 X4.5191 Y6.0095
G01 X4.5127 Y6.0198
G01 X4.5071 Y6.0300
G01 X4.5003 Y6.0448
G01 X4.4958 Y6.0584
G01 X4.4942 Y6.0666
G01 X4.4939 Y6.0703
G01 X4.4943 Y6.0770
G01 X4.5013 Y6.1000
G01 X4.6206 Y6.1000
G01 X4.6265 Y6.0848
G01 X4.6272 Y6.0819
G01 X4.6276 Y6.0784
G01 X4.6273 Y6.0696
G01 X4.6256 Y6.0593
G01 X4.6227 Y6.0483
G01 X4.6129 Y6.0215
G01 X4.6091 Y6.0074
G01 X4.6080 Y6.0002
G01 X4.6079 Y5.9976
G01 X4.6089 Y5.9915
G01 X4.6087 Y5.9822
G01 X4.6071 Y5.9709
G01 X4.6054 Y5.9631
G00 Z2.0000
G00 X5.9056 Y7.9722
G01 F60.00
G01 Z-0.0933
G01 F120.00
G01 X5.8996 Y7.9824
G01 X5.8955 Y7.9926
G01 X5.8933 Y8.0028
G01 X5.8929 Y8.0079
G01 X5.8933 Y8.0179
G01 X5.8952 Y8.0275
G01 X5.8967 Y8.0322
G01 X5.9007 Y8.0411
G01 X5.9032 Y8.0453
G01 X5.9091 Y8.0532
G01 X5.9160 Y8.0603
G01 X5.9198 Y8.0635
G01 X5.9281 Y8.0691
G01 X5.9325 Y8.0715
G01 X5.9419 Y8.0753
G01 X5.9519 Y8.0779
G01 X5.9570 Y8.0786
G01 X5.9676 Y8.0789
G01 X5.9785 Y8.0776
G01 X5.9896 Y8.0746
G01 X6.0007 Y8.0696
G01 X6.0200 Y8.0593
G01 X6.0200 Y7.9500
G01 X5.9211 Y7.9500
G01 X5.9056 Y7.9722
G00 Z2.0000
G00 X7.7700 Y8.5371
G01 F60.00
G01 Z-0.0933
G01 F120.00
G01 X7.7642 Y8.5383
G01 X7.7587 Y8.5400
G01 X7.7490 Y8.5445
G01 X7.7408 Y8.5504
G01 X7.7373 Y8.5538
G01 X7.7313 Y8.5614
G01 X7.7268 Y8.5699
G01 X7.7251 Y8.5744
G01 X7.7227 Y8.5838
G01 X7.7220 Y8.5886
G01 X7.7217 Y8.5985
G01 X7.7220 Y8.6035
G01 X7.7236 Y8.6135
G01 X7.7265 Y8.6232
G01 X7.7284 Y8.6280
G01 X7.7332 Y8.6370
G01 X7.7360 Y8.6413
G01 X7.7425 Y8.6493
G01 X7.7462 Y8.6529
G01 X7.7544 Y8.6592
G01 X7.7637 Y8.6643
G01 X7.7688 Y8.6663
G01 X7.7797 Y8.6690
G01 X7.7916 Y8.6700
G01 X7.7966 Y8.6697
G01 X7.8015 Y8.6689
G01 X7.8063 Y8.6675
G01 X7.8108 Y8.6657
G01 X7.8152 Y8.6634
G01 X7.8233 Y8.6576
G01 X7.8271 Y8.6542
G01 X7.8339 Y8.6463
G01 X7.8370 Y8.6419
G01 X7.8423 Y8.6324
G01 X7.8445 Y8.6273
G01 X7.8481 Y8.6168
G01 X7.8505 Y8.6059
G01 X7.8512 Y8.6004
G01 X7.8516 Y8.5894
G01 X7.8512 Y8.5839
G01 X7.8494 Y8.5733
G01 X7.8460 Y8.5632
G01 X7.8437 Y8.5585
G01 X7.8410 Y8.5539
G01 X7.8379 Y8.5497
G01 X7.8343 Y8.5457
G01 X7.8271 Y8.5390
G01 X7.8205 Y8.5347
G01 X7.8169 Y8.5333
G01 X7.8129 Y8.5325
G01 X7.8030 Y8.5323
G01 X7.7892 Y8.5339
G01 X7.7700 Y8.5371
G00 Z2.0000
M05
G00 Z2.0000
G00 Z15.00


