(G-CODE GENERATED BY FLATCAM v8.994 - www.flatcam.org - Version Date: 2020/11/7)

(Name: Untitled Sketch_copperBottom.gbl_iso_combined_cnc)
(Type: G-code from Geometry)
(Units: MM)

(Created on Wednesday, 01 May 2024 at 13:33)

(This preprocessor is the default preprocessor used by FlatCAM.)
(It is made to work with MACH3 compatible motion controllers.)

(TOOL DIAMETER: 0.1 mm)
(Feedrate_XY: 120.0 mm/min)
(Feedrate_Z: 60.0 mm/min)
(Feedrate rapids 1500.0 mm/min)

(Z_Cut: 0.0 mm)
(Z_Move: 3.000000000000001 mm)
(Z Start: None mm)
(Z End: 15.0 mm)
(X,Y End: None mm)
(Steps per circle: 64)
(Preprocessor Geometry: default)

(X range:    4.4839 ...   29.3870  mm)
(Y range:    2.2868 ...   19.5699  mm)

(Spindle Speed: 0.0 RPM)
G21
G90
G94

G01 F120.00

M5
G00 Z15.0000
G00 X0.0000 Y0.0000
T1
M6    
(MSG, Change to Tool Dia = 0.1000)
M0
G00 Z15.0000

M03
G01 F120.00
G00 X5.1315 Y17.6309
G01 F60.00
G01 Z0.0000
G01 F120.00
G01 X5.1315 Y13.5128
G01 X5.1330 Y13.4805
G01 X5.1388 Y13.4412
G01 X5.1467 Y13.4098
G01 X5.1585 Y13.3770
G01 X5.1734 Y13.3455
G01 X5.1900 Y13.3177
G01 X5.2120 Y13.2876
G01 X5.2354 Y13.2618
G01 X5.2594 Y13.2400
G01 X5.2892 Y13.2177
G01 X5.3191 Y13.1998
G01 X5.3483 Y13.1859
G01 X5.3857 Y13.1725
G01 X5.4172 Y13.1647
G01 X5.4492 Y13.1599
G01 X5.4864 Y13.1579
G01 X22.9369 Y13.1578
G01 X22.9369 Y3.3782
G01 X22.9381 Y3.3486
G01 X22.9389 Y3.3410
G01 X22.9437 Y3.3090
G01 X22.9510 Y3.2789
G01 X22.9615 Y3.2483
G01 X22.9644 Y3.2412
G01 X22.9788 Y3.2109
G01 X22.9938 Y3.1853
G01 X22.9981 Y3.1790
G01 X23.0174 Y3.1530
G01 X23.0372 Y3.1309
G01 X23.0417 Y3.1264
G01 X23.0636 Y3.1063
G01 X23.0893 Y3.0867
G01 X23.0956 Y3.0824
G01 X23.1210 Y3.0670
G01 X23.1560 Y3.0503
G01 X23.1838 Y3.0401
G01 X23.1899 Y3.0382
G01 X23.2187 Y3.0309
G01 X23.2507 Y3.0257
G01 X23.2582 Y3.0249
G01 X23.2866 Y3.0233
G01 X27.3675 Y2.9779
G01 X27.3855 Y2.9281
G01 X27.4281 Y2.8380
G01 X27.4819 Y2.7483
G01 X27.5420 Y2.6673
G01 X27.6089 Y2.5934
G01 X27.6872 Y2.5222
G01 X27.7683 Y2.4622
G01 X27.8537 Y2.4109
G01 X27.9482 Y2.3660
G01 X28.0443 Y2.3316
G01 X28.1410 Y2.3073
G01 X28.2456 Y2.2917
G01 X28.3464 Y2.2868
G01 X28.4459 Y2.2916
G01 X28.5494 Y2.3068
G01 X28.6508 Y2.3324
G01 X28.7446 Y2.3660
G01 X28.8347 Y2.4086
G01 X28.9245 Y2.4622
G01 X29.0084 Y2.5246
G01 X29.0822 Y2.5916
G01 X29.1492 Y2.6654
G01 X29.2123 Y2.7503
G01 X29.2652 Y2.8391
G01 X29.3078 Y2.9292
G01 X29.3414 Y3.0230
G01 X29.3670 Y3.1244
G01 X29.3820 Y3.2254
G01 X29.3870 Y3.3274
G01 X29.3817 Y3.4318
G01 X29.3670 Y3.5304
G01 X29.3428 Y3.6271
G01 X29.3078 Y3.7256
G01 X29.2641 Y3.8179
G01 X29.2102 Y3.9075
G01 X29.1508 Y3.9875
G01 X29.0839 Y4.0614
G01 X29.0065 Y4.1318
G01 X28.9225 Y4.1939
G01 X28.8369 Y4.2451
G01 X28.7469 Y4.2878
G01 X28.6485 Y4.3232
G01 X28.5482 Y4.3482
G01 X28.4484 Y4.3630
G01 X28.3464 Y4.3680
G01 X28.2444 Y4.3630
G01 X28.1458 Y4.3484
G01 X28.0420 Y4.3224
G01 X27.9482 Y4.2888
G01 X27.8548 Y4.2445
G01 X27.7683 Y4.1926
G01 X27.6863 Y4.1318
G01 X27.6106 Y4.0632
G01 X27.5428 Y3.9885
G01 X27.4812 Y3.9055
G01 X27.4293 Y3.8190
G01 X27.3855 Y3.7267
G01 X27.3714 Y3.6878
G01 X23.6467 Y3.7292
G01 X23.6467 Y13.5140
G01 X23.6447 Y13.5500
G01 X23.6399 Y13.5820
G01 X23.6321 Y13.6135
G01 X23.6197 Y13.6486
G01 X23.6048 Y13.6801
G01 X23.5855 Y13.7120
G01 X23.5662 Y13.7380
G01 X23.5445 Y13.7620
G01 X23.5170 Y13.7872
G01 X23.4880 Y13.8086
G01 X23.4591 Y13.8258
G01 X23.4299 Y13.8397
G01 X23.3948 Y13.8525
G01 X23.3610 Y13.8609
G01 X23.3290 Y13.8657
G01 X23.2918 Y13.8677
G01 X5.8413 Y13.8678
G01 X5.8414 Y17.6309
G01 X5.8712 Y17.6417
G01 X5.9600 Y17.6839
G01 X6.0434 Y17.7339
G01 X6.1214 Y17.7917
G01 X6.1970 Y17.8603
G01 X6.2613 Y17.9314
G01 X6.3193 Y18.0094
G01 X6.3716 Y18.0970
G01 X6.4126 Y18.1838
G01 X6.4457 Y18.2764
G01 X6.4701 Y18.3742
G01 X6.4841 Y18.4691
G01 X6.4889 Y18.5674
G01 X6.4838 Y18.6681
G01 X6.4696 Y18.7630
G01 X6.4457 Y18.8584
G01 X6.4116 Y18.9533
G01 X6.3705 Y19.0400
G01 X6.3199 Y19.1244
G01 X6.2613 Y19.2034
G01 X6.1970 Y19.2745
G01 X6.1224 Y19.3423
G01 X6.0434 Y19.4009
G01 X5.9611 Y19.4503
G01 X5.8689 Y19.4940
G01 X5.7774 Y19.5267
G01 X5.6820 Y19.5506
G01 X5.5847 Y19.5651
G01 X5.4864 Y19.5699
G01 X5.3881 Y19.5651
G01 X5.2908 Y19.5506
G01 X5.1954 Y19.5267
G01 X5.1028 Y19.4936
G01 X5.0138 Y19.4515
G01 X4.9294 Y19.4009
G01 X4.8504 Y19.3423
G01 X4.7775 Y19.2763
G01 X4.7115 Y19.2034
G01 X4.6529 Y19.1244
G01 X4.6023 Y19.0400
G01 X4.5598 Y18.9499
G01 X4.5271 Y18.8584
G01 X4.5032 Y18.7630
G01 X4.4887 Y18.6657
G01 X4.4839 Y18.5674
G01 X4.4887 Y18.4691
G01 X4.5032 Y18.3718
G01 X4.5271 Y18.2764
G01 X4.5607 Y18.1826
G01 X4.6023 Y18.0948
G01 X4.6529 Y18.0104
G01 X4.7115 Y17.9314
G01 X4.7784 Y17.8577
G01 X4.8504 Y17.7925
G01 X4.9305 Y17.7332
G01 X5.0149 Y17.6827
G01 X5.1016 Y17.6417
G01 X5.1315 Y17.6309
G00 Z3.0000
G00 X16.5829 Y18.2125
G01 F60.00
G01 Z0.0000
G01 F120.00
G01 X24.9818 Y18.2124
G01 X24.9819 Y17.7637
G01 X24.9830 Y17.7564
G01 X24.9852 Y17.7494
G01 X24.9883 Y17.7428
G01 X24.9924 Y17.7366
G01 X24.9982 Y17.7304
G01 X25.0040 Y17.7258
G01 X25.0104 Y17.7222
G01 X25.0173 Y17.7196
G01 X25.0245 Y17.7179
G01 X25.0318 Y17.7174
G01 X26.6318 Y17.7174
G01 X26.6379 Y17.7178
G01 X26.6475 Y17.7199
G01 X26.6554 Y17.7233
G01 X26.6626 Y17.7280
G01 X26.6688 Y17.7338
G01 X26.6747 Y17.7417
G01 X26.6784 Y17.7494
G01 X26.6808 Y17.7576
G01 X26.6818 Y17.7662
G01 X26.6818 Y19.3674
G01 X26.6814 Y19.3735
G01 X26.6793 Y19.3831
G01 X26.6759 Y19.3910
G01 X26.6712 Y19.3982
G01 X26.6654 Y19.4044
G01 X26.6575 Y19.4103
G01 X26.6498 Y19.4140
G01 X26.6416 Y19.4164
G01 X26.6330 Y19.4174
G01 X25.0318 Y19.4174
G01 X25.0257 Y19.4170
G01 X25.0185 Y19.4156
G01 X25.0104 Y19.4126
G01 X25.0040 Y19.4090
G01 X24.9982 Y19.4044
G01 X24.9932 Y19.3991
G01 X24.9889 Y19.3931
G01 X24.9852 Y19.3854
G01 X24.9830 Y19.3784
G01 X24.9819 Y19.3711
G01 X24.9818 Y18.9223
G01 X16.5829 Y18.9224
G01 X16.5721 Y18.9522
G01 X16.5299 Y19.0410
G01 X16.4799 Y19.1244
G01 X16.4221 Y19.2024
G01 X16.3535 Y19.2780
G01 X16.2824 Y19.3423
G01 X16.2044 Y19.4003
G01 X16.1168 Y19.4526
G01 X16.0300 Y19.4936
G01 X15.9374 Y19.5267
G01 X15.8420 Y19.5506
G01 X15.7471 Y19.5648
G01 X15.6452 Y19.5699
G01 X15.5481 Y19.5651
G01 X15.4532 Y19.5511
G01 X15.3554 Y19.5267
G01 X15.2605 Y19.4926
G01 X15.1738 Y19.4515
G01 X15.0894 Y19.4009
G01 X15.0086 Y19.3407
G01 X14.9375 Y19.2763
G01 X14.8715 Y19.2034
G01 X14.8129 Y19.1244
G01 X14.7635 Y19.0421
G01 X14.7198 Y18.9499
G01 X14.6871 Y18.8584
G01 X14.6632 Y18.7630
G01 X14.6487 Y18.6657
G01 X14.6439 Y18.5674
G01 X14.6487 Y18.4691
G01 X14.6632 Y18.3718
G01 X14.6871 Y18.2764
G01 X14.7202 Y18.1838
G01 X14.7623 Y18.0948
G01 X14.8129 Y18.0104
G01 X14.8715 Y17.9314
G01 X14.9375 Y17.8585
G01 X15.0104 Y17.7925
G01 X15.0894 Y17.7339
G01 X15.1738 Y17.6833
G01 X15.2639 Y17.6408
G01 X15.3554 Y17.6081
G01 X15.4508 Y17.5842
G01 X15.5481 Y17.5697
G01 X15.6464 Y17.5649
G01 X15.7447 Y17.5697
G01 X15.8420 Y17.5842
G01 X15.9374 Y17.6081
G01 X16.0312 Y17.6417
G01 X16.1190 Y17.6833
G01 X16.2034 Y17.7339
G01 X16.2824 Y17.7925
G01 X16.3561 Y17.8594
G01 X16.4213 Y17.9314
G01 X16.4806 Y18.0115
G01 X16.5311 Y18.0959
G01 X16.5721 Y18.1826
G01 X16.5829 Y18.2125
G00 Z3.0000
G00 X27.3558 Y4.8268
G01 F60.00
G01 Z0.0000
G01 F120.00
G01 X29.3382 Y4.8268
G01 X29.3480 Y4.8280
G01 X29.3561 Y4.8306
G01 X29.3648 Y4.8352
G01 X29.3715 Y4.8406
G01 X29.3772 Y4.8470
G01 X29.3822 Y4.8554
G01 X29.3852 Y4.8635
G01 X29.3869 Y4.8731
G01 X29.3870 Y6.8580
G01 X29.3865 Y6.8653
G01 X29.3845 Y6.8737
G01 X29.3817 Y6.8805
G01 X29.3779 Y6.8868
G01 X29.3732 Y6.8925
G01 X29.3678 Y6.8974
G01 X29.3616 Y6.9015
G01 X29.3538 Y6.9051
G01 X29.3468 Y6.9070
G01 X29.3395 Y6.9079
G01 X28.7013 Y6.9080
G01 X28.7014 Y17.7961
G01 X28.7482 Y17.8184
G01 X28.8196 Y17.8613
G01 X28.8856 Y17.9103
G01 X28.9466 Y17.9655
G01 X29.0050 Y18.0301
G01 X29.0531 Y18.0952
G01 X29.0954 Y18.1656
G01 X29.1326 Y18.2444
G01 X29.1598 Y18.3207
G01 X29.1801 Y18.4016
G01 X29.1925 Y18.4865
G01 X29.1964 Y18.5674
G01 X29.1924 Y18.6495
G01 X29.1801 Y18.7332
G01 X29.1604 Y18.8118
G01 X29.1307 Y18.8949
G01 X29.0960 Y18.9681
G01 X29.0531 Y19.0396
G01 X29.0035 Y19.1066
G01 X28.9474 Y19.1684
G01 X28.8856 Y19.2245
G01 X28.8186 Y19.2741
G01 X28.7471 Y19.3170
G01 X28.6739 Y19.3517
G01 X28.5908 Y19.3814
G01 X28.5122 Y19.4011
G01 X28.4285 Y19.4134
G01 X28.3464 Y19.4174
G01 X28.2631 Y19.4133
G01 X28.1806 Y19.4011
G01 X28.0997 Y19.3808
G01 X28.0211 Y19.3527
G01 X27.9457 Y19.3170
G01 X27.8742 Y19.2741
G01 X27.8072 Y19.2245
G01 X27.7454 Y19.1684
G01 X27.6893 Y19.1066
G01 X27.6397 Y19.0396
G01 X27.5968 Y18.9681
G01 X27.5611 Y18.8927
G01 X27.5330 Y18.8141
G01 X27.5127 Y18.7332
G01 X27.5004 Y18.6495
G01 X27.4964 Y18.5674
G01 X27.5003 Y18.4865
G01 X27.5127 Y18.4016
G01 X27.5330 Y18.3207
G01 X27.5602 Y18.2444
G01 X27.5974 Y18.1656
G01 X27.6397 Y18.0952
G01 X27.6878 Y18.0301
G01 X27.7462 Y17.9655
G01 X27.8072 Y17.9103
G01 X27.8732 Y17.8613
G01 X27.9446 Y17.8184
G01 X27.9915 Y17.7961
G01 X27.9914 Y6.9080
G01 X27.3533 Y6.9079
G01 X27.3460 Y6.9070
G01 X27.3390 Y6.9051
G01 X27.3312 Y6.9015
G01 X27.3250 Y6.8974
G01 X27.3196 Y6.8925
G01 X27.3149 Y6.8868
G01 X27.3111 Y6.8805
G01 X27.3080 Y6.8725
G01 X27.3063 Y6.8653
G01 X27.3058 Y6.8580
G01 X27.3058 Y4.8756
G01 X27.3070 Y4.8658
G01 X27.3101 Y4.8565
G01 X27.3149 Y4.8480
G01 X27.3213 Y4.8406
G01 X27.3291 Y4.8346
G01 X27.3378 Y4.8302
G01 X27.3473 Y4.8275
G01 X27.3558 Y4.8268
G00 Z3.0000
M05
G00 Z3.0000
G00 Z15.00


