%
(Header)
(Generated by gcodetools from Inkscape.)
(Using default header. To add your own header create file "header" in the output dir.)
M3
(Header end.)
G21 (All units in mm)

(Start cutting path id: path220320)
(Change tool to Default tool)

G00 Z5.000000
G00 X15.165560 Y0.518060

G01 Z-0.125000 F100.0(Penetrate)
G01 X14.775740 Y1.034900 Z-0.125000 F400.000000
G01 X14.666250 Y1.527660 Z-0.125000
G01 X14.556760 Y2.020420 Z-0.125000
G01 X14.417710 Y2.355120 Z-0.125000
G01 X14.278650 Y2.689830 Z-0.125000
G01 X14.175340 Y3.199820 Z-0.125000
G01 X14.072020 Y3.709810 Z-0.125000
G01 X14.072020 Y4.053390 Z-0.125000
G01 X14.072020 Y4.396970 Z-0.125000
G01 X13.968040 Y5.011390 Z-0.125000
G01 X13.864060 Y5.625810 Z-0.125000
G01 X13.754680 Y5.767910 Z-0.125000
G01 X13.645300 Y5.910010 Z-0.125000
G01 X13.503060 Y6.118190 Z-0.125000
G01 X13.360820 Y6.326360 Z-0.125000
G01 X13.251460 Y6.484790 Z-0.125000
G01 X13.142110 Y6.643240 Z-0.125000
G01 X13.113410 Y6.903380 Z-0.125000
G01 X13.084710 Y7.163520 Z-0.125000
G01 X13.256670 Y7.136020 Z-0.125000
G01 X13.428630 Y7.108520 Z-0.125000
G01 X13.400030 Y7.241630 Z-0.125000
G01 X13.371430 Y7.374740 Z-0.125000
G01 X13.126280 Y7.830920 Z-0.125000
G01 X12.881120 Y8.287100 Z-0.125000
G01 X12.662100 Y8.496140 Z-0.125000
G01 X12.443070 Y8.705180 Z-0.125000
G01 X12.368470 Y8.852760 Z-0.125000
G01 X12.293870 Y9.000350 Z-0.125000
G01 X12.244270 Y9.487050 Z-0.125000
G01 X12.194670 Y9.973750 Z-0.125000
G01 X12.121470 Y10.117280 Z-0.125000
G01 X12.048270 Y10.260810 Z-0.125000
G01 X12.034370 Y10.366610 Z-0.125000
G01 X12.020470 Y10.472410 Z-0.125000
G01 X12.078970 Y10.549210 Z-0.125000
G01 X12.137470 Y10.626010 Z-0.125000
G01 X12.080470 Y10.575210 Z-0.125000
G01 X12.023470 Y10.524410 Z-0.125000
G01 X11.936470 Y10.524410 Z-0.125000
G01 X11.849470 Y10.524410 Z-0.125000
G01 X11.799170 Y10.697130 Z-0.125000
G01 X11.748870 Y10.869850 Z-0.125000
G01 X11.607040 Y10.991770 Z-0.125000
G01 X11.465210 Y11.113690 Z-0.125000
G01 X11.627130 Y11.438810 Z-0.125000
G01 X11.789050 Y11.763930 Z-0.125000
G01 X11.910480 Y12.129690 Z-0.125000
G01 X12.031900 Y12.495450 Z-0.125000
G01 X12.063500 Y12.800250 Z-0.125000
G01 X12.095100 Y13.105050 Z-0.125000
G01 X12.086100 Y13.425530 Z-0.125000
G01 X12.077100 Y13.746000 Z-0.125000
G01 X11.977600 Y13.876410 Z-0.125000
G01 X11.878100 Y14.006810 Z-0.125000
G01 X11.878100 Y14.069110 Z-0.125000
G01 X11.878100 Y14.131410 Z-0.125000
G01 X12.071190 Y14.214510 Z-0.125000
G01 X12.264280 Y14.297610 Z-0.125000
G01 X12.362780 Y14.402430 Z-0.125000
G01 X12.461280 Y14.507250 Z-0.125000
G01 X12.525280 Y14.506250 Z-0.125000
G01 X12.589280 Y14.505250 Z-0.125000
G01 X12.652380 Y14.455750 Z-0.125000
G01 X12.715480 Y14.406250 Z-0.125000
G01 X12.854810 Y14.203050 Z-0.125000
G01 X12.994140 Y13.999850 Z-0.125000
G01 X13.129020 Y13.756010 Z-0.125000
G01 X13.263890 Y13.512170 Z-0.125000
G01 X13.238190 Y13.654410 Z-0.125000
G01 X13.212490 Y13.796650 Z-0.125000
G01 X13.134490 Y14.011530 Z-0.125000
G01 X13.056490 Y14.226420 Z-0.125000
G01 X13.056490 Y14.305720 Z-0.125000
G01 X13.056490 Y14.385020 Z-0.125000
G01 X13.158090 Y14.377020 Z-0.125000
G01 X13.259690 Y14.369020 Z-0.125000
G01 X13.310490 Y14.320520 Z-0.125000
G01 X13.442830 Y14.234820 Z-0.125000
G01 X13.610330 Y14.133990 Z-0.125000
G01 X13.720640 Y13.959630 Z-0.125000
G01 X13.830950 Y13.785280 Z-0.125000
G01 X13.908850 Y13.805680 Z-0.125000
G01 X13.986750 Y13.826080 Z-0.125000
G01 X14.229800 Y13.639060 Z-0.125000
G01 X14.472840 Y13.452040 Z-0.125000
G01 X14.596280 Y13.452040 Z-0.125000
G01 X14.719720 Y13.452040 Z-0.125000
G01 X14.764120 Y13.279320 Z-0.125000
G01 X14.808520 Y13.106600 Z-0.125000
G01 X14.871620 Y12.883080 Z-0.125000
G01 X14.934820 Y12.659560 Z-0.125000
G01 X15.014820 Y12.354760 Z-0.125000
G01 X15.094820 Y12.049960 Z-0.125000
G01 X15.196540 Y11.847170 Z-0.125000
G01 X15.298260 Y11.644370 Z-0.125000
G01 X15.345860 Y11.614070 Z-0.125000
G01 X15.393460 Y11.583770 Z-0.125000
G01 X16.023380 Y11.583690 Z-0.125000
G01 X16.653300 Y11.583610 Z-0.125000
G01 X16.749600 Y11.609410 Z-0.125000
G01 X16.845900 Y11.635210 Z-0.125000
G01 X16.940900 Y11.850100 Z-0.125000
G01 X17.035900 Y12.065010 Z-0.125000
G01 X17.162230 Y12.545130 Z-0.125000
G01 X17.288560 Y13.025240 Z-0.125000
G01 X17.349660 Y13.238610 Z-0.125000
G01 X17.410760 Y13.451970 Z-0.125000
G01 X17.540240 Y13.451970 Z-0.125000
G01 X17.669730 Y13.451970 Z-0.125000
G01 X17.892960 Y13.636660 Z-0.125000
G01 X18.116190 Y13.821360 Z-0.125000
G01 X18.201390 Y13.806060 Z-0.125000
G01 X18.286590 Y13.790760 Z-0.125000
G01 X18.380690 Y13.928050 Z-0.125000
G01 X18.474790 Y14.065340 Z-0.125000
G01 X18.600170 Y14.154940 Z-0.125000
G01 X18.725550 Y14.244540 Z-0.125000
G01 X18.857660 Y14.315640 Z-0.125000
G01 X18.989760 Y14.386740 Z-0.125000
G01 X19.030560 Y14.386740 Z-0.125000
G01 X19.071360 Y14.386740 Z-0.125000
G01 X19.070760 Y14.315640 Z-0.125000
G01 X19.070150 Y14.244540 Z-0.125000
G01 X18.969070 Y13.928030 Z-0.125000
G01 X18.867990 Y13.611520 Z-0.125000
G01 X18.869990 Y13.562320 Z-0.125000
G01 X18.871990 Y13.513020 Z-0.125000
G01 X19.009930 Y13.777180 Z-0.125000
G01 X19.147870 Y14.041350 Z-0.125000
G01 X19.302570 Y14.240850 Z-0.125000
G01 X19.457270 Y14.440350 Z-0.125000
G01 X19.524670 Y14.482150 Z-0.125000
G01 X19.592070 Y14.523950 Z-0.125000
G01 X19.748150 Y14.404630 Z-0.125000
G01 X19.904240 Y14.285310 Z-0.125000
G01 X20.097270 Y14.195710 Z-0.125000
G01 X20.290310 Y14.106110 Z-0.125000
G01 X20.290310 Y14.081510 Z-0.125000
G01 X20.290310 Y14.056910 Z-0.125000
G01 X20.167370 Y13.903910 Z-0.125000
G01 X20.044420 Y13.750920 Z-0.125000
G01 X20.042420 Y13.347490 Z-0.125000
G01 X20.040420 Y12.944070 Z-0.125000
G01 X20.084020 Y12.659590 Z-0.125000
G01 X20.127620 Y12.375110 Z-0.125000
G01 X20.231040 Y12.070310 Z-0.125000
G01 X20.334450 Y11.765510 Z-0.125000
G01 X20.475420 Y11.495410 Z-0.125000
G01 X20.616380 Y11.225300 Z-0.125000
G01 X20.616380 Y11.141000 Z-0.125000
G01 X20.616380 Y11.056700 Z-0.125000
G01 X20.499730 Y10.970500 Z-0.125000
G01 X20.383080 Y10.884200 Z-0.125000
G01 X20.330080 Y10.715230 Z-0.125000
G01 X20.277080 Y10.546260 Z-0.125000
G01 X20.245580 Y10.509760 Z-0.125000
G01 X20.214080 Y10.473260 Z-0.125000
G01 X20.104920 Y10.544760 Z-0.125000
G01 X19.995760 Y10.616260 Z-0.125000
G01 X20.058360 Y10.526860 Z-0.125000
G01 X20.120960 Y10.437560 Z-0.125000
G01 X20.085560 Y10.314200 Z-0.125000
G01 X20.050160 Y10.190830 Z-0.125000
G01 X19.994360 Y10.104330 Z-0.125000
G01 X19.938560 Y10.017930 Z-0.125000
G01 X19.886960 Y9.509920 Z-0.125000
G01 X19.835360 Y9.001920 Z-0.125000
G01 X19.748360 Y8.842610 Z-0.125000
G01 X19.661360 Y8.683300 Z-0.125000
G01 X19.467170 Y8.500690 Z-0.125000
G01 X19.272970 Y8.318080 Z-0.125000
G01 X19.076980 Y7.969120 Z-0.125000
G01 X18.880990 Y7.620160 Z-0.125000
G01 X18.817190 Y7.477920 Z-0.125000
G01 X18.753390 Y7.335680 Z-0.125000
G01 X18.728190 Y7.247680 Z-0.125000
G01 X18.702990 Y7.159680 Z-0.125000
G01 X18.744490 Y7.134080 Z-0.125000
G01 X18.785990 Y7.108480 Z-0.125000
G01 X18.860190 Y7.148180 Z-0.125000
G01 X18.934290 Y7.187880 Z-0.125000
G01 X18.988190 Y7.154580 Z-0.125000
G01 X19.042090 Y7.121280 Z-0.125000
G01 X19.012390 Y6.883890 Z-0.125000
G01 X18.982690 Y6.646490 Z-0.125000
G01 X18.676520 Y6.198650 Z-0.125000
G01 X18.370360 Y5.750800 Z-0.125000
G01 X18.317260 Y5.689300 Z-0.125000
G01 X18.264160 Y5.627800 Z-0.125000
G01 X18.160150 Y5.013210 Z-0.125000
G01 X18.056130 Y4.398610 Z-0.125000
G01 X18.056130 Y4.045950 Z-0.125000
G01 X18.056130 Y3.693300 Z-0.125000
G01 X17.954730 Y3.198040 Z-0.125000
G01 X17.853330 Y2.702790 Z-0.125000
G01 X17.788230 Y2.540230 Z-0.125000
G01 X17.723230 Y2.377670 Z-0.125000
G01 X17.650230 Y2.212820 Z-0.125000
G01 X17.577230 Y2.047980 Z-0.125000
G01 X17.465080 Y1.543720 Z-0.125000
G01 X17.352940 Y1.039470 Z-0.125000
G01 X16.963450 Y0.519850 Z-0.125000
G01 X16.573960 Y0.000250 Z-0.125000
G01 X16.532360 Y0.000250 Z-0.125000
G01 X16.490760 Y0.000250 Z-0.125000
G01 X16.377450 Y0.105320 Z-0.125000
G01 X16.264130 Y0.210390 Z-0.125000
G01 X16.284930 Y0.379640 Z-0.125000
G01 X16.305730 Y0.548890 Z-0.125000
G01 X16.330730 Y0.934970 Z-0.125000
G01 X16.355730 Y1.321050 Z-0.125000
G01 X16.482450 Y1.453130 Z-0.125000
G01 X16.609180 Y1.585210 Z-0.125000
G01 X16.719750 Y1.585210 Z-0.125000
G01 X16.830340 Y1.585210 Z-0.125000
G01 X16.875840 Y1.797190 Z-0.125000
G01 X16.921340 Y2.009170 Z-0.125000
G01 X16.942840 Y2.457590 Z-0.125000
G01 X16.964340 Y2.906010 Z-0.125000
G01 X17.047640 Y3.230820 Z-0.125000
G01 X17.130940 Y3.555630 Z-0.125000
G01 X17.112440 Y3.860740 Z-0.125000
G01 X17.093940 Y4.165860 Z-0.125000
G01 X17.000640 Y4.380450 Z-0.125000
G01 X16.907340 Y4.595050 Z-0.125000
G01 X16.890740 Y4.578450 Z-0.125000
G01 X16.874140 Y4.561850 Z-0.125000
G01 X16.921340 Y4.374440 Z-0.125000
G01 X16.968540 Y4.187030 Z-0.125000
G01 X16.882540 Y3.860440 Z-0.125000
G01 X16.796540 Y3.533840 Z-0.125000
G01 X16.796540 Y3.514540 Z-0.125000
G01 X16.796540 Y3.495240 Z-0.125000
G01 X16.735740 Y3.495240 Z-0.125000
G01 X16.674940 Y3.495240 Z-0.125000
G01 X16.617140 Y3.627320 Z-0.125000
G01 X16.559340 Y3.759400 Z-0.125000
G01 X16.556340 Y3.604330 Z-0.125000
G01 X16.553340 Y3.449260 Z-0.125000
G01 X16.504140 Y3.360460 Z-0.125000
G01 X16.454940 Y3.271660 Z-0.125000
G01 X16.426440 Y2.662060 Z-0.125000
G01 X16.397940 Y2.052460 Z-0.125000
G01 X16.369440 Y1.922980 Z-0.125000
G01 X16.340940 Y1.793490 Z-0.125000
G01 X16.289240 Y1.773690 Z-0.125000
G01 X16.237540 Y1.753890 Z-0.125000
G01 X16.167840 Y2.040710 Z-0.125000
G01 X16.098140 Y2.327540 Z-0.125000
G01 X16.112340 Y3.314350 Z-0.125000
G01 X16.126540 Y4.301170 Z-0.125000
G01 X16.096040 Y4.331670 Z-0.125000
G01 X16.065540 Y4.362170 Z-0.125000
G01 X16.035040 Y4.331670 Z-0.125000
G01 X16.004540 Y4.301170 Z-0.125000
G01 X16.018240 Y3.329380 Z-0.125000
G01 X16.031940 Y2.357590 Z-0.125000
G01 X15.960040 Y2.052610 Z-0.125000
G01 X15.888140 Y1.747620 Z-0.125000
G01 X15.841640 Y1.747620 Z-0.125000
G01 X15.795140 Y1.747620 Z-0.125000
G01 X15.747240 Y2.062590 Z-0.125000
G01 X15.699340 Y2.377550 Z-0.125000
G01 X15.699620 Y2.771140 Z-0.125000
G01 X15.699900 Y3.164740 Z-0.125000
G01 X15.655900 Y3.279140 Z-0.125000
G01 X15.611900 Y3.393550 Z-0.125000
G01 X15.581300 Y3.556110 Z-0.125000
G01 X15.550600 Y3.718670 Z-0.125000
G01 X15.496800 Y3.606910 Z-0.125000
G01 X15.443000 Y3.495150 Z-0.125000
G01 X15.394700 Y3.495150 Z-0.125000
G01 X15.346400 Y3.495150 Z-0.125000
G01 X15.256800 Y3.834320 Z-0.125000
G01 X15.167200 Y4.173490 Z-0.125000
G01 X15.215200 Y4.364200 Z-0.125000
G01 X15.263200 Y4.554900 Z-0.125000
G01 X15.243200 Y4.574900 Z-0.125000
G01 X15.223200 Y4.594900 Z-0.125000
G01 X15.130200 Y4.380300 Z-0.125000
G01 X15.037200 Y4.165710 Z-0.125000
G01 X15.017900 Y3.873630 Z-0.125000
G01 X14.998600 Y3.581540 Z-0.125000
G01 X15.082600 Y3.223390 Z-0.125000
G01 X15.166600 Y2.865230 Z-0.125000
G01 X15.188700 Y2.433670 Z-0.125000
G01 X15.210800 Y2.002110 Z-0.125000
G01 X15.255500 Y1.793590 Z-0.125000
G01 X15.300200 Y1.585070 Z-0.125000
G01 X15.410780 Y1.585070 Z-0.125000
G01 X15.521360 Y1.585070 Z-0.125000
G01 X15.647370 Y1.452980 Z-0.125000
G01 X15.773370 Y1.320900 Z-0.125000
G01 X15.814470 Y0.772260 Z-0.125000
G01 X15.855570 Y0.223620 Z-0.125000
G01 X15.749790 Y0.111860 Z-0.125000
G01 X15.644020 Y0.000100 Z-0.125000
G01 X15.600820 Y0.001100 Z-0.125000
G01 X15.557620 Y0.002100 Z-0.125000
G01 X15.167800 Y0.518940 Z-0.125000
G01 X15.165560 Y0.518060 Z-0.125000
G00 Z5.000000

(End cutting path id: path220320)


(Start cutting path id: path220320)
(Change tool to Default tool)

G00 Z5.000000
G00 X15.690260 Y0.196370

G01 Z-0.125000 F100.0(Penetrate)
G01 X15.743860 Y0.230370 Z-0.125000 F400.000000
G01 X15.719360 Y0.571680 Z-0.125000
G01 X15.694860 Y0.912990 Z-0.125000
G01 X15.672360 Y1.095870 Z-0.125000
G01 X15.649960 Y1.278750 Z-0.125000
G01 X15.565060 Y1.370150 Z-0.125000
G01 X15.480160 Y1.461550 Z-0.125000
G01 X15.393360 Y1.461550 Z-0.125000
G01 X15.306660 Y1.461550 Z-0.125000
G01 X15.241660 Y1.512350 Z-0.125000
G01 X15.176660 Y1.563150 Z-0.125000
G01 X15.133560 Y1.847640 Z-0.125000
G01 X15.090460 Y2.132120 Z-0.125000
G01 X15.065860 Y2.538520 Z-0.125000
G01 X15.041260 Y2.944920 Z-0.125000
G01 X14.985860 Y3.148120 Z-0.125000
G01 X14.930460 Y3.351320 Z-0.125000
G01 X14.902260 Y3.646040 Z-0.125000
G01 X14.874060 Y3.940760 Z-0.125000
G01 X14.926360 Y4.133720 Z-0.125000
G01 X14.978660 Y4.326680 Z-0.125000
G01 X15.048060 Y4.468920 Z-0.125000
G01 X15.117460 Y4.611160 Z-0.125000
G01 X15.168160 Y4.826620 Z-0.125000
G01 X15.218860 Y5.042080 Z-0.125000
G01 X15.284760 Y5.029380 Z-0.125000
G01 X15.350760 Y5.016680 Z-0.125000
G01 X15.378660 Y4.854550 Z-0.125000
G01 X15.406560 Y4.692430 Z-0.125000
G01 X15.345260 Y4.449330 Z-0.125000
G01 X15.283860 Y4.206230 Z-0.125000
G01 X15.333660 Y3.971810 Z-0.125000
G01 X15.383460 Y3.737390 Z-0.125000
G01 X15.413960 Y3.737390 Z-0.125000
G01 X15.444460 Y3.737390 Z-0.125000
G01 X15.467160 Y4.153950 Z-0.125000
G01 X15.489860 Y4.570510 Z-0.125000
G01 X15.507260 Y4.672110 Z-0.125000
G01 X15.524660 Y4.773710 Z-0.125000
G01 X15.535160 Y5.302030 Z-0.125000
G01 X15.545760 Y5.830350 Z-0.125000
G01 X15.575660 Y5.688110 Z-0.125000
G01 X15.605560 Y5.545870 Z-0.125000
G01 X15.615560 Y5.688110 Z-0.125000
G01 X15.625560 Y5.830350 Z-0.125000
G01 X15.662560 Y5.647470 Z-0.125000
G01 X15.699560 Y5.464590 Z-0.125000
G01 X15.704560 Y4.997230 Z-0.125000
G01 X15.709560 Y4.529870 Z-0.125000
G01 X15.704560 Y3.994190 Z-0.125000
G01 X15.699560 Y3.458500 Z-0.125000
G01 X15.759560 Y3.314770 Z-0.125000
G01 X15.819660 Y3.171040 Z-0.125000
G01 X15.821660 Y2.610930 Z-0.125000
G01 X15.824660 Y2.050820 Z-0.125000
G01 X15.865560 Y2.152420 Z-0.125000
G01 X15.906460 Y2.254020 Z-0.125000
G01 X15.895960 Y3.270030 Z-0.125000
G01 X15.885460 Y4.286030 Z-0.125000
G01 X15.955160 Y4.418110 Z-0.125000
G01 X16.024860 Y4.550190 Z-0.125000
G01 X16.063460 Y4.550190 Z-0.125000
G01 X16.101960 Y4.550190 Z-0.125000
G01 X16.171660 Y4.418110 Z-0.125000
G01 X16.241360 Y4.286030 Z-0.125000
G01 X16.230860 Y3.270030 Z-0.125000
G01 X16.220360 Y2.254020 Z-0.125000
G01 X16.261260 Y2.152420 Z-0.125000
G01 X16.302160 Y2.050820 Z-0.125000
G01 X16.305160 Y2.610930 Z-0.125000
G01 X16.308160 Y3.171040 Z-0.125000
G01 X16.371660 Y3.322130 Z-0.125000
G01 X16.435160 Y3.473230 Z-0.125000
G01 X16.426160 Y4.001550 Z-0.125000
G01 X16.417160 Y4.529870 Z-0.125000
G01 X16.424160 Y4.997230 Z-0.125000
G01 X16.431160 Y5.464590 Z-0.125000
G01 X16.466360 Y5.667790 Z-0.125000
G01 X16.501560 Y5.870990 Z-0.125000
G01 X16.511660 Y5.708430 Z-0.125000
G01 X16.521760 Y5.545870 Z-0.125000
G01 X16.551660 Y5.688110 Z-0.125000
G01 X16.581560 Y5.830350 Z-0.125000
G01 X16.592060 Y5.302030 Z-0.125000
G01 X16.602560 Y4.773710 Z-0.125000
G01 X16.619960 Y4.672110 Z-0.125000
G01 X16.637360 Y4.570510 Z-0.125000
G01 X16.660060 Y4.153950 Z-0.125000
G01 X16.682760 Y3.737390 Z-0.125000
G01 X16.713260 Y3.737390 Z-0.125000
G01 X16.743760 Y3.737390 Z-0.125000
G01 X16.792560 Y3.971070 Z-0.125000
G01 X16.841460 Y4.204750 Z-0.125000
G01 X16.783060 Y4.451690 Z-0.125000
G01 X16.724660 Y4.698640 Z-0.125000
G01 X16.750460 Y4.857650 Z-0.125000
G01 X16.776260 Y5.016680 Z-0.125000
G01 X16.842860 Y5.029480 Z-0.125000
G01 X16.909560 Y5.042280 Z-0.125000
G01 X16.953960 Y4.835490 Z-0.125000
G01 X16.998260 Y4.628710 Z-0.125000
G01 X17.073260 Y4.477650 Z-0.125000
G01 X17.148260 Y4.326600 Z-0.125000
G01 X17.200560 Y4.133640 Z-0.125000
G01 X17.252860 Y3.940680 Z-0.125000
G01 X17.224660 Y3.645960 Z-0.125000
G01 X17.196460 Y3.351240 Z-0.125000
G01 X17.141060 Y3.148030 Z-0.125000
G01 X17.085760 Y2.944840 Z-0.125000
G01 X17.060860 Y2.538430 Z-0.125000
G01 X17.035960 Y2.132030 Z-0.125000
G01 X16.990460 Y1.827230 Z-0.125000
G01 X16.944960 Y1.522430 Z-0.125000
G01 X16.900660 Y1.492530 Z-0.125000
G01 X16.856360 Y1.462730 Z-0.125000
G01 X16.751690 Y1.462120 Z-0.125000
G01 X16.647010 Y1.461520 Z-0.125000
G01 X16.554310 Y1.362820 Z-0.125000
G01 X16.461610 Y1.264120 Z-0.125000
G01 X16.421710 Y0.747720 Z-0.125000
G01 X16.381810 Y0.231320 Z-0.125000
G01 X16.436310 Y0.196820 Z-0.125000
G01 X16.490810 Y0.162320 Z-0.125000
G01 X16.516110 Y0.161720 Z-0.125000
G01 X16.541410 Y0.161110 Z-0.125000
G01 X16.905710 Y0.644150 Z-0.125000
G01 X17.270010 Y1.127190 Z-0.125000
G01 X17.360610 Y1.582170 Z-0.125000
G01 X17.451210 Y2.037130 Z-0.125000
G01 X17.591290 Y2.369130 Z-0.125000
G01 X17.731370 Y2.701120 Z-0.125000
G01 X17.832380 Y3.179280 Z-0.125000
G01 X17.933400 Y3.657450 Z-0.125000
G01 X17.935400 Y4.032720 Z-0.125000
G01 X17.937400 Y4.408000 Z-0.125000
G01 X18.047410 Y5.037920 Z-0.125000
G01 X18.157420 Y5.667840 Z-0.125000
G01 X18.533090 Y6.202640 Z-0.125000
G01 X18.908760 Y6.737440 Z-0.125000
G01 X18.908760 Y6.876590 Z-0.125000
G01 X18.908760 Y7.015740 Z-0.125000
G01 X18.785490 Y7.015740 Z-0.125000
G01 X18.662210 Y7.015740 Z-0.125000
G01 X18.625810 Y7.053040 Z-0.125000
G01 X18.589410 Y7.090340 Z-0.125000
G01 X18.624410 Y7.273210 Z-0.125000
G01 X18.659410 Y7.456090 Z-0.125000
G01 X18.891050 Y7.882820 Z-0.125000
G01 X19.122690 Y8.309540 Z-0.125000
G01 X19.354130 Y8.553380 Z-0.125000
G01 X19.585560 Y8.797220 Z-0.125000
G01 X19.650360 Y8.902730 Z-0.125000
G01 X19.715160 Y9.008230 Z-0.125000
G01 X19.776760 Y9.539570 Z-0.125000
G01 X19.838360 Y10.070910 Z-0.125000
G01 X19.923760 Y10.238290 Z-0.125000
G01 X20.009160 Y10.405680 Z-0.125000
G01 X19.930960 Y10.515850 Z-0.125000
G01 X19.852760 Y10.626020 Z-0.125000
G01 X19.710720 Y10.890180 Z-0.125000
G01 X19.568680 Y11.154340 Z-0.125000
G01 X19.545580 Y11.377860 Z-0.125000
G01 X19.522480 Y11.601380 Z-0.125000
G01 X19.544780 Y11.524380 Z-0.125000
G01 X19.567080 Y11.447380 Z-0.125000
G01 X19.599180 Y11.499280 Z-0.125000
G01 X19.631280 Y11.551180 Z-0.125000
G01 X19.695580 Y11.332450 Z-0.125000
G01 X19.759880 Y11.113720 Z-0.125000
G01 X19.944410 Y10.880040 Z-0.125000
G01 X20.128950 Y10.646360 Z-0.125000
G01 X20.162550 Y10.646360 Z-0.125000
G01 X20.196150 Y10.646360 Z-0.125000
G01 X20.244250 Y10.806880 Z-0.125000
G01 X20.292350 Y10.967400 Z-0.125000
G01 X20.409830 Y11.051100 Z-0.125000
G01 X20.527300 Y11.134700 Z-0.125000
G01 X20.389910 Y11.393600 Z-0.125000
G01 X20.252520 Y11.652500 Z-0.125000
G01 X20.130390 Y12.033760 Z-0.125000
G01 X20.008260 Y12.415020 Z-0.125000
G01 X19.967260 Y12.699090 Z-0.125000
G01 X19.926160 Y12.983170 Z-0.125000
G01 X19.925250 Y13.382120 Z-0.125000
G01 X19.924350 Y13.781070 Z-0.125000
G01 X20.029290 Y13.918660 Z-0.125000
G01 X20.134230 Y14.056240 Z-0.125000
G01 X19.988670 Y14.117040 Z-0.125000
G01 X19.843100 Y14.177840 Z-0.125000
G01 X19.703060 Y14.284650 Z-0.125000
G01 X19.563030 Y14.391460 Z-0.125000
G01 X19.373070 Y14.134330 Z-0.125000
G01 X19.183120 Y13.877200 Z-0.125000
G01 X19.060450 Y13.613040 Z-0.125000
G01 X18.937780 Y13.348880 Z-0.125000
G01 X18.908480 Y13.287880 Z-0.125000
G01 X18.879180 Y13.226980 Z-0.125000
G01 X18.822680 Y13.226980 Z-0.125000
G01 X18.766180 Y13.226980 Z-0.125000
G01 X18.774180 Y13.491140 Z-0.125000
G01 X18.782180 Y13.755300 Z-0.125000
G01 X18.863580 Y13.990680 Z-0.125000
G01 X18.944880 Y14.226060 Z-0.125000
G01 X18.777250 Y14.132960 Z-0.125000
G01 X18.609620 Y14.039860 Z-0.125000
G01 X18.468140 Y13.843890 Z-0.125000
G01 X18.326660 Y13.647930 Z-0.125000
G01 X18.241160 Y13.669030 Z-0.125000
G01 X18.155660 Y13.690130 Z-0.125000
G01 X17.914900 Y13.509430 Z-0.125000
G01 X17.674140 Y13.328730 Z-0.125000
G01 X17.581240 Y13.328730 Z-0.125000
G01 X17.488240 Y13.328730 Z-0.125000
G01 X17.447540 Y13.176330 Z-0.125000
G01 X17.406840 Y13.023930 Z-0.125000
G01 X17.262070 Y12.478800 Z-0.125000
G01 X17.117320 Y11.933670 Z-0.125000
G01 X17.006530 Y11.728380 Z-0.125000
G01 X16.895750 Y11.523090 Z-0.125000
G01 X16.794150 Y11.495290 Z-0.125000
G01 X16.692550 Y11.467490 Z-0.125000
G01 X16.082950 Y11.468090 Z-0.125000
G01 X15.473350 Y11.468700 Z-0.125000
G01 X15.351430 Y11.494400 Z-0.125000
G01 X15.229510 Y11.520100 Z-0.125000
G01 X15.102430 Y11.778260 Z-0.125000
G01 X14.975340 Y12.036430 Z-0.125000
G01 X14.848060 Y12.530110 Z-0.125000
G01 X14.720780 Y13.023780 Z-0.125000
G01 X14.678580 Y13.176190 Z-0.125000
G01 X14.636380 Y13.328590 Z-0.125000
G01 X14.540680 Y13.328590 Z-0.125000
G01 X14.444980 Y13.328590 Z-0.125000
G01 X14.204270 Y13.509530 Z-0.125000
G01 X13.963560 Y13.690480 Z-0.125000
G01 X13.881160 Y13.668980 Z-0.125000
G01 X13.798760 Y13.647480 Z-0.125000
G01 X13.657110 Y13.843670 Z-0.125000
G01 X13.515470 Y14.039860 Z-0.125000
G01 X13.352620 Y14.130260 Z-0.125000
G01 X13.189770 Y14.220760 Z-0.125000
G01 X13.284970 Y13.892030 Z-0.125000
G01 X13.380170 Y13.563290 Z-0.125000
G01 X13.380170 Y13.385020 Z-0.125000
G01 X13.380170 Y13.206740 Z-0.125000
G01 X13.321170 Y13.206740 Z-0.125000
G01 X13.262170 Y13.206740 Z-0.125000
G01 X13.103640 Y13.542020 Z-0.125000
G01 X12.945100 Y13.877300 Z-0.125000
G01 X12.755970 Y14.131790 Z-0.125000
G01 X12.566840 Y14.386270 Z-0.125000
G01 X12.359350 Y14.243550 Z-0.125000
G01 X12.151860 Y14.100820 Z-0.125000
G01 X12.097860 Y14.100820 Z-0.125000
G01 X12.043860 Y14.100820 Z-0.125000
G01 X12.020860 Y14.063620 Z-0.125000
G01 X11.997860 Y14.026420 Z-0.125000
G01 X12.105920 Y13.898000 Z-0.125000
G01 X12.213990 Y13.769570 Z-0.125000
G01 X12.189490 Y13.172770 Z-0.125000
G01 X12.164990 Y12.575980 Z-0.125000
G01 X12.018630 Y12.109190 Z-0.125000
G01 X11.872280 Y11.642400 Z-0.125000
G01 X11.733760 Y11.394700 Z-0.125000
G01 X11.595230 Y11.146990 Z-0.125000
G01 X11.713910 Y11.059290 Z-0.125000
G01 X11.832580 Y10.971590 Z-0.125000
G01 X11.881280 Y10.809040 Z-0.125000
G01 X11.929980 Y10.646490 Z-0.125000
G01 X11.963580 Y10.646490 Z-0.125000
G01 X11.997180 Y10.646490 Z-0.125000
G01 X12.181550 Y10.880170 Z-0.125000
G01 X12.365920 Y11.113860 Z-0.125000
G01 X12.442520 Y11.357700 Z-0.125000
G01 X12.519120 Y11.601530 Z-0.125000
G01 X12.526120 Y11.520230 Z-0.125000
G01 X12.533120 Y11.438930 Z-0.125000
G01 X12.571520 Y11.520230 Z-0.125000
G01 X12.609920 Y11.601530 Z-0.125000
G01 X12.586820 Y11.382430 Z-0.125000
G01 X12.563720 Y11.163330 Z-0.125000
G01 X12.418920 Y10.894750 Z-0.125000
G01 X12.274120 Y10.626170 Z-0.125000
G01 X12.195920 Y10.516000 Z-0.125000
G01 X12.117720 Y10.405830 Z-0.125000
G01 X12.203920 Y10.236940 Z-0.125000
G01 X12.290120 Y10.068040 Z-0.125000
G01 X12.344920 Y9.574940 Z-0.125000
G01 X12.399620 Y9.081850 Z-0.125000
G01 X12.444020 Y8.965290 Z-0.125000
G01 X12.488420 Y8.848730 Z-0.125000
G01 X12.747180 Y8.579210 Z-0.125000
G01 X13.005940 Y8.309690 Z-0.125000
G01 X13.249700 Y7.842330 Z-0.125000
G01 X13.493460 Y7.374970 Z-0.125000
G01 X13.516160 Y7.220700 Z-0.125000
G01 X13.538860 Y7.066440 Z-0.125000
G01 X13.439860 Y7.028840 Z-0.125000
G01 X13.340860 Y6.991240 Z-0.125000
G01 X13.279560 Y7.014740 Z-0.125000
G01 X13.218260 Y7.038240 Z-0.125000
G01 X13.218260 Y6.887960 Z-0.125000
G01 X13.218260 Y6.737690 Z-0.125000
G01 X13.593930 Y6.202900 Z-0.125000
G01 X13.969600 Y5.668100 Z-0.125000
G01 X14.079610 Y5.038170 Z-0.125000
G01 X14.189620 Y4.408250 Z-0.125000
G01 X14.191620 Y4.032480 Z-0.125000
G01 X14.193620 Y3.656710 Z-0.125000
G01 X14.293680 Y3.184280 Z-0.125000
G01 X14.393740 Y2.711840 Z-0.125000
G01 X14.537050 Y2.361170 Z-0.125000
G01 X14.680360 Y2.010490 Z-0.125000
G01 X14.777460 Y1.552030 Z-0.125000
G01 X14.874660 Y1.093580 Z-0.125000
G01 X15.230030 Y0.627470 Z-0.125000
G01 X15.585400 Y0.161360 Z-0.125000
G01 X15.610900 Y0.161970 Z-0.125000
G01 X15.636400 Y0.162580 Z-0.125000
G01 X15.690000 Y0.196580 Z-0.125000
G01 X15.690260 Y0.196370 Z-0.125000
G00 Z5.000000

(End cutting path id: path220320)


(Start cutting path id: path220320)
(Change tool to Default tool)

G00 Z5.000000
G00 X14.166940 Y0.791600

G01 Z-0.125000 F100.0(Penetrate)
G01 X13.713220 Y0.886500 Z-0.125000 F400.000000
G01 X13.394780 Y0.975100 Z-0.125000
G01 X13.076340 Y1.063700 Z-0.125000
G01 X12.583040 Y1.260010 Z-0.125000
G01 X12.089740 Y1.456330 Z-0.125000
G01 X11.709280 Y1.647150 Z-0.125000
G01 X11.328820 Y1.837980 Z-0.125000
G01 X10.820820 Y2.170970 Z-0.125000
G01 X10.312810 Y2.503970 Z-0.125000
G01 X10.008010 Y2.750180 Z-0.125000
G01 X9.703210 Y2.996390 Z-0.125000
G01 X9.302210 Y3.397450 Z-0.125000
G01 X8.901210 Y3.798510 Z-0.125000
G01 X8.589460 Y4.185410 Z-0.125000
G01 X8.277720 Y4.572300 Z-0.125000
G01 X7.997430 Y4.998210 Z-0.125000
G01 X7.717150 Y5.424110 Z-0.125000
G01 X7.424100 Y6.033710 Z-0.125000
G01 X7.131060 Y6.643320 Z-0.125000
G01 X6.985640 Y7.080400 Z-0.125000
G01 X6.840210 Y7.517480 Z-0.125000
G01 X6.777310 Y7.760250 Z-0.125000
G01 X6.714410 Y8.003010 Z-0.125000
G01 X6.671910 Y8.217250 Z-0.125000
G01 X6.629410 Y8.431480 Z-0.125000
G01 X6.569010 Y8.797240 Z-0.125000
G01 X6.508610 Y9.163000 Z-0.125000
G01 X6.484910 Y9.897040 Z-0.125000
G01 X6.461210 Y10.631070 Z-0.125000
G01 X6.490610 Y10.905250 Z-0.125000
G01 X6.520010 Y11.179430 Z-0.125000
G01 X6.602610 Y11.166830 Z-0.125000
G01 X6.685210 Y11.154330 Z-0.125000
G01 X6.679210 Y10.300890 Z-0.125000
G01 X6.673210 Y9.447450 Z-0.125000
G01 X6.738210 Y8.980090 Z-0.125000
G01 X6.803210 Y8.512730 Z-0.125000
G01 X6.865710 Y8.228240 Z-0.125000
G01 X6.928110 Y7.943770 Z-0.125000
G01 X7.031490 Y7.578010 Z-0.125000
G01 X7.134880 Y7.212240 Z-0.125000
G01 X7.332890 Y6.717340 Z-0.125000
G01 X7.530910 Y6.222440 Z-0.125000
G01 X7.718210 Y5.863900 Z-0.125000
G01 X7.905510 Y5.505360 Z-0.125000
G01 X8.212680 Y5.038000 Z-0.125000
G01 X8.519850 Y4.570640 Z-0.125000
G01 X8.804210 Y4.225200 Z-0.125000
G01 X9.088560 Y3.879760 Z-0.125000
G01 X9.421740 Y3.550800 Z-0.125000
G01 X9.754910 Y3.221850 Z-0.125000
G01 X10.095290 Y2.935630 Z-0.125000
G01 X10.435660 Y2.649410 Z-0.125000
G01 X10.943660 Y2.318500 Z-0.125000
G01 X11.451660 Y1.987590 Z-0.125000
G01 X11.898700 Y1.769620 Z-0.125000
G01 X12.345740 Y1.551650 Z-0.125000
G01 X12.736240 Y1.406550 Z-0.125000
G01 X13.126740 Y1.261450 Z-0.125000
G01 X13.488080 Y1.156470 Z-0.125000
G01 X13.849430 Y1.051490 Z-0.125000
G01 X14.296470 Y0.965590 Z-0.125000
G01 X14.743510 Y0.879790 Z-0.125000
G01 X14.799110 Y0.829190 Z-0.125000
G01 X14.854710 Y0.778590 Z-0.125000
G01 X14.827210 Y0.734090 Z-0.125000
G01 X14.799710 Y0.689590 Z-0.125000
G01 X14.710710 Y0.693590 Z-0.125000
G01 X14.621710 Y0.697590 Z-0.125000
G01 X14.167990 Y0.792490 Z-0.125000
G01 X14.166940 Y0.791600 Z-0.125000
G00 Z5.000000

(End cutting path id: path220320)


(Start cutting path id: path220320)
(Change tool to Default tool)

G00 Z5.000000
G00 X13.523380 Y2.493430

G01 Z-0.125000 F100.0(Penetrate)
G01 X12.995060 Y2.667400 Z-0.125000 F400.000000
G01 X12.642390 Y2.835710 Z-0.125000
G01 X12.289710 Y3.004020 Z-0.125000
G01 X11.931190 Y3.214490 Z-0.125000
G01 X11.572660 Y3.424970 Z-0.125000
G01 X11.186580 Y3.713050 Z-0.125000
G01 X10.800500 Y4.001130 Z-0.125000
G01 X10.331070 Y4.468770 Z-0.125000
G01 X9.861650 Y4.936400 Z-0.125000
G01 X9.577970 Y5.322490 Z-0.125000
G01 X9.294300 Y5.708570 Z-0.125000
G01 X9.118920 Y5.988090 Z-0.125000
G01 X8.943550 Y6.267600 Z-0.125000
G01 X8.740220 Y6.699290 Z-0.125000
G01 X8.536890 Y7.130970 Z-0.125000
G01 X8.421480 Y7.456090 Z-0.125000
G01 X8.306080 Y7.781210 Z-0.125000
G01 X8.204350 Y8.172850 Z-0.125000
G01 X8.102630 Y8.564500 Z-0.125000
G01 X8.041430 Y8.985660 Z-0.125000
G01 X7.980230 Y9.406810 Z-0.125000
G01 X7.952630 Y9.838890 Z-0.125000
G01 X7.925030 Y10.270970 Z-0.125000
G01 X7.954230 Y10.582920 Z-0.125000
G01 X7.983430 Y10.894860 Z-0.125000
G01 X8.065630 Y10.882360 Z-0.125000
G01 X8.147830 Y10.869860 Z-0.125000
G01 X8.141830 Y10.321220 Z-0.125000
G01 X8.135830 Y9.772580 Z-0.125000
G01 X8.180730 Y9.366180 Z-0.125000
G01 X8.225630 Y8.959770 Z-0.125000
G01 X8.307130 Y8.573700 Z-0.125000
G01 X8.388630 Y8.187610 Z-0.125000
G01 X8.485930 Y7.882810 Z-0.125000
G01 X8.583230 Y7.578010 Z-0.125000
G01 X8.647830 Y7.395130 Z-0.125000
G01 X8.712430 Y7.212250 Z-0.125000
G01 X8.929960 Y6.757660 Z-0.125000
G01 X9.147490 Y6.303070 Z-0.125000
G01 X9.339590 Y6.005820 Z-0.125000
G01 X9.531700 Y5.708570 Z-0.125000
G01 X9.759640 Y5.403770 Z-0.125000
G01 X9.987580 Y5.098970 Z-0.125000
G01 X10.333190 Y4.738600 Z-0.125000
G01 X10.678800 Y4.378230 Z-0.125000
G01 X10.983610 Y4.125000 Z-0.125000
G01 X11.288410 Y3.871770 Z-0.125000
G01 X11.621460 Y3.643420 Z-0.125000
G01 X11.954510 Y3.415060 Z-0.125000
G01 X12.413940 Y3.173780 Z-0.125000
G01 X12.873370 Y2.932490 Z-0.125000
G01 X13.320410 Y2.769080 Z-0.125000
G01 X13.767450 Y2.605670 Z-0.125000
G01 X14.001130 Y2.540570 Z-0.125000
G01 X14.234810 Y2.475470 Z-0.125000
G01 X14.234810 Y2.395370 Z-0.125000
G01 X14.234810 Y2.315170 Z-0.125000
G01 X14.143410 Y2.317170 Z-0.125000
G01 X14.052010 Y2.319170 Z-0.125000
G01 X13.523690 Y2.493140 Z-0.125000
G01 X13.523380 Y2.493430 Z-0.125000
G00 Z5.000000

(End cutting path id: path220320)


(Start cutting path id: path220320)
(Change tool to Default tool)

G00 Z5.000000
G00 X17.241950 Y0.740300

G01 Z-0.125000 F100.0(Penetrate)
G01 X17.241950 Y0.801500 Z-0.125000 F400.000000
G01 X17.292750 Y0.842000 Z-0.125000
G01 X17.343550 Y0.882500 Z-0.125000
G01 X17.546750 Y0.910300 Z-0.125000
G01 X17.749950 Y0.938100 Z-0.125000
G01 X18.332480 Y1.079990 Z-0.125000
G01 X18.915020 Y1.221890 Z-0.125000
G01 X19.386220 Y1.404000 Z-0.125000
G01 X19.857420 Y1.586120 Z-0.125000
G01 X20.287050 Y1.802330 Z-0.125000
G01 X20.716680 Y2.018550 Z-0.125000
G01 X21.001150 Y2.192300 Z-0.125000
G01 X21.285640 Y2.366050 Z-0.125000
G01 X21.743580 Y2.709270 Z-0.125000
G01 X22.201520 Y3.052500 Z-0.125000
G01 X22.678600 Y3.527100 Z-0.125000
G01 X23.155680 Y4.001700 Z-0.125000
G01 X23.423970 Y4.347140 Z-0.125000
G01 X23.692260 Y4.692580 Z-0.125000
G01 X23.958380 Y5.098980 Z-0.125000
G01 X24.224490 Y5.505380 Z-0.125000
G01 X24.448840 Y5.952420 Z-0.125000
G01 X24.673170 Y6.399470 Z-0.125000
G01 X24.812070 Y6.744910 Z-0.125000
G01 X24.950970 Y7.090350 Z-0.125000
G01 X25.076990 Y7.517070 Z-0.125000
G01 X25.203010 Y7.943790 Z-0.125000
G01 X25.285510 Y8.370510 Z-0.125000
G01 X25.368010 Y8.797230 Z-0.125000
G01 X25.410010 Y9.142670 Z-0.125000
G01 X25.452010 Y9.488110 Z-0.125000
G01 X25.452920 Y10.243260 Z-0.125000
G01 X25.453830 Y10.998410 Z-0.125000
G01 X25.430330 Y11.059710 Z-0.125000
G01 X25.406830 Y11.121010 Z-0.125000
G01 X25.471330 Y11.174610 Z-0.125000
G01 X25.535830 Y11.228210 Z-0.125000
G01 X25.584930 Y11.179110 Z-0.125000
G01 X25.634030 Y11.130010 Z-0.125000
G01 X25.633420 Y10.227800 Z-0.125000
G01 X25.632820 Y9.325590 Z-0.125000
G01 X25.579320 Y8.939510 Z-0.125000
G01 X25.525820 Y8.553430 Z-0.125000
G01 X25.426320 Y8.106390 Z-0.125000
G01 X25.326820 Y7.659350 Z-0.125000
G01 X25.180640 Y7.214110 Z-0.125000
G01 X25.034460 Y6.768870 Z-0.125000
G01 X24.894980 Y6.441950 Z-0.125000
G01 X24.755510 Y6.115020 Z-0.125000
G01 X24.538430 Y5.703940 Z-0.125000
G01 X24.321350 Y5.292860 Z-0.125000
G01 X24.056490 Y4.891140 Z-0.125000
G01 X23.791640 Y4.489420 Z-0.125000
G01 X23.520730 Y4.164730 Z-0.125000
G01 X23.249820 Y3.840040 Z-0.125000
G01 X22.929850 Y3.507570 Z-0.125000
G01 X22.609880 Y3.175100 Z-0.125000
G01 X22.212550 Y2.839100 Z-0.125000
G01 X21.815210 Y2.503110 Z-0.125000
G01 X21.326820 Y2.181950 Z-0.125000
G01 X20.838440 Y1.860790 Z-0.125000
G01 X20.269480 Y1.581340 Z-0.125000
G01 X19.700520 Y1.301890 Z-0.125000
G01 X19.090920 Y1.099380 Z-0.125000
G01 X18.481320 Y0.896870 Z-0.125000
G01 X18.074920 Y0.815570 Z-0.125000
G01 X17.668520 Y0.734270 Z-0.125000
G01 X17.455160 Y0.706670 Z-0.125000
G01 X17.241800 Y0.679070 Z-0.125000
G01 X17.241800 Y0.740270 Z-0.125000
G01 X17.241950 Y0.740300 Z-0.125000
G00 Z5.000000

(End cutting path id: path220320)


(Start cutting path id: path220320)
(Change tool to Default tool)

G00 Z5.000000
G00 X17.824940 Y2.337180

G01 Z-0.125000 F100.0(Penetrate)
G01 X17.800140 Y2.401880 Z-0.125000 F400.000000
G01 X17.836540 Y2.438380 Z-0.125000
G01 X17.872940 Y2.474880 Z-0.125000
G01 X18.232270 Y2.579010 Z-0.125000
G01 X18.591590 Y2.683130 Z-0.125000
G01 X18.944710 Y2.819510 Z-0.125000
G01 X19.297830 Y2.955880 Z-0.125000
G01 X19.560180 Y3.087940 Z-0.125000
G01 X19.822520 Y3.219990 Z-0.125000
G01 X20.167960 Y3.425760 Z-0.125000
G01 X20.513410 Y3.631540 Z-0.125000
G01 X20.838530 Y3.875010 Z-0.125000
G01 X21.163650 Y4.118480 Z-0.125000
G01 X21.655120 Y4.608790 Z-0.125000
G01 X22.146580 Y5.099080 Z-0.125000
G01 X22.430000 Y5.485170 Z-0.125000
G01 X22.713420 Y5.871250 Z-0.125000
G01 X22.858650 Y6.115090 Z-0.125000
G01 X23.003880 Y6.358930 Z-0.125000
G01 X23.165650 Y6.684050 Z-0.125000
G01 X23.327430 Y7.009170 Z-0.125000
G01 X23.493390 Y7.456210 Z-0.125000
G01 X23.659350 Y7.903250 Z-0.125000
G01 X23.740650 Y8.228370 Z-0.125000
G01 X23.821950 Y8.553490 Z-0.125000
G01 X23.888550 Y8.919250 Z-0.125000
G01 X23.955150 Y9.285010 Z-0.125000
G01 X23.977350 Y10.087650 Z-0.125000
G01 X23.999450 Y10.890300 Z-0.125000
G01 X24.071550 Y10.890300 Z-0.125000
G01 X24.143650 Y10.890300 Z-0.125000
G01 X24.173150 Y10.536380 Z-0.125000
G01 X24.202650 Y10.182480 Z-0.125000
G01 X24.154850 Y9.607100 Z-0.125000
G01 X24.107050 Y9.031730 Z-0.125000
G01 X24.007450 Y8.551190 Z-0.125000
G01 X23.907750 Y8.070650 Z-0.125000
G01 X23.782100 Y7.684120 Z-0.125000
G01 X23.656440 Y7.297590 Z-0.125000
G01 X23.460200 Y6.859210 Z-0.125000
G01 X23.263950 Y6.420840 Z-0.125000
G01 X22.997050 Y5.982930 Z-0.125000
G01 X22.730160 Y5.545030 Z-0.125000
G01 X22.457780 Y5.200140 Z-0.125000
G01 X22.185410 Y4.855240 Z-0.125000
G01 X21.755950 Y4.427290 Z-0.125000
G01 X21.326480 Y3.999330 Z-0.125000
G01 X20.940400 Y3.713130 Z-0.125000
G01 X20.554320 Y3.426940 Z-0.125000
G01 X20.229200 Y3.229770 Z-0.125000
G01 X19.904080 Y3.032600 Z-0.125000
G01 X19.518000 Y2.851450 Z-0.125000
G01 X19.131920 Y2.670310 Z-0.125000
G01 X18.603600 Y2.498000 Z-0.125000
G01 X18.075270 Y2.325690 Z-0.125000
G01 X17.962620 Y2.299190 Z-0.125000
G01 X17.849970 Y2.272690 Z-0.125000
G01 X17.824940 Y2.337180 Z-0.125000
G00 Z5.000000

(End cutting path id: path220320)


(Start cutting path id: path220320)
(Change tool to Default tool)

G00 Z5.000000
G00 X16.653710 Y6.620900

G01 Z-0.125000 F100.0(Penetrate)
G01 X16.591710 Y6.740800 Z-0.125000 F400.000000
G01 X16.591710 Y6.816000 Z-0.125000
G01 X16.591710 Y6.891200 Z-0.125000
G01 X16.640510 Y6.940000 Z-0.125000
G01 X16.689310 Y6.988800 Z-0.125000
G01 X16.757510 Y6.988800 Z-0.125000
G01 X16.825710 Y6.988800 Z-0.125000
G01 X16.872910 Y6.931900 Z-0.125000
G01 X16.920110 Y6.875000 Z-0.125000
G01 X16.873010 Y6.688060 Z-0.125000
G01 X16.825910 Y6.501120 Z-0.125000
G01 X16.770810 Y6.501120 Z-0.125000
G01 X16.715710 Y6.501120 Z-0.125000
G01 X16.653710 Y6.620900 Z-0.125000
G00 Z5.000000

(End cutting path id: path220320)


(Start cutting path id: path220320)
(Change tool to Default tool)

G00 Z5.000000
G00 X16.794290 Y6.836270

G01 Z-0.125000 F100.0(Penetrate)
G01 X16.794890 Y6.866770 Z-0.125000 F400.000000
G01 X16.754290 Y6.866770 Z-0.125000
G01 X16.713690 Y6.866770 Z-0.125000
G01 X16.714300 Y6.775370 Z-0.125000
G01 X16.714900 Y6.683870 Z-0.125000
G01 X16.754300 Y6.744870 Z-0.125000
G01 X16.793700 Y6.805870 Z-0.125000
G01 X16.794310 Y6.836370 Z-0.125000
G01 X16.794290 Y6.836270 Z-0.125000
G00 Z5.000000

(End cutting path id: path220320)


(Start cutting path id: path220320)
(Change tool to Default tool)

G00 Z5.000000
G00 X17.670930 Y7.513340

G01 Z-0.125000 F100.0(Penetrate)
G01 X17.648030 Y7.550340 Z-0.125000 F400.000000
G01 X17.704930 Y7.821730 Z-0.125000
G01 X17.761830 Y8.093120 Z-0.125000
G01 X17.882020 Y8.241940 Z-0.125000
G01 X18.002220 Y8.390770 Z-0.125000
G01 X18.124760 Y8.411070 Z-0.125000
G01 X18.247310 Y8.431370 Z-0.125000
G01 X18.354220 Y8.559160 Z-0.125000
G01 X18.461140 Y8.686950 Z-0.125000
G01 X18.461140 Y8.739450 Z-0.125000
G01 X18.461140 Y8.791950 Z-0.125000
G01 X18.527040 Y9.058710 Z-0.125000
G01 X18.592940 Y9.325470 Z-0.125000
G01 X18.839340 Y9.792820 Z-0.125000
G01 X19.085730 Y10.260190 Z-0.125000
G01 X19.122230 Y10.284990 Z-0.125000
G01 X19.158730 Y10.309790 Z-0.125000
G01 X19.379120 Y10.362690 Z-0.125000
G01 X19.599510 Y10.415590 Z-0.125000
G01 X19.624210 Y10.390890 Z-0.125000
G01 X19.648910 Y10.366190 Z-0.125000
G01 X19.583410 Y10.173860 Z-0.125000
G01 X19.517910 Y9.981540 Z-0.125000
G01 X19.517300 Y9.816060 Z-0.125000
G01 X19.516690 Y9.650580 Z-0.125000
G01 X19.456690 Y9.427060 Z-0.125000
G01 X19.396690 Y9.203540 Z-0.125000
G01 X19.396090 Y9.088130 Z-0.125000
G01 X19.395480 Y8.972730 Z-0.125000
G01 X19.304080 Y8.894130 Z-0.125000
G01 X19.212680 Y8.815530 Z-0.125000
G01 X19.042800 Y8.694580 Z-0.125000
G01 X18.872920 Y8.573640 Z-0.125000
G01 X18.793920 Y8.573640 Z-0.125000
G01 X18.715020 Y8.573640 Z-0.125000
G01 X18.557440 Y8.399690 Z-0.125000
G01 X18.399870 Y8.225740 Z-0.125000
G01 X18.083980 Y7.851050 Z-0.125000
G01 X17.768090 Y7.476360 Z-0.125000
G01 X17.730790 Y7.476360 Z-0.125000
G01 X17.693490 Y7.476360 Z-0.125000
G01 X17.670590 Y7.513360 Z-0.125000
G01 X17.670930 Y7.513340 Z-0.125000
G00 Z5.000000

(End cutting path id: path220320)


(Start cutting path id: path220320)
(Change tool to Default tool)

G00 Z5.000000
G00 X18.092310 Y8.035160

G01 Z-0.125000 F100.0(Penetrate)
G01 X18.301550 Y8.289160 Z-0.125000 F400.000000
G01 X18.182980 Y8.289160 Z-0.125000
G01 X18.064400 Y8.289160 Z-0.125000
G01 X17.961090 Y8.153710 Z-0.125000
G01 X17.857780 Y8.018270 Z-0.125000
G01 X17.829380 Y7.859070 Z-0.125000
G01 X17.800980 Y7.699880 Z-0.125000
G01 X17.841980 Y7.740480 Z-0.125000
G01 X17.882980 Y7.781080 Z-0.125000
G01 X18.092310 Y8.035160 Z-0.125000
G00 Z5.000000

(End cutting path id: path220320)


(Start cutting path id: path220320)
(Change tool to Default tool)

G00 Z5.000000
G00 X18.774400 Y8.695560

G01 Z-0.125000 F100.0(Penetrate)
G01 X18.860300 Y8.695560 Z-0.125000 F400.000000
G01 X19.066480 Y8.858530 Z-0.125000
G01 X19.272660 Y9.021510 Z-0.125000
G01 X19.290160 Y9.112510 Z-0.125000
G01 X19.307660 Y9.203510 Z-0.125000
G01 X19.357560 Y9.447350 Z-0.125000
G01 X19.407360 Y9.691190 Z-0.125000
G01 X19.401360 Y9.845420 Z-0.125000
G01 X19.395360 Y9.999660 Z-0.125000
G01 X19.454060 Y10.140060 Z-0.125000
G01 X19.512760 Y10.280470 Z-0.125000
G01 X19.472860 Y10.280470 Z-0.125000
G01 X19.432960 Y10.280470 Z-0.125000
G01 X19.302190 Y10.224870 Z-0.125000
G01 X19.171410 Y10.169270 Z-0.125000
G01 X19.090310 Y10.011520 Z-0.125000
G01 X19.009210 Y9.853760 Z-0.125000
G01 X18.872130 Y9.609920 Z-0.125000
G01 X18.735060 Y9.366080 Z-0.125000
G01 X18.658560 Y9.102050 Z-0.125000
G01 X18.582060 Y8.838020 Z-0.125000
G01 X18.582060 Y8.751920 Z-0.125000
G01 X18.582060 Y8.665820 Z-0.125000
G01 X18.493660 Y8.548580 Z-0.125000
G01 X18.405260 Y8.431340 Z-0.125000
G01 X18.546400 Y8.563420 Z-0.125000
G01 X18.687540 Y8.695500 Z-0.125000
G01 X18.774400 Y8.695560 Z-0.125000
G00 Z5.000000

(End cutting path id: path220320)


(Start cutting path id: path220320)
(Change tool to Default tool)

G00 Z5.000000
G00 X16.921790 Y9.088750

G01 Z-0.125000 F100.0(Penetrate)
G01 X16.878690 Y9.162950 Z-0.125000 F400.000000
G01 X16.877690 Y9.135850 Z-0.125000
G01 X16.876690 Y9.108650 Z-0.125000
G01 X16.901990 Y9.042650 Z-0.125000
G01 X16.927290 Y8.976650 Z-0.125000
G01 X16.946290 Y8.995650 Z-0.125000
G01 X16.965290 Y9.014650 Z-0.125000
G01 X16.922190 Y9.088850 Z-0.125000
G01 X16.921790 Y9.088750 Z-0.125000
G00 Z5.000000

(End cutting path id: path220320)


(Start cutting path id: path220320)
(Change tool to Default tool)

G00 Z5.000000
G00 X16.814660 Y8.299320

G01 Z-0.125000 F100.0(Penetrate)
G01 X16.790060 Y8.431400 Z-0.125000 F400.000000
G01 X16.853460 Y8.582490 Z-0.125000
G01 X16.916860 Y8.733590 Z-0.125000
G01 X16.916860 Y8.801490 Z-0.125000
G01 X16.916860 Y8.869390 Z-0.125000
G01 X16.857160 Y8.914490 Z-0.125000
G01 X16.797460 Y8.959590 Z-0.125000
G01 X16.754060 Y9.264390 Z-0.125000
G01 X16.710660 Y9.569190 Z-0.125000
G01 X16.691960 Y9.656990 Z-0.125000
G01 X16.673260 Y9.744790 Z-0.125000
G01 X16.743260 Y9.734490 Z-0.125000
G01 X16.813260 Y9.724190 Z-0.125000
G01 X16.949820 Y9.341840 Z-0.125000
G01 X17.086390 Y8.959490 Z-0.125000
G01 X17.064490 Y8.756290 Z-0.125000
G01 X17.042590 Y8.553090 Z-0.125000
G01 X17.015090 Y8.360050 Z-0.125000
G01 X16.987590 Y8.167010 Z-0.125000
G01 X16.913390 Y8.167010 Z-0.125000
G01 X16.839290 Y8.167010 Z-0.125000
G01 X16.814660 Y8.299320 Z-0.125000
G00 Z5.000000

(End cutting path id: path220320)


(Start cutting path id: path220320)
(Change tool to Default tool)

G00 Z5.000000
G00 X15.111710 Y8.360280

G01 Z-0.125000 F100.0(Penetrate)
G01 X15.084210 Y8.553320 Z-0.125000 F400.000000
G01 X15.062510 Y8.756520 Z-0.125000
G01 X15.040710 Y8.959720 Z-0.125000
G01 X15.170240 Y9.325480 Z-0.125000
G01 X15.299770 Y9.691240 Z-0.125000
G01 X15.326570 Y9.740240 Z-0.125000
G01 X15.353370 Y9.789140 Z-0.125000
G01 X15.398770 Y9.760540 Z-0.125000
G01 X15.444170 Y9.731940 Z-0.125000
G01 X15.387070 Y9.348000 Z-0.125000
G01 X15.329970 Y8.964060 Z-0.125000
G01 X15.264870 Y8.892160 Z-0.125000
G01 X15.199770 Y8.820160 Z-0.125000
G01 X15.268070 Y8.611250 Z-0.125000
G01 X15.336370 Y8.402340 Z-0.125000
G01 X15.310570 Y8.284820 Z-0.125000
G01 X15.284770 Y8.167290 Z-0.125000
G01 X15.211970 Y8.167290 Z-0.125000
G01 X15.139170 Y8.167290 Z-0.125000
G01 X15.111710 Y8.360280 Z-0.125000
G00 Z5.000000

(End cutting path id: path220320)


(Start cutting path id: path220320)
(Change tool to Default tool)

G00 Z5.000000
G00 X15.249960 Y9.094200

G01 Z-0.125000 F100.0(Penetrate)
G01 X15.249350 Y9.162900 Z-0.125000 F400.000000
G01 X15.209950 Y9.101900 Z-0.125000
G01 X15.170550 Y9.040900 Z-0.125000
G01 X15.169950 Y9.008000 Z-0.125000
G01 X15.169340 Y8.975100 Z-0.125000
G01 X15.209940 Y9.000200 Z-0.125000
G01 X15.250540 Y9.025300 Z-0.125000
G01 X15.249940 Y9.094000 Z-0.125000
G01 X15.249960 Y9.094200 Z-0.125000
G00 Z5.000000

(End cutting path id: path220320)


(Start cutting path id: path220320)
(Change tool to Default tool)

G00 Z5.000000
G00 X14.296950 Y7.869230

G01 Z-0.125000 F100.0(Penetrate)
G01 X14.268950 Y8.018270 Z-0.125000 F400.000000
G01 X14.165640 Y8.153710 Z-0.125000
G01 X14.062330 Y8.289160 Z-0.125000
G01 X13.943760 Y8.289160 Z-0.125000
G01 X13.825190 Y8.289160 Z-0.125000
G01 X14.060350 Y8.005650 Z-0.125000
G01 X14.295500 Y7.722150 Z-0.125000
G01 X14.310200 Y7.721240 Z-0.125000
G01 X14.324900 Y7.720330 Z-0.125000
G01 X14.296900 Y7.869370 Z-0.125000
G01 X14.296950 Y7.869230 Z-0.125000
G00 Z5.000000

(End cutting path id: path220320)


(Start cutting path id: path220320)
(Change tool to Default tool)

G00 Z5.000000
G00 X14.160240 Y7.710040

G01 Z-0.125000 F100.0(Penetrate)
G01 X13.959190 Y7.943720 Z-0.125000 F400.000000
G01 X13.697950 Y8.248520 Z-0.125000
G01 X13.436710 Y8.553320 Z-0.125000
G01 X13.339410 Y8.567420 Z-0.125000
G01 X13.242110 Y8.581520 Z-0.125000
G01 X13.077970 Y8.698520 Z-0.125000
G01 X12.913830 Y8.815510 Z-0.125000
G01 X12.831830 Y8.887610 Z-0.125000
G01 X12.749830 Y8.959710 Z-0.125000
G01 X12.694130 Y9.264510 Z-0.125000
G01 X12.638430 Y9.569310 Z-0.125000
G01 X12.608430 Y9.833470 Z-0.125000
G01 X12.578430 Y10.097630 Z-0.125000
G01 X12.532830 Y10.212040 Z-0.125000
G01 X12.487130 Y10.326440 Z-0.125000
G01 X12.487130 Y10.364440 Z-0.125000
G01 X12.487130 Y10.402440 Z-0.125000
G01 X12.561030 Y10.402440 Z-0.125000
G01 X12.634930 Y10.402440 Z-0.125000
G01 X12.835340 Y10.342040 Z-0.125000
G01 X13.035760 Y10.281640 Z-0.125000
G01 X13.290140 Y9.783250 Z-0.125000
G01 X13.544520 Y9.284870 Z-0.125000
G01 X13.605120 Y9.042650 Z-0.125000
G01 X13.665720 Y8.800430 Z-0.125000
G01 X13.665720 Y8.743730 Z-0.125000
G01 X13.665720 Y8.687030 Z-0.125000
G01 X13.772640 Y8.559250 Z-0.125000
G01 X13.879550 Y8.431460 Z-0.125000
G01 X14.002100 Y8.411160 Z-0.125000
G01 X14.124640 Y8.390860 Z-0.125000
G01 X14.244840 Y8.242040 Z-0.125000
G01 X14.365030 Y8.093210 Z-0.125000
G01 X14.421930 Y7.821830 Z-0.125000
G01 X14.478830 Y7.550440 Z-0.125000
G01 X14.455930 Y7.513440 Z-0.125000
G01 X14.433030 Y7.476440 Z-0.125000
G01 X14.397230 Y7.476440 Z-0.125000
G01 X14.361430 Y7.476440 Z-0.125000
G01 X14.160240 Y7.710040 Z-0.125000
G00 Z5.000000

(End cutting path id: path220320)


(Start cutting path id: path220320)
(Change tool to Default tool)

G00 Z5.000000
G00 X13.669880 Y8.508150

G01 Z-0.125000 F100.0(Penetrate)
G01 X13.578680 Y8.605250 Z-0.125000 F400.000000
G01 X13.517280 Y8.904420 Z-0.125000
G01 X13.455880 Y9.203590 Z-0.125000
G01 X13.405580 Y9.305190 Z-0.125000
G03 X13.385341 Y9.345607 Z-0.125000 I-35.784605 J-17.893945
G03 X13.369126 Y9.377888 Z-0.125000 I-23.298308 J-11.683153
G03 X13.352886 Y9.410095 Z-0.125000 I-19.367929 J-9.745842
G03 X13.339224 Y9.437070 Z-0.125000 I-14.636827 J-7.395718
G03 X13.325528 Y9.463986 Z-0.125000 I-13.430349 J-6.817220
G03 X13.312962 Y9.488562 Z-0.125000 I-12.998669 J-6.630915
G03 X13.300355 Y9.513107 Z-0.125000 I-13.912322 J-7.130187
G03 X13.287423 Y9.538191 Z-0.125000 I-19.418049 J-9.995232
G03 X13.274453 Y9.563279 Z-0.125000 I-26.189333 J-13.523532
G03 X13.259692 Y9.591782 Z-0.125000 I-73.746052 J-38.170081
G03 X13.244905 Y9.620322 Z-0.125000 I-268.515422 J-138.939531
G02 X13.226857 Y9.655162 Z-0.125000 I115.826500 J59.996605
G02 X13.208794 Y9.690061 Z-0.125000 I84.187814 J43.595161
G02 X13.186001 Y9.734156 Z-0.125000 I71.086763 J36.773738
G02 X13.163205 Y9.778322 Z-0.125000 I71.999742 J37.189363
G02 X13.134210 Y9.834590 Z-0.125000 I81.502930 J42.034755
G01 X12.962640 Y10.167820 Z-0.125000
G01 X12.822020 Y10.226620 Z-0.125000
G01 X12.681390 Y10.285420 Z-0.125000
G01 X12.661390 Y10.265420 Z-0.125000
G01 X12.641390 Y10.245420 Z-0.125000
G01 X12.686690 Y10.108230 Z-0.125000
G01 X12.731990 Y9.971040 Z-0.125000
G01 X12.726990 Y9.831180 Z-0.125000
G01 X12.721990 Y9.691330 Z-0.125000
G01 X12.782890 Y9.375860 Z-0.125000
G01 X12.843790 Y9.060390 Z-0.125000
G01 X12.899190 Y8.993190 Z-0.125000
G01 X12.954590 Y8.925990 Z-0.125000
G01 X13.113090 Y8.810840 Z-0.125000
G01 X13.271580 Y8.695700 Z-0.125000
G01 X13.368280 Y8.695700 Z-0.125000
G01 X13.464980 Y8.695700 Z-0.125000
G01 X13.589870 Y8.553460 Z-0.125000
G01 X13.714760 Y8.411220 Z-0.125000
G01 X13.737960 Y8.411220 Z-0.125000
G01 X13.761160 Y8.411220 Z-0.125000
G01 X13.669880 Y8.508150 Z-0.125000
G00 Z5.000000

(End cutting path id: path220320)


(Start cutting path id: path220320)
(Change tool to Default tool)

G00 Z5.000000
G00 X15.396420 Y6.856390

G01 Z-0.125000 F100.0(Penetrate)
G01 X15.372520 Y6.880290 Z-0.125000 F400.000000
G01 X15.351220 Y6.858990 Z-0.125000
G01 X15.329920 Y6.837690 Z-0.125000
G01 X15.360120 Y6.760790 Z-0.125000
G01 X15.390320 Y6.683890 Z-0.125000
G01 X15.405320 Y6.758190 Z-0.125000
G01 X15.420320 Y6.832490 Z-0.125000
G01 X15.396420 Y6.856390 Z-0.125000
G00 Z5.000000

(End cutting path id: path220320)


(Start cutting path id: path220320)
(Change tool to Default tool)

G00 Z5.000000
G00 X15.253800 Y6.687930

G01 Z-0.125000 F100.0(Penetrate)
G01 X15.206700 Y6.874870 Z-0.125000 F400.000000
G01 X15.253900 Y6.931770 Z-0.125000
G01 X15.301100 Y6.988670 Z-0.125000
G01 X15.369300 Y6.988670 Z-0.125000
G01 X15.437500 Y6.988670 Z-0.125000
G01 X15.486300 Y6.939870 Z-0.125000
G01 X15.535100 Y6.891070 Z-0.125000
G01 X15.535100 Y6.815870 Z-0.125000
G01 X15.535100 Y6.740670 Z-0.125000
G01 X15.473100 Y6.620770 Z-0.125000
G01 X15.411100 Y6.500860 Z-0.125000
G01 X15.356000 Y6.500860 Z-0.125000
G01 X15.300900 Y6.500860 Z-0.125000
G01 X15.253800 Y6.687930 Z-0.125000
G00 Z5.000000

(End cutting path id: path220320)


(Start cutting path id: path220320)
(Change tool to Default tool)

G00 Z5.000000
G00 X15.684910 Y12.995550

G01 Z-0.125000 F100.0(Penetrate)
G01 X15.575710 Y13.109540 Z-0.125000 F400.000000
G01 X15.575710 Y14.369710 Z-0.125000
G01 X15.575710 Y15.629890 Z-0.125000
G01 X15.453780 Y15.746700 Z-0.125000
G01 X15.331870 Y15.863500 Z-0.125000
G01 X15.331870 Y15.916900 Z-0.125000
G01 X15.331870 Y15.970300 Z-0.125000
G01 X15.383270 Y15.970300 Z-0.125000
G01 X15.434670 Y15.970300 Z-0.125000
G01 X15.657050 Y15.889000 Z-0.125000
G01 X15.879420 Y15.807700 Z-0.125000
G01 X15.890120 Y15.807700 Z-0.125000
G01 X15.900820 Y15.807700 Z-0.125000
G01 X15.900820 Y14.344650 Z-0.125000
G01 X15.900820 Y12.881610 Z-0.125000
G01 X15.847420 Y12.881610 Z-0.125000
G01 X15.794120 Y12.881610 Z-0.125000
G01 X15.684910 Y12.995550 Z-0.125000
G00 Z5.000000

(End cutting path id: path220320)


(Start cutting path id: path220320)
(Change tool to Default tool)

G00 Z5.000000
G00 X16.421020 Y13.133540

G01 Z-0.125000 F100.0(Penetrate)
G01 X16.469820 Y13.182340 Z-0.125000 F400.000000
G01 X16.469820 Y14.446240 Z-0.125000
G01 X16.469820 Y15.710150 Z-0.125000
G01 X16.520620 Y15.762050 Z-0.125000
G01 X16.571420 Y15.813950 Z-0.125000
G01 X16.463270 Y15.765350 Z-0.125000
G01 X16.355110 Y15.716750 Z-0.125000
G01 X16.329110 Y15.578390 Z-0.125000
G01 X16.303110 Y15.440020 Z-0.125000
G01 X16.310110 Y14.262460 Z-0.125000
G01 X16.317110 Y13.084910 Z-0.125000
G01 X16.345110 Y13.084910 Z-0.125000
G01 X16.373110 Y13.084910 Z-0.125000
G01 X16.421020 Y13.133540 Z-0.125000
G00 Z5.000000

(End cutting path id: path220320)


(Start cutting path id: path220320)
(Change tool to Default tool)

G00 Z5.000000
G00 X16.225940 Y14.339170

G01 Z-0.125000 F100.0(Penetrate)
G01 X16.225940 Y15.796760 Z-0.125000 F400.000000
G01 X16.463800 Y15.883460 Z-0.125000
G01 X16.701650 Y15.970160 Z-0.125000
G01 X16.748250 Y15.970160 Z-0.125000
G01 X16.794850 Y15.970160 Z-0.125000
G01 X16.794850 Y15.916760 Z-0.125000
G01 X16.794850 Y15.863360 Z-0.125000
G01 X16.672930 Y15.746560 Z-0.125000
G01 X16.551010 Y15.629750 Z-0.125000
G01 X16.551010 Y14.351760 Z-0.125000
G01 X16.551010 Y13.073770 Z-0.125000
G01 X16.439250 Y12.977670 Z-0.125000
G01 X16.327490 Y12.881570 Z-0.125000
G01 X16.276690 Y12.881530 Z-0.125000
G01 X16.225890 Y12.881490 Z-0.125000
G01 X16.225890 Y14.339090 Z-0.125000
G01 X16.225940 Y14.339170 Z-0.125000
G00 Z5.000000

(End cutting path id: path220320)


(Start cutting path id: path220320)
(Change tool to Default tool)

G00 Z5.000000
G00 X15.786830 Y15.670070

G01 Z-0.125000 F100.0(Penetrate)
G01 X15.774430 Y15.715370 Z-0.125000 F400.000000
G01 X15.664900 Y15.764570 Z-0.125000
G01 X15.555380 Y15.813870 Z-0.125000
G01 X15.606180 Y15.761970 Z-0.125000
G01 X15.656980 Y15.710070 Z-0.125000
G01 X15.656980 Y14.446160 Z-0.125000
G01 X15.656980 Y13.182260 Z-0.125000
G01 X15.707780 Y13.131360 Z-0.125000
G01 X15.758580 Y13.080460 Z-0.125000
G01 X15.778880 Y14.352540 Z-0.125000
G01 X15.799180 Y15.624620 Z-0.125000
G01 X15.786830 Y15.670070 Z-0.125000
G00 Z5.000000

(End cutting path id: path220320)


(Start cutting path id: path220320)
(Change tool to Default tool)

G00 Z5.000000
G00 X22.763610 Y14.476690

G01 Z-0.125000 F100.0(Penetrate)
G01 X22.702010 Y14.527490 Z-0.125000 F400.000000
G01 X22.461160 Y14.869080 Z-0.125000
G01 X22.220320 Y15.210660 Z-0.125000
G01 X21.813920 Y15.638150 Z-0.125000
G01 X21.407520 Y16.065630 Z-0.125000
G01 X21.001110 Y16.390220 Z-0.125000
G01 X20.594710 Y16.714810 Z-0.125000
G01 X20.403230 Y16.832720 Z-0.125000
G01 X20.211750 Y16.950630 Z-0.125000
G03 X20.188256 Y16.967110 Z-0.125000 I-4.715484 J-6.697586
G03 X20.170068 Y16.979775 Z-0.125000 I-3.801977 J-5.440489
G03 X20.151860 Y16.992360 Z-0.125000 I-3.489112 J-5.028469
G03 X20.137886 Y17.001951 Z-0.125000 I-3.226301 J-4.685800
G03 X20.123908 Y17.011485 Z-0.125000 I-3.381364 J-4.942468
G03 X20.113087 Y17.018834 Z-0.125000 I-6.094300 J-8.962144
G03 X20.102282 Y17.026161 Z-0.125000 I-72.870585 J-107.440364
G02 X20.093554 Y17.032099 Z-0.125000 I2.007638 J2.960705
G02 X20.084865 Y17.038061 Z-0.125000 I1.153342 J1.690098
G02 X20.077170 Y17.043421 Z-0.125000 I0.601103 J0.871181
G02 X20.069534 Y17.048852 Z-0.125000 I0.502554 J0.714723
G02 X20.061820 Y17.054475 Z-0.125000 I0.440923 J0.612994
G02 X20.054169 Y17.060199 Z-0.125000 I0.460290 J0.623147
G02 X20.045385 Y17.066936 Z-0.125000 I0.582543 J0.768634
G02 X20.036656 Y17.073778 Z-0.125000 I0.707625 J0.911741
G02 X20.025750 Y17.082480 Z-0.125000 I1.134199 J1.432720
G01 X19.497430 Y17.334590 Z-0.125000
G01 X18.969110 Y17.586710 Z-0.125000
G01 X18.599400 Y17.709760 Z-0.125000
G01 X18.229680 Y17.832820 Z-0.125000
G01 X17.766280 Y17.935880 Z-0.125000
G01 X17.302870 Y18.038940 Z-0.125000
G01 X16.855830 Y18.086740 Z-0.125000
G01 X16.408790 Y18.134540 Z-0.125000
G01 X15.778870 Y18.111040 Z-0.125000
G01 X15.148950 Y18.087540 Z-0.125000
G01 X14.783180 Y18.022140 Z-0.125000
G01 X14.417420 Y17.956740 Z-0.125000
G01 X14.092300 Y17.876640 Z-0.125000
G01 X13.767180 Y17.796540 Z-0.125000
G01 X13.523340 Y17.710540 Z-0.125000
G01 X13.279500 Y17.624540 Z-0.125000
G01 X12.934060 Y17.479450 Z-0.125000
G01 X12.588620 Y17.334370 Z-0.125000
G01 X12.263500 Y17.155880 Z-0.125000
G01 X11.938380 Y16.977400 Z-0.125000
G01 X11.694540 Y16.813850 Z-0.125000
G01 X11.450700 Y16.650300 Z-0.125000
G01 X11.079450 Y16.350750 Z-0.125000
G01 X10.708210 Y16.051200 Z-0.125000
G01 X10.347930 Y15.674050 Z-0.125000
G01 X9.987650 Y15.296900 Z-0.125000
G01 X9.680860 Y14.891860 Z-0.125000
G01 X9.374080 Y14.486820 Z-0.125000
G01 X9.284580 Y14.473820 Z-0.125000
G01 X9.195080 Y14.460820 Z-0.125000
G01 X9.195080 Y14.504220 Z-0.125000
G01 X9.195080 Y14.547620 Z-0.125000
G01 X9.346160 Y14.761080 Z-0.125000
G01 X9.497230 Y14.974540 Z-0.125000
G01 X9.717770 Y15.259010 Z-0.125000
G01 X9.938300 Y15.543490 Z-0.125000
G01 X10.206770 Y15.822420 Z-0.125000
G01 X10.475250 Y16.101350 Z-0.125000
G01 X10.841000 Y16.409000 Z-0.125000
G01 X11.206770 Y16.716660 Z-0.125000
G01 X11.662190 Y17.012590 Z-0.125000
G01 X12.117610 Y17.308530 Z-0.125000
G01 X12.410590 Y17.456070 Z-0.125000
G01 X12.703560 Y17.603610 Z-0.125000
G01 X13.072770 Y17.746160 Z-0.125000
G01 X13.441970 Y17.888720 Z-0.125000
G01 X13.841340 Y18.004440 Z-0.125000
G01 X14.240710 Y18.120170 Z-0.125000
G01 X14.735420 Y18.200770 Z-0.125000
G01 X15.230140 Y18.281370 Z-0.125000
G01 X15.656860 Y18.308070 Z-0.125000
G01 X16.083580 Y18.334770 Z-0.125000
G01 X16.652540 Y18.289170 Z-0.125000
G01 X17.221500 Y18.243570 Z-0.125000
G01 X17.709180 Y18.145070 Z-0.125000
G01 X18.196860 Y18.046570 Z-0.125000
G01 X18.671170 Y17.886750 Z-0.125000
G01 X19.145480 Y17.726930 Z-0.125000
G01 X19.687170 Y17.457680 Z-0.125000
G01 X20.228860 Y17.188430 Z-0.125000
G01 X20.735440 Y16.833420 Z-0.125000
G01 X21.242010 Y16.478400 Z-0.125000
G01 X21.713820 Y16.011040 Z-0.125000
G01 X22.185620 Y15.543680 Z-0.125000
G01 X22.363000 Y15.330220 Z-0.125000
G01 X22.540380 Y15.116760 Z-0.125000
G01 X22.735910 Y14.829220 Z-0.125000
G01 X22.931430 Y14.541690 Z-0.125000
G01 X22.931430 Y14.483890 Z-0.125000
G01 X22.931430 Y14.426090 Z-0.125000
G01 X22.878230 Y14.426090 Z-0.125000
G01 X22.825030 Y14.426090 Z-0.125000
G01 X22.763430 Y14.476890 Z-0.125000
G01 X22.763610 Y14.476690 Z-0.125000
G00 Z5.000000

(End cutting path id: path220320)


(Start cutting path id: path220320)
(Change tool to Default tool)

G00 Z5.000000
G00 X22.443880 Y11.221040

G01 Z-0.125000 F100.0(Penetrate)
G01 X21.935880 Y11.423500 Z-0.125000 F400.000000
G01 X21.901280 Y11.457700 Z-0.125000
G01 X21.866680 Y11.491900 Z-0.125000
G01 X21.501900 Y11.391900 Z-0.125000
G01 X21.137120 Y11.291900 Z-0.125000
G01 X21.012220 Y11.304400 Z-0.125000
G01 X20.887330 Y11.316900 Z-0.125000
G01 X20.812830 Y11.418500 Z-0.125000
G01 X20.738330 Y11.520110 Z-0.125000
G01 X20.553810 Y11.967140 Z-0.125000
G01 X20.369290 Y12.414180 Z-0.125000
G01 X20.309490 Y12.779950 Z-0.125000
G01 X20.249690 Y13.145710 Z-0.125000
G01 X20.249530 Y13.423350 Z-0.125000
G01 X20.249370 Y13.700990 Z-0.125000
G01 X20.392560 Y13.875730 Z-0.125000
G01 X20.535740 Y14.050480 Z-0.125000
G01 X21.008540 Y14.324180 Z-0.125000
G01 X21.481330 Y14.597880 Z-0.125000
G01 X21.627350 Y14.617180 Z-0.125000
G01 X21.773370 Y14.636480 Z-0.125000
G01 X22.462690 Y14.449890 Z-0.125000
G01 X23.152000 Y14.263290 Z-0.125000
G01 X23.234900 Y14.264290 Z-0.125000
G01 X23.317700 Y14.265290 Z-0.125000
G01 X23.396600 Y14.324990 Z-0.125000
G01 X23.475500 Y14.384690 Z-0.125000
G01 X24.923860 Y14.384690 Z-0.125000
G01 X26.372230 Y14.384690 Z-0.125000
G01 X28.191940 Y14.586690 Z-0.125000
G01 X30.011650 Y14.788700 Z-0.125000
G01 X30.127240 Y14.728900 Z-0.125000
G01 X30.242820 Y14.669100 Z-0.125000
G01 X30.265120 Y14.669100 Z-0.125000
G01 X30.287420 Y14.669100 Z-0.125000
G01 X30.287420 Y14.730100 Z-0.125000
G01 X30.287420 Y14.791100 Z-0.125000
G01 X30.321120 Y14.791100 Z-0.125000
G01 X30.354820 Y14.791100 Z-0.125000
G01 X30.549400 Y14.919990 Z-0.125000
G01 X30.743980 Y15.048870 Z-0.125000
G01 X30.914260 Y15.316230 Z-0.125000
G01 X31.084530 Y15.583590 Z-0.125000
G01 X31.181330 Y15.844710 Z-0.125000
G01 X31.278130 Y16.105840 Z-0.125000
G01 X31.277520 Y16.352720 Z-0.125000
G01 X31.276920 Y16.599590 Z-0.125000
G01 X31.203220 Y16.741830 Z-0.125000
G01 X31.129520 Y16.884070 Z-0.125000
G01 X30.932050 Y17.121300 Z-0.125000
G01 X30.734580 Y17.358540 Z-0.125000
G01 X30.734580 Y17.415940 Z-0.125000
G01 X30.734580 Y17.473340 Z-0.125000
G01 X30.786280 Y17.473340 Z-0.125000
G01 X30.837880 Y17.473340 Z-0.125000
G01 X31.162150 Y17.286390 Z-0.125000
G01 X31.486420 Y17.099440 Z-0.125000
G01 X31.598450 Y16.971430 Z-0.125000
G01 X31.710480 Y16.843420 Z-0.125000
G01 X31.869360 Y16.558940 Z-0.125000
G01 X32.028230 Y16.274460 Z-0.125000
G01 X32.072330 Y16.033310 Z-0.125000
G01 X32.116430 Y15.792170 Z-0.125000
G01 X32.116430 Y15.474250 Z-0.125000
G01 X32.116430 Y15.156320 Z-0.125000
G01 X32.054030 Y14.740870 Z-0.125000
G01 X31.991630 Y14.325430 Z-0.125000
G01 X31.851820 Y13.907620 Z-0.125000
G01 X31.712020 Y13.489820 Z-0.125000
G01 X31.568120 Y13.264870 Z-0.125000
G01 X31.424220 Y13.039930 Z-0.125000
G01 X31.278110 Y12.911640 Z-0.125000
G01 X31.131990 Y12.783350 Z-0.125000
G01 X31.042790 Y12.737050 Z-0.125000
G01 X30.953590 Y12.690750 Z-0.125000
G01 X30.671370 Y12.527220 Z-0.125000
G01 X30.389140 Y12.363680 Z-0.125000
G01 X30.165620 Y12.319080 Z-0.125000
G01 X29.942100 Y12.274480 Z-0.125000
G01 X29.271540 Y12.129090 Z-0.125000
G01 X28.600980 Y11.983700 Z-0.125000
G01 X27.869460 Y11.824220 Z-0.125000
G01 X27.137940 Y11.664750 Z-0.125000
G01 X26.101610 Y11.441530 Z-0.125000
G01 X25.065290 Y11.218320 Z-0.125000
G01 X24.584520 Y11.114920 Z-0.125000
G01 X24.103750 Y11.011520 Z-0.125000
G01 X23.527880 Y11.014520 Z-0.125000
G01 X22.952010 Y11.017520 Z-0.125000
G01 X22.444010 Y11.219980 Z-0.125000
G01 X22.443880 Y11.221040 Z-0.125000
G00 Z5.000000

(End cutting path id: path220320)


(Start cutting path id: path220320)
(Change tool to Default tool)

G00 Z5.000000
G00 X27.276130 Y11.812180

G01 Z-0.125000 F100.0(Penetrate)
G01 X30.381180 Y12.485000 Z-0.125000 F400.000000
G01 X30.776520 Y12.723820 Z-0.125000
G01 X31.171850 Y12.962640 Z-0.125000
G01 X31.317150 Y13.123470 Z-0.125000
G01 X31.462460 Y13.284310 Z-0.125000
G01 X31.551560 Y13.458860 Z-0.125000
G01 X31.640660 Y13.633410 Z-0.125000
G01 X31.754120 Y13.969090 Z-0.125000
G01 X31.867590 Y14.304760 Z-0.125000
G01 X31.935290 Y14.709730 Z-0.125000
G01 X32.002990 Y15.114690 Z-0.125000
G01 X31.988490 Y15.596350 Z-0.125000
G01 X31.973990 Y16.078020 Z-0.125000
G01 X31.803890 Y16.420360 Z-0.125000
G01 X31.633800 Y16.762700 Z-0.125000
G01 X31.499090 Y16.896820 Z-0.125000
G01 X31.364390 Y17.030950 Z-0.125000
G01 X31.181510 Y17.138410 Z-0.125000
G01 X30.998620 Y17.245870 Z-0.125000
G01 X31.112260 Y17.095980 Z-0.125000
G01 X31.225890 Y16.946090 Z-0.125000
G01 X31.304390 Y16.773120 Z-0.125000
G01 X31.382890 Y16.600140 Z-0.125000
G01 X31.382920 Y16.335980 Z-0.125000
G01 X31.382960 Y16.071820 Z-0.125000
G01 X31.283860 Y15.791040 Z-0.125000
G01 X31.184760 Y15.510260 Z-0.125000
G01 X30.997760 Y15.229040 Z-0.125000
G01 X30.810750 Y14.947800 Z-0.125000
G01 X30.610010 Y14.823010 Z-0.125000
G01 X30.409260 Y14.698220 Z-0.125000
G01 X30.409260 Y14.602720 Z-0.125000
G01 X30.409260 Y14.507220 Z-0.125000
G01 X30.346660 Y14.507220 Z-0.125000
G01 X30.284060 Y14.507220 Z-0.125000
G01 X30.122130 Y14.589820 Z-0.125000
G01 X29.960200 Y14.672420 Z-0.125000
G01 X28.101910 Y14.466490 Z-0.125000
G01 X26.243620 Y14.260560 Z-0.125000
G01 X24.869000 Y14.265560 Z-0.125000
G01 X23.494390 Y14.270560 Z-0.125000
G01 X23.423090 Y14.206060 Z-0.125000
G01 X23.351790 Y14.141560 Z-0.125000
G01 X23.253390 Y14.142470 Z-0.125000
G01 X23.154990 Y14.143380 Z-0.125000
G01 X22.423470 Y14.343010 Z-0.125000
G01 X21.691950 Y14.542640 Z-0.125000
G01 X21.525760 Y14.469240 Z-0.125000
G01 X21.359580 Y14.395840 Z-0.125000
G01 X20.977120 Y14.169510 Z-0.125000
G01 X20.594660 Y13.943180 Z-0.125000
G01 X20.476380 Y13.792580 Z-0.125000
G01 X20.358110 Y13.641970 Z-0.125000
G01 X20.360110 Y13.390060 Z-0.125000
G01 X20.362110 Y13.138140 Z-0.125000
G01 X20.410510 Y12.837250 Z-0.125000
G01 X20.458910 Y12.536360 Z-0.125000
G01 X20.563600 Y12.251880 Z-0.125000
G01 X20.668290 Y11.967400 Z-0.125000
G01 X20.802370 Y11.698230 Z-0.125000
G01 X20.936450 Y11.429050 Z-0.125000
G01 X20.991250 Y11.408050 Z-0.125000
G01 X21.046050 Y11.387050 Z-0.125000
G01 X21.387270 Y11.477350 Z-0.125000
G01 X21.728500 Y11.567650 Z-0.125000
G01 X21.744300 Y11.615150 Z-0.125000
G01 X21.760200 Y11.662650 Z-0.125000
G01 X21.805000 Y11.662650 Z-0.125000
G01 X21.849800 Y11.662650 Z-0.125000
G01 X21.933700 Y11.586850 Z-0.125000
G01 X22.017600 Y11.511050 Z-0.125000
G01 X22.525610 Y11.312550 Z-0.125000
G01 X23.033610 Y11.114050 Z-0.125000
G01 X23.602570 Y11.126850 Z-0.125000
G01 X24.171530 Y11.139650 Z-0.125000
G01 X27.276580 Y11.812470 Z-0.125000
G01 X27.276130 Y11.812180 Z-0.125000
G00 Z5.000000

(End cutting path id: path220320)


(Start cutting path id: path220320)
(Change tool to Default tool)

G00 Z5.000000
G00 X9.662570 Y11.333880

G01 Z-0.125000 F100.0(Penetrate)
G01 X10.109620 Y11.512260 Z-0.125000 F400.000000
G01 X10.193520 Y11.587260 Z-0.125000
G01 X10.277420 Y11.662360 Z-0.125000
G01 X10.310920 Y11.662360 Z-0.125000
G01 X10.344420 Y11.662360 Z-0.125000
G01 X10.389520 Y11.606760 Z-0.125000
G01 X10.434620 Y11.551160 Z-0.125000
G01 X10.760490 Y11.471560 Z-0.125000
G01 X11.086360 Y11.391960 Z-0.125000
G01 X11.137860 Y11.409160 Z-0.125000
G01 X11.189360 Y11.426360 Z-0.125000
G01 X11.324080 Y11.696810 Z-0.125000
G01 X11.458800 Y11.967270 Z-0.125000
G01 X11.563200 Y12.251750 Z-0.125000
G01 X11.667600 Y12.536230 Z-0.125000
G01 X11.713500 Y12.814920 Z-0.125000
G01 X11.759400 Y13.093620 Z-0.125000
G01 X11.760310 Y13.372340 Z-0.125000
G01 X11.761220 Y13.651070 Z-0.125000
G01 X11.646630 Y13.797740 Z-0.125000
G01 X11.532030 Y13.944410 Z-0.125000
G01 X11.156700 Y14.166910 Z-0.125000
G01 X10.781360 Y14.389400 Z-0.125000
G01 X10.608060 Y14.465500 Z-0.125000
G01 X10.434750 Y14.541600 Z-0.125000
G01 X9.703230 Y14.342180 Z-0.125000
G01 X8.971710 Y14.142760 Z-0.125000
G01 X8.873310 Y14.142160 Z-0.125000
G01 X8.774910 Y14.141550 Z-0.125000
G01 X8.704310 Y14.205450 Z-0.125000
G01 X8.633710 Y14.269350 Z-0.125000
G01 X7.258410 Y14.265350 Z-0.125000
G01 X5.883100 Y14.261350 Z-0.125000
G01 X4.024180 Y14.466640 Z-0.125000
G01 X2.165270 Y14.671930 Z-0.125000
G01 X2.003960 Y14.589630 Z-0.125000
G01 X1.842650 Y14.507330 Z-0.125000
G01 X1.780050 Y14.507330 Z-0.125000
G01 X1.717450 Y14.507330 Z-0.125000
G01 X1.716850 Y14.598730 Z-0.125000
G01 X1.716240 Y14.690230 Z-0.125000
G01 X1.513980 Y14.822480 Z-0.125000
G01 X1.311720 Y14.954740 Z-0.125000
G01 X1.126960 Y15.232590 Z-0.125000
G01 X0.942200 Y15.510440 Z-0.125000
G01 X0.843100 Y15.791210 Z-0.125000
G01 X0.744000 Y16.071990 Z-0.125000
G01 X0.744030 Y16.336150 Z-0.125000
G01 X0.744070 Y16.600310 Z-0.125000
G01 X0.822570 Y16.773290 Z-0.125000
G01 X0.901070 Y16.946270 Z-0.125000
G01 X1.014700 Y17.096160 Z-0.125000
G01 X1.128330 Y17.246050 Z-0.125000
G01 X0.945450 Y17.138580 Z-0.125000
G01 X0.762570 Y17.031120 Z-0.125000
G01 X0.627860 Y16.897000 Z-0.125000
G01 X0.493160 Y16.762870 Z-0.125000
G01 X0.323060 Y16.420570 Z-0.125000
G01 X0.152970 Y16.078270 Z-0.125000
G01 X0.138870 Y15.587360 Z-0.125000
G01 X0.124870 Y15.096450 Z-0.125000
G01 X0.188870 Y14.725270 Z-0.125000
G01 X0.252970 Y14.354080 Z-0.125000
G01 X0.359450 Y14.014150 Z-0.125000
G01 X0.465940 Y13.674220 Z-0.125000
G01 X0.589490 Y13.440460 Z-0.125000
G01 X0.713040 Y13.206690 Z-0.125000
G01 X0.880050 Y13.053380 Z-0.125000
G01 X1.047060 Y12.900070 Z-0.125000
G01 X1.392500 Y12.693270 Z-0.125000
G01 X1.737940 Y12.486480 Z-0.125000
G01 X4.785950 Y11.822430 Z-0.125000
G01 X7.833950 Y11.158390 Z-0.125000
G01 X8.260670 Y11.136190 Z-0.125000
G01 X8.687390 Y11.113990 Z-0.125000
G01 X8.951560 Y11.134890 Z-0.125000
G01 X9.215720 Y11.155790 Z-0.125000
G01 X9.662760 Y11.334180 Z-0.125000
G01 X9.662570 Y11.333880 Z-0.125000
G00 Z5.000000

(End cutting path id: path220320)


(Start cutting path id: path220320)
(Change tool to Default tool)

G00 Z5.000000
G00 X6.777130 Y11.278580

G01 Z-0.125000 F100.0(Penetrate)
G01 X5.598570 Y11.537320 Z-0.125000 F400.000000
G01 X5.110880 Y11.641080 Z-0.125000
G01 X4.623200 Y11.744830 Z-0.125000
G01 X3.160160 Y12.062970 Z-0.125000
G01 X1.697120 Y12.381100 Z-0.125000
G01 X1.559920 Y12.458600 Z-0.125000
G01 X1.422730 Y12.536100 Z-0.125000
G01 X1.336430 Y12.588300 Z-0.125000
G01 X1.250130 Y12.640500 Z-0.125000
G01 X1.008610 Y12.791500 Z-0.125000
G01 X0.767090 Y12.942500 Z-0.125000
G01 X0.596790 Y13.197080 Z-0.125000
G01 X0.426490 Y13.451650 Z-0.125000
G01 X0.282630 Y13.887960 Z-0.125000
G01 X0.138760 Y14.324260 Z-0.125000
G01 X0.069560 Y14.771300 Z-0.125000
G01 X0.000360 Y15.218350 Z-0.125000
G01 X0.021260 Y15.645070 Z-0.125000
G01 X0.042160 Y16.071790 Z-0.125000
G01 X0.123060 Y16.282400 Z-0.125000
G01 X0.203960 Y16.493010 Z-0.125000
G01 X0.393390 Y16.777950 Z-0.125000
G01 X0.582830 Y17.062900 Z-0.125000
G01 X0.936820 Y17.268360 Z-0.125000
G01 X1.290820 Y17.473810 Z-0.125000
G01 X1.341620 Y17.473840 Z-0.125000
G01 X1.392420 Y17.473870 Z-0.125000
G01 X1.392180 Y17.423070 Z-0.125000
G01 X1.391930 Y17.372270 Z-0.125000
G01 X1.167950 Y17.091670 Z-0.125000
G01 X0.943970 Y16.811080 Z-0.125000
G01 X0.879170 Y16.588280 Z-0.125000
G01 X0.814370 Y16.365490 Z-0.125000
G01 X0.859170 Y16.137360 Z-0.125000
G01 X0.903970 Y15.909230 Z-0.125000
G01 X1.072140 Y15.567330 Z-0.125000
G01 X1.240310 Y15.225430 Z-0.125000
G01 X1.415600 Y15.055070 Z-0.125000
G01 X1.590890 Y14.884700 Z-0.125000
G01 X1.715160 Y14.833200 Z-0.125000
G01 X1.839420 Y14.781700 Z-0.125000
G01 X1.839420 Y14.725700 Z-0.125000
G01 X1.839420 Y14.669700 Z-0.125000
G01 X1.861720 Y14.669700 Z-0.125000
G01 X1.884020 Y14.669700 Z-0.125000
G01 X1.999870 Y14.729600 Z-0.125000
G01 X2.115710 Y14.789500 Z-0.125000
G01 X3.937740 Y14.587350 Z-0.125000
G01 X5.759770 Y14.385200 Z-0.125000
G01 X7.207840 Y14.385200 Z-0.125000
G01 X8.655920 Y14.385200 Z-0.125000
G01 X8.755120 Y14.307100 Z-0.125000
G01 X8.854320 Y14.229000 Z-0.125000
G01 X9.583520 Y14.430950 Z-0.125000
G01 X10.312720 Y14.632900 Z-0.125000
G01 X10.480320 Y14.616200 Z-0.125000
G01 X10.647920 Y14.599500 Z-0.125000
G01 X11.089920 Y14.348330 Z-0.125000
G01 X11.531930 Y14.097170 Z-0.125000
G01 X11.703810 Y13.905880 Z-0.125000
G01 X11.875700 Y13.714600 Z-0.125000
G01 X11.875820 Y13.430110 Z-0.125000
G01 X11.875940 Y13.145630 Z-0.125000
G01 X11.817040 Y12.786550 Z-0.125000
G01 X11.758140 Y12.427460 Z-0.125000
G01 X11.650610 Y12.156620 Z-0.125000
G01 X11.543080 Y11.885790 Z-0.125000
G01 X11.417890 Y11.621630 Z-0.125000
G01 X11.292700 Y11.357470 Z-0.125000
G01 X11.249700 Y11.327570 Z-0.125000
G01 X11.206700 Y11.297670 Z-0.125000
G01 X11.105100 Y11.295670 Z-0.125000
G01 X11.003500 Y11.293670 Z-0.125000
G01 X10.658060 Y11.382070 Z-0.125000
G01 X10.312620 Y11.470470 Z-0.125000
G01 X9.733200 Y11.240930 Z-0.125000
G01 X9.153790 Y11.011400 Z-0.125000
G01 X8.554640 Y11.015400 Z-0.125000
G01 X7.955490 Y11.019400 Z-0.125000
G01 X6.776930 Y11.278140 Z-0.125000
G01 X6.777130 Y11.278580 Z-0.125000
G00 Z5.000000

(End cutting path id: path220320)


(Start cutting path id: path220320)
(Change tool to Default tool)

G00 Z5.000000
G00 X7.575050 Y14.544490

G01 Z-0.125000 F100.0(Penetrate)
G01 X7.526950 Y14.574190 Z-0.125000 F400.000000
G01 X7.580150 Y14.693070 Z-0.125000
G01 X7.633350 Y14.811960 Z-0.125000
G01 X7.753930 Y15.011000 Z-0.125000
G01 X7.874520 Y15.210050 Z-0.125000
G01 X8.093930 Y15.539320 Z-0.125000
G01 X8.313350 Y15.868600 Z-0.125000
G01 X8.418710 Y16.010840 Z-0.125000
G01 X8.524070 Y16.153080 Z-0.125000
G01 X8.791580 Y16.457880 Z-0.125000
G01 X9.059090 Y16.762680 Z-0.125000
G01 X9.421850 Y17.116940 Z-0.125000
G01 X9.784600 Y17.471210 Z-0.125000
G01 X10.069080 Y17.699150 Z-0.125000
G01 X10.353570 Y17.927080 Z-0.125000
G01 X10.759960 Y18.194870 Z-0.125000
G01 X11.166370 Y18.462670 Z-0.125000
G01 X11.617950 Y18.700240 Z-0.125000
G01 X12.069530 Y18.937820 Z-0.125000
G01 X12.469390 Y19.100520 Z-0.125000
G01 X12.869260 Y19.263220 Z-0.125000
G01 X13.419890 Y19.420990 Z-0.125000
G01 X13.970530 Y19.578760 Z-0.125000
G01 X14.519170 Y19.672260 Z-0.125000
G01 X15.067820 Y19.765660 Z-0.125000
G01 X16.043180 Y19.767660 Z-0.125000
G01 X17.018540 Y19.769660 Z-0.125000
G01 X17.465580 Y19.695660 Z-0.125000
G01 X17.912620 Y19.621660 Z-0.125000
G01 X18.319020 Y19.526060 Z-0.125000
G01 X18.725420 Y19.430460 Z-0.125000
G01 X19.192780 Y19.270910 Z-0.125000
G01 X19.660140 Y19.111360 Z-0.125000
G01 X20.005580 Y18.954710 Z-0.125000
G01 X20.351030 Y18.798060 Z-0.125000
G01 X20.737100 Y18.578220 Z-0.125000
G01 X21.123190 Y18.358390 Z-0.125000
G01 X21.407670 Y18.170820 Z-0.125000
G01 X21.692150 Y17.983250 Z-0.125000
G01 X22.087610 Y17.665470 Z-0.125000
G01 X22.483070 Y17.347700 Z-0.125000
G01 X22.870690 Y16.958820 Z-0.125000
G01 X23.258300 Y16.569950 Z-0.125000
G01 X23.505660 Y16.262470 Z-0.125000
G01 X23.753010 Y15.954990 Z-0.125000
G01 X24.026390 Y15.546140 Z-0.125000
G01 X24.299770 Y15.137300 Z-0.125000
G01 X24.454660 Y14.858820 Z-0.125000
G01 X24.609560 Y14.580340 Z-0.125000
G01 X24.556660 Y14.547640 Z-0.125000
G01 X24.503760 Y14.514940 Z-0.125000
G01 X24.458560 Y14.532340 Z-0.125000
G01 X24.413360 Y14.549740 Z-0.125000
G01 X24.358760 Y14.637240 Z-0.125000
G01 X24.304160 Y14.724640 Z-0.125000
G01 X24.201120 Y14.910730 Z-0.125000
G01 X24.098070 Y15.096810 Z-0.125000
G01 X23.923170 Y15.366130 Z-0.125000
G01 X23.748280 Y15.635460 Z-0.125000
G01 X23.544250 Y15.894460 Z-0.125000
G01 X23.340220 Y16.153450 Z-0.125000
G01 X23.085200 Y16.448530 Z-0.125000
G01 X22.830180 Y16.743610 Z-0.125000
G01 X22.484740 Y17.060670 Z-0.125000
G01 X22.139300 Y17.377720 Z-0.125000
G01 X21.903930 Y17.568310 Z-0.125000
G01 X21.668560 Y17.758910 Z-0.125000
G01 X21.314650 Y17.996700 Z-0.125000
G01 X20.960740 Y18.234490 Z-0.125000
G01 X20.594970 Y18.440240 Z-0.125000
G01 X20.229210 Y18.645980 Z-0.125000
G01 X19.863450 Y18.805810 Z-0.125000
G01 X19.497690 Y18.965640 Z-0.125000
G01 X19.130880 Y19.091820 Z-0.125000
G01 X18.764070 Y19.217990 Z-0.125000
G01 X18.357640 Y19.320740 Z-0.125000
G01 X17.951210 Y19.423480 Z-0.125000
G01 X17.383330 Y19.509280 Z-0.125000
G01 X16.815450 Y19.595080 Z-0.125000
G01 X16.083930 Y19.596080 Z-0.125000
G01 X15.352400 Y19.596990 Z-0.125000
G01 X14.864720 Y19.529490 Z-0.125000
G01 X14.377040 Y19.461990 Z-0.125000
G01 X13.950320 Y19.361220 Z-0.125000
G01 X13.523600 Y19.260460 Z-0.125000
G01 X13.079740 Y19.115090 Z-0.125000
G01 X12.635880 Y18.969730 Z-0.125000
G01 X12.307580 Y18.825390 Z-0.125000
G01 X11.979280 Y18.681040 Z-0.125000
G01 X11.715120 Y18.539690 Z-0.125000
G01 X11.450960 Y18.398340 Z-0.125000
G01 X11.207120 Y18.251440 Z-0.125000
G01 X10.963280 Y18.104550 Z-0.125000
G01 X10.678790 Y17.904700 Z-0.125000
G01 X10.394320 Y17.704850 Z-0.125000
G01 X10.090050 Y17.457300 Z-0.125000
G01 X9.785780 Y17.209750 Z-0.125000
G01 X9.415140 Y16.843990 Z-0.125000
G01 X9.044490 Y16.478230 Z-0.125000
G01 X8.720160 Y16.067860 Z-0.125000
G01 X8.395820 Y15.657490 Z-0.125000
G01 X8.165600 Y15.304300 Z-0.125000
G01 X7.935370 Y14.951100 Z-0.125000
G01 X7.835770 Y14.754540 Z-0.125000
G01 X7.736170 Y14.557970 Z-0.125000
G01 X7.679770 Y14.536370 Z-0.125000
G01 X7.623370 Y14.514770 Z-0.125000
G01 X7.575270 Y14.544470 Z-0.125000
G01 X7.575050 Y14.544490 Z-0.125000
G00 Z5.000000

(End cutting path id: path220320)


(Footer)
M5
G00 X0.0000 Y0.0000
M2
(Using default footer. To add your own footer create file "footer" in the output dir.)
(end)
%