%
(Header)
(Generated by gcodetools from Inkscape.)
(Using default header. To add your own header create file "header" in the output dir.)
M3
(Header end.)
G21 (All units in mm)

(Start cutting path id: path220320)
(Change tool to Default tool)

G00 Z5.000000
G00 X1.517110 Y0.055910

G01 Z-0.125000 F100.0(Penetrate)
G01 X1.478110 Y0.107610 Z-0.125000 F400.000000
G01 X1.467210 Y0.156910 Z-0.125000
G01 X1.456310 Y0.206210 Z-0.125000
G01 X1.442410 Y0.239710 Z-0.125000
G01 X1.428510 Y0.273210 Z-0.125000
G01 X1.418210 Y0.324210 Z-0.125000
G01 X1.407910 Y0.375210 Z-0.125000
G01 X1.407910 Y0.409610 Z-0.125000
G01 X1.407910 Y0.444010 Z-0.125000
G01 X1.397510 Y0.505410 Z-0.125000
G01 X1.387110 Y0.566810 Z-0.125000
G01 X1.376210 Y0.581010 Z-0.125000
G01 X1.365310 Y0.595210 Z-0.125000
G01 X1.351110 Y0.616010 Z-0.125000
G01 X1.336910 Y0.636810 Z-0.125000
G01 X1.326010 Y0.652610 Z-0.125000
G01 X1.315110 Y0.668510 Z-0.125000
G01 X1.312110 Y0.694510 Z-0.125000
G01 X1.309110 Y0.720510 Z-0.125000
G01 X1.326310 Y0.717510 Z-0.125000
G01 X1.343510 Y0.714510 Z-0.125000
G01 X1.340510 Y0.727810 Z-0.125000
G01 X1.337510 Y0.741110 Z-0.125000
G01 X1.313010 Y0.786710 Z-0.125000
G01 X1.288510 Y0.832310 Z-0.125000
G01 X1.266610 Y0.853210 Z-0.125000
G01 X1.244710 Y0.874110 Z-0.125000
G01 X1.237710 Y0.888910 Z-0.125000
G01 X1.230710 Y0.903710 Z-0.125000
G01 X1.225710 Y0.952410 Z-0.125000
G01 X1.220710 Y1.001110 Z-0.125000
G01 X1.213710 Y1.015510 Z-0.125000
G01 X1.206710 Y1.029810 Z-0.125000
G01 X1.205710 Y1.040410 Z-0.125000
G01 X1.204710 Y1.051010 Z-0.125000
G01 X1.210710 Y1.059010 Z-0.125000
G01 X1.216710 Y1.067010 Z-0.125000
G01 X1.210710 Y1.062010 Z-0.125000
G01 X1.204710 Y1.057010 Z-0.125000
G01 X1.195710 Y1.057010 Z-0.125000
G01 X1.186710 Y1.057010 Z-0.125000
G01 X1.181710 Y1.074310 Z-0.125000
G01 X1.176710 Y1.091610 Z-0.125000
G01 X1.162510 Y1.103810 Z-0.125000
G01 X1.148310 Y1.116010 Z-0.125000
G01 X1.164510 Y1.148510 Z-0.125000
G01 X1.180710 Y1.181010 Z-0.125000
G01 X1.192810 Y1.217610 Z-0.125000
G01 X1.205010 Y1.254210 Z-0.125000
G01 X1.208010 Y1.284710 Z-0.125000
G01 X1.211010 Y1.315210 Z-0.125000
G01 X1.210110 Y1.347310 Z-0.125000
G01 X1.209210 Y1.379310 Z-0.125000
G01 X1.199210 Y1.392310 Z-0.125000
G01 X1.189210 Y1.405310 Z-0.125000
G01 X1.189210 Y1.411310 Z-0.125000
G01 X1.189210 Y1.417310 Z-0.125000
G01 X1.208510 Y1.425310 Z-0.125000
G01 X1.227810 Y1.433310 Z-0.125000
G01 X1.237810 Y1.443810 Z-0.125000
G01 X1.247810 Y1.454310 Z-0.125000
G01 X1.253810 Y1.454210 Z-0.125000
G01 X1.259810 Y1.454110 Z-0.125000
G01 X1.265810 Y1.449110 Z-0.125000
G01 X1.271810 Y1.444110 Z-0.125000
G01 X1.285710 Y1.423810 Z-0.125000
G01 X1.299610 Y1.403510 Z-0.125000
G01 X1.313110 Y1.379110 Z-0.125000
G01 X1.326610 Y1.354710 Z-0.125000
G01 X1.323610 Y1.368910 Z-0.125000
G01 X1.320610 Y1.383110 Z-0.125000
G01 X1.312610 Y1.404610 Z-0.125000
G01 X1.304610 Y1.426110 Z-0.125000
G01 X1.304610 Y1.434110 Z-0.125000
G01 X1.304610 Y1.442110 Z-0.125000
G01 X1.314810 Y1.441310 Z-0.125000
G01 X1.325010 Y1.440510 Z-0.125000
G01 X1.330010 Y1.435510 Z-0.125000
G01 X1.343210 Y1.426510 Z-0.125000
G01 X1.360010 Y1.416410 Z-0.125000
G01 X1.371010 Y1.399010 Z-0.125000
G01 X1.382010 Y1.381610 Z-0.125000
G01 X1.390010 Y1.383610 Z-0.125000
G01 X1.398010 Y1.385610 Z-0.125000
G01 X1.422310 Y1.366910 Z-0.125000
G01 X1.446610 Y1.348210 Z-0.125000
G01 X1.458910 Y1.348210 Z-0.125000
G01 X1.471210 Y1.348210 Z-0.125000
G01 X1.475210 Y1.330910 Z-0.125000
G01 X1.479210 Y1.313610 Z-0.125000
G01 X1.485210 Y1.291210 Z-0.125000
G01 X1.491210 Y1.268810 Z-0.125000
G01 X1.499210 Y1.238310 Z-0.125000
G01 X1.507210 Y1.207810 Z-0.125000
G01 X1.517410 Y1.187510 Z-0.125000
G01 X1.527610 Y1.167210 Z-0.125000
G01 X1.532610 Y1.164210 Z-0.125000
G01 X1.537610 Y1.161210 Z-0.125000
G01 X1.600610 Y1.161200 Z-0.125000
G01 X1.663610 Y1.161190 Z-0.125000
G01 X1.673610 Y1.164190 Z-0.125000
G01 X1.683610 Y1.167190 Z-0.125000
G01 X1.693610 Y1.188690 Z-0.125000
G01 X1.703610 Y1.210190 Z-0.125000
G01 X1.716210 Y1.258190 Z-0.125000
G01 X1.728810 Y1.306190 Z-0.125000
G01 X1.734810 Y1.327490 Z-0.125000
G01 X1.740810 Y1.348790 Z-0.125000
G01 X1.753810 Y1.348790 Z-0.125000
G01 X1.766710 Y1.348790 Z-0.125000
G01 X1.789010 Y1.367290 Z-0.125000
G01 X1.811310 Y1.385790 Z-0.125000
G01 X1.820310 Y1.383790 Z-0.125000
G01 X1.829310 Y1.381790 Z-0.125000
G01 X1.838310 Y1.395490 Z-0.125000
G01 X1.847310 Y1.409190 Z-0.125000
G01 X1.859810 Y1.418190 Z-0.125000
G01 X1.872310 Y1.427190 Z-0.125000
G01 X1.885510 Y1.434190 Z-0.125000
G01 X1.898710 Y1.441190 Z-0.125000
G01 X1.902710 Y1.441190 Z-0.125000
G01 X1.906710 Y1.441190 Z-0.125000
G01 X1.906650 Y1.434190 Z-0.125000
G01 X1.906590 Y1.427190 Z-0.125000
G01 X1.896490 Y1.395590 Z-0.125000
G01 X1.886390 Y1.363890 Z-0.125000
G01 X1.886590 Y1.358890 Z-0.125000
G01 X1.886790 Y1.353890 Z-0.125000
G01 X1.900590 Y1.380290 Z-0.125000
G01 X1.914390 Y1.406690 Z-0.125000
G01 X1.929890 Y1.426590 Z-0.125000
G01 X1.945390 Y1.446490 Z-0.125000
G01 X1.952390 Y1.450490 Z-0.125000
G01 X1.959390 Y1.454490 Z-0.125000
G01 X1.974990 Y1.442590 Z-0.125000
G01 X1.990590 Y1.430690 Z-0.125000
G01 X2.009890 Y1.421690 Z-0.125000
G01 X2.029190 Y1.412690 Z-0.125000
G01 X2.029190 Y1.410690 Z-0.125000
G01 X2.029190 Y1.408690 Z-0.125000
G01 X2.016890 Y1.393390 Z-0.125000
G01 X2.004590 Y1.378090 Z-0.125000
G01 X2.004390 Y1.337790 Z-0.125000
G01 X2.004190 Y1.297490 Z-0.125000
G01 X2.008190 Y1.268990 Z-0.125000
G01 X2.012190 Y1.240590 Z-0.125000
G01 X2.022490 Y1.210090 Z-0.125000
G01 X2.032790 Y1.179590 Z-0.125000
G01 X2.046890 Y1.152590 Z-0.125000
G01 X2.060990 Y1.125590 Z-0.125000
G01 X2.060990 Y1.117590 Z-0.125000
G01 X2.060990 Y1.109590 Z-0.125000
G01 X2.049290 Y1.100590 Z-0.125000
G01 X2.037590 Y1.091590 Z-0.125000
G01 X2.032590 Y1.074690 Z-0.125000
G01 X2.027590 Y1.057790 Z-0.125000
G01 X2.024590 Y1.053790 Z-0.125000
G01 X2.021590 Y1.049790 Z-0.125000
G01 X2.010690 Y1.056790 Z-0.125000
G01 X1.999790 Y1.063790 Z-0.125000
G01 X2.005790 Y1.054790 Z-0.125000
G01 X2.011790 Y1.045790 Z-0.125000
G01 X2.007790 Y1.033490 Z-0.125000
G01 X2.003790 Y1.021190 Z-0.125000
G01 X1.997790 Y1.012190 Z-0.125000
G01 X1.991790 Y1.003190 Z-0.125000
G01 X1.986790 Y0.952390 Z-0.125000
G01 X1.981790 Y0.901590 Z-0.125000
G01 X1.972790 Y0.885690 Z-0.125000
G01 X1.963790 Y0.869790 Z-0.125000
G01 X1.944390 Y0.851490 Z-0.125000
G01 X1.924990 Y0.833190 Z-0.125000
G01 X1.905390 Y0.798290 Z-0.125000
G01 X1.885790 Y0.763390 Z-0.125000
G01 X1.879790 Y0.749190 Z-0.125000
G01 X1.873790 Y0.734990 Z-0.125000
G01 X1.870790 Y0.725990 Z-0.125000
G01 X1.867790 Y0.716990 Z-0.125000
G01 X1.871790 Y0.713990 Z-0.125000
G01 X1.875790 Y0.710990 Z-0.125000
G01 X1.882790 Y0.714990 Z-0.125000
G01 X1.889790 Y0.718990 Z-0.125000
G01 X1.894790 Y0.715990 Z-0.125000
G01 X1.899790 Y0.712990 Z-0.125000
G01 X1.896790 Y0.689290 Z-0.125000
G01 X1.893790 Y0.665590 Z-0.125000
G01 X1.863190 Y0.620790 Z-0.125000
G01 X1.832590 Y0.575990 Z-0.125000
G01 X1.827590 Y0.569990 Z-0.125000
G01 X1.822590 Y0.563990 Z-0.125000
G01 X1.812190 Y0.502490 Z-0.125000
G01 X1.801790 Y0.440990 Z-0.125000
G01 X1.801790 Y0.405690 Z-0.125000
G01 X1.801790 Y0.370390 Z-0.125000
G01 X1.791690 Y0.320890 Z-0.125000
G01 X1.781590 Y0.271390 Z-0.125000
G01 X1.774590 Y0.255190 Z-0.125000
G01 X1.767590 Y0.238890 Z-0.125000
G01 X1.760590 Y0.222390 Z-0.125000
G01 X1.753590 Y0.205890 Z-0.125000
G01 X1.742390 Y0.155490 Z-0.125000
G01 X1.731190 Y0.105090 Z-0.125000
G01 X1.692290 Y0.053090 Z-0.125000
G01 X1.653390 Y0.001090 Z-0.125000
G01 X1.649390 Y0.001090 Z-0.125000
G01 X1.645390 Y0.001090 Z-0.125000
G01 X1.634090 Y0.011590 Z-0.125000
G01 X1.622790 Y0.022090 Z-0.125000
G01 X1.624790 Y0.038990 Z-0.125000
G01 X1.626790 Y0.055890 Z-0.125000
G01 X1.629790 Y0.094490 Z-0.125000
G01 X1.631790 Y0.133090 Z-0.125000
G01 X1.644490 Y0.146290 Z-0.125000
G01 X1.657190 Y0.159490 Z-0.125000
G01 X1.668290 Y0.159490 Z-0.125000
G01 X1.679390 Y0.159490 Z-0.125000
G01 X1.684390 Y0.180690 Z-0.125000
G01 X1.689390 Y0.201890 Z-0.125000
G01 X1.691390 Y0.246690 Z-0.125000
G01 X1.693390 Y0.291490 Z-0.125000
G01 X1.701390 Y0.323990 Z-0.125000
G01 X1.709390 Y0.356490 Z-0.125000
G01 X1.707390 Y0.386990 Z-0.125000
G01 X1.705390 Y0.417490 Z-0.125000
G01 X1.696390 Y0.438990 Z-0.125000
G01 X1.687390 Y0.460490 Z-0.125000
G01 X1.685390 Y0.458490 Z-0.125000
G01 X1.683390 Y0.456490 Z-0.125000
G01 X1.688390 Y0.437790 Z-0.125000
G01 X1.693390 Y0.419090 Z-0.125000
G01 X1.684390 Y0.386390 Z-0.125000
G01 X1.675390 Y0.353690 Z-0.125000
G01 X1.675390 Y0.351690 Z-0.125000
G01 X1.675390 Y0.349690 Z-0.125000
G01 X1.669390 Y0.349690 Z-0.125000
G01 X1.663390 Y0.349690 Z-0.125000
G01 X1.657390 Y0.362890 Z-0.125000
G01 X1.651390 Y0.376090 Z-0.125000
G01 X1.651090 Y0.360590 Z-0.125000
G01 X1.650790 Y0.345090 Z-0.125000
G01 X1.645790 Y0.336090 Z-0.125000
G01 X1.640790 Y0.327090 Z-0.125000
G01 X1.637790 Y0.266090 Z-0.125000
G01 X1.634790 Y0.205090 Z-0.125000
G01 X1.631790 Y0.192190 Z-0.125000
G01 X1.628790 Y0.179290 Z-0.125000
G01 X1.623790 Y0.177290 Z-0.125000
G01 X1.618790 Y0.175290 Z-0.125000
G01 X1.611790 Y0.203990 Z-0.125000
G01 X1.604790 Y0.232690 Z-0.125000
G01 X1.605790 Y0.331390 Z-0.125000
G01 X1.606790 Y0.430090 Z-0.125000
G01 X1.603790 Y0.433090 Z-0.125000
G01 X1.600790 Y0.436090 Z-0.125000
G01 X1.597790 Y0.433090 Z-0.125000
G01 X1.594790 Y0.430090 Z-0.125000
G01 X1.595790 Y0.332890 Z-0.125000
G01 X1.596790 Y0.235690 Z-0.125000
G01 X1.589790 Y0.205190 Z-0.125000
G01 X1.582790 Y0.174690 Z-0.125000
G01 X1.577790 Y0.174690 Z-0.125000
G01 X1.572790 Y0.174690 Z-0.125000
G01 X1.567790 Y0.206190 Z-0.125000
G01 X1.562790 Y0.237690 Z-0.125000
G01 X1.562820 Y0.277090 Z-0.125000
G01 X1.562850 Y0.316490 Z-0.125000
G01 X1.558850 Y0.327890 Z-0.125000
G01 X1.554850 Y0.339290 Z-0.125000
G01 X1.551850 Y0.355490 Z-0.125000
G01 X1.548850 Y0.371790 Z-0.125000
G01 X1.543850 Y0.360590 Z-0.125000
G01 X1.538850 Y0.349390 Z-0.125000
G01 X1.533850 Y0.349390 Z-0.125000
G01 X1.528850 Y0.349390 Z-0.125000
G01 X1.519850 Y0.383290 Z-0.125000
G01 X1.510850 Y0.417190 Z-0.125000
G01 X1.515850 Y0.436290 Z-0.125000
G01 X1.520850 Y0.455390 Z-0.125000
G01 X1.518850 Y0.457390 Z-0.125000
G01 X1.516850 Y0.459390 Z-0.125000
G01 X1.507850 Y0.437890 Z-0.125000
G01 X1.498850 Y0.416390 Z-0.125000
G01 X1.496850 Y0.387190 Z-0.125000
G01 X1.494850 Y0.357990 Z-0.125000
G01 X1.502850 Y0.322190 Z-0.125000
G01 X1.510850 Y0.286390 Z-0.125000
G01 X1.512850 Y0.243190 Z-0.125000
G01 X1.514850 Y0.199990 Z-0.125000
G01 X1.518850 Y0.179190 Z-0.125000
G01 X1.522850 Y0.158390 Z-0.125000
G01 X1.533950 Y0.158390 Z-0.125000
G01 X1.545050 Y0.158390 Z-0.125000
G01 X1.557650 Y0.145190 Z-0.125000
G01 X1.570250 Y0.131990 Z-0.125000
G01 X1.574250 Y0.077090 Z-0.125000
G01 X1.578250 Y0.022190 Z-0.125000
G01 X1.567650 Y0.010990 Z-0.125000
G01 X1.557050 Y-0.000210 Z-0.125000
G01 X1.553050 Y-0.000110 Z-0.125000
G01 X1.549050 Y-0.000010 Z-0.125000
G01 X1.510050 Y0.051690 Z-0.125000
G01 X1.517110 Y0.055910 Z-0.125000
G00 Z5.000000

(End cutting path id: path220320)


(Start cutting path id: path220320)
(Change tool to Default tool)

G00 Z5.000000
G00 X1.569610 Y0.023710

G01 Z-0.125000 F100.0(Penetrate)
G01 X1.574610 Y0.026710 Z-0.125000 F400.000000
G01 X1.572610 Y0.060810 Z-0.125000
G01 X1.570610 Y0.094910 Z-0.125000
G01 X1.568610 Y0.113210 Z-0.125000
G01 X1.566610 Y0.131510 Z-0.125000
G01 X1.558610 Y0.140510 Z-0.125000
G01 X1.550610 Y0.149510 Z-0.125000
G01 X1.541610 Y0.149510 Z-0.125000
G01 X1.532610 Y0.149510 Z-0.125000
G01 X1.525610 Y0.154510 Z-0.125000
G01 X1.519610 Y0.159510 Z-0.125000
G01 X1.515610 Y0.187910 Z-0.125000
G01 X1.511610 Y0.216310 Z-0.125000
G01 X1.509610 Y0.256910 Z-0.125000
G01 X1.507610 Y0.297510 Z-0.125000
G01 X1.501610 Y0.317810 Z-0.125000
G01 X1.495610 Y0.338110 Z-0.125000
G01 X1.492610 Y0.367610 Z-0.125000
G01 X1.489610 Y0.397110 Z-0.125000
G01 X1.494610 Y0.416410 Z-0.125000
G01 X1.499610 Y0.435710 Z-0.125000
G01 X1.506610 Y0.449910 Z-0.125000
G01 X1.513610 Y0.464110 Z-0.125000
G01 X1.518610 Y0.485610 Z-0.125000
G01 X1.523610 Y0.507210 Z-0.125000
G01 X1.530610 Y0.506210 Z-0.125000
G01 X1.537610 Y0.505210 Z-0.125000
G01 X1.540610 Y0.489010 Z-0.125000
G01 X1.543610 Y0.472810 Z-0.125000
G01 X1.537610 Y0.448510 Z-0.125000
G01 X1.531610 Y0.424210 Z-0.125000
G01 X1.536610 Y0.400810 Z-0.125000
G01 X1.541610 Y0.377410 Z-0.125000
G01 X1.544610 Y0.377410 Z-0.125000
G01 X1.547610 Y0.377410 Z-0.125000
G01 X1.549610 Y0.419110 Z-0.125000
G01 X1.551610 Y0.460810 Z-0.125000
G01 X1.553610 Y0.471010 Z-0.125000
G01 X1.555610 Y0.481210 Z-0.125000
G01 X1.556610 Y0.534010 Z-0.125000
G01 X1.557610 Y0.586810 Z-0.125000
G01 X1.560610 Y0.572610 Z-0.125000
G01 X1.563610 Y0.558410 Z-0.125000
G01 X1.564610 Y0.572610 Z-0.125000
G01 X1.565610 Y0.586810 Z-0.125000
G01 X1.569610 Y0.568510 Z-0.125000
G01 X1.573610 Y0.550210 Z-0.125000
G01 X1.574110 Y0.503510 Z-0.125000
G01 X1.574610 Y0.456810 Z-0.125000
G01 X1.574110 Y0.403210 Z-0.125000
G01 X1.573610 Y0.349610 Z-0.125000
G01 X1.579610 Y0.335210 Z-0.125000
G01 X1.585610 Y0.320810 Z-0.125000
G01 X1.585810 Y0.264810 Z-0.125000
G01 X1.586110 Y0.208810 Z-0.125000
G01 X1.590110 Y0.219010 Z-0.125000
G01 X1.594110 Y0.229210 Z-0.125000
G01 X1.593110 Y0.330820 Z-0.125000
G01 X1.592110 Y0.432420 Z-0.125000
G01 X1.599110 Y0.445620 Z-0.125000
G01 X1.606110 Y0.458820 Z-0.125000
G01 X1.610110 Y0.458820 Z-0.125000
G01 X1.614110 Y0.458820 Z-0.125000
G01 X1.621110 Y0.445620 Z-0.125000
G01 X1.628110 Y0.432420 Z-0.125000
G01 X1.627110 Y0.330820 Z-0.125000
G01 X1.626110 Y0.229210 Z-0.125000
G01 X1.630110 Y0.219010 Z-0.125000
G01 X1.634110 Y0.208810 Z-0.125000
G01 X1.634410 Y0.264810 Z-0.125000
G01 X1.634710 Y0.320810 Z-0.125000
G01 X1.640710 Y0.335910 Z-0.125000
G01 X1.646710 Y0.351010 Z-0.125000
G01 X1.645810 Y0.403810 Z-0.125000
G01 X1.644910 Y0.456610 Z-0.125000
G01 X1.645610 Y0.503310 Z-0.125000
G01 X1.646310 Y0.550010 Z-0.125000
G01 X1.650310 Y0.570310 Z-0.125000
G01 X1.654310 Y0.590610 Z-0.125000
G01 X1.655310 Y0.574310 Z-0.125000
G01 X1.656310 Y0.558010 Z-0.125000
G01 X1.659310 Y0.572210 Z-0.125000
G01 X1.662310 Y0.586410 Z-0.125000
G01 X1.663310 Y0.533610 Z-0.125000
G01 X1.664310 Y0.480810 Z-0.125000
G01 X1.666310 Y0.470610 Z-0.125000
G01 X1.668310 Y0.460410 Z-0.125000
G01 X1.670310 Y0.418710 Z-0.125000
G01 X1.672310 Y0.377010 Z-0.125000
G01 X1.675310 Y0.377010 Z-0.125000
G01 X1.678310 Y0.377010 Z-0.125000
G01 X1.683310 Y0.400410 Z-0.125000
G01 X1.688310 Y0.423810 Z-0.125000
G01 X1.682310 Y0.448510 Z-0.125000
G01 X1.676310 Y0.473210 Z-0.125000
G01 X1.679310 Y0.489110 Z-0.125000
G01 X1.682310 Y0.505010 Z-0.125000
G01 X1.689310 Y0.506010 Z-0.125000
G01 X1.696310 Y0.507010 Z-0.125000
G01 X1.700310 Y0.486310 Z-0.125000
G01 X1.704310 Y0.465610 Z-0.125000
G01 X1.712310 Y0.450510 Z-0.125000
G01 X1.719310 Y0.435410 Z-0.125000
G01 X1.724310 Y0.416110 Z-0.125000
G01 X1.729310 Y0.396810 Z-0.125000
G01 X1.726310 Y0.367310 Z-0.125000
G01 X1.723310 Y0.337810 Z-0.125000
G01 X1.717310 Y0.317510 Z-0.125000
G01 X1.711310 Y0.297210 Z-0.125000
G01 X1.709310 Y0.256610 Z-0.125000
G01 X1.707310 Y0.216010 Z-0.125000
G01 X1.702310 Y0.185510 Z-0.125000
G01 X1.697310 Y0.155010 Z-0.125000
G01 X1.693310 Y0.152010 Z-0.125000
G01 X1.689310 Y0.149010 Z-0.125000
G01 X1.678810 Y0.148940 Z-0.125000
G01 X1.668310 Y0.148880 Z-0.125000
G01 X1.659310 Y0.138880 Z-0.125000
G01 X1.650310 Y0.128880 Z-0.125000
G01 X1.646310 Y0.077280 Z-0.125000
G01 X1.642310 Y0.025680 Z-0.125000
G01 X1.647310 Y0.022680 Z-0.125000
G01 X1.652310 Y0.019680 Z-0.125000
G01 X1.655310 Y0.019620 Z-0.125000
G01 X1.658310 Y0.019560 Z-0.125000
G01 X1.694710 Y0.067860 Z-0.125000
G01 X1.731110 Y0.116160 Z-0.125000
G01 X1.740110 Y0.161660 Z-0.125000
G01 X1.749110 Y0.207160 Z-0.125000
G01 X1.763110 Y0.240360 Z-0.125000
G01 X1.777110 Y0.273560 Z-0.125000
G01 X1.787210 Y0.321360 Z-0.125000
G01 X1.797310 Y0.369160 Z-0.125000
G01 X1.797510 Y0.406660 Z-0.125000
G01 X1.797710 Y0.444160 Z-0.125000
G01 X1.808710 Y0.507160 Z-0.125000
G01 X1.819710 Y0.570160 Z-0.125000
G01 X1.857310 Y0.623660 Z-0.125000
G01 X1.894910 Y0.677160 Z-0.125000
G01 X1.894910 Y0.691060 Z-0.125000
G01 X1.894910 Y0.704960 Z-0.125000
G01 X1.882610 Y0.704960 Z-0.125000
G01 X1.870310 Y0.704960 Z-0.125000
G01 X1.866310 Y0.708960 Z-0.125000
G01 X1.862310 Y0.712960 Z-0.125000
G01 X1.866310 Y0.731260 Z-0.125000
G01 X1.869310 Y0.749560 Z-0.125000
G01 X1.892510 Y0.792260 Z-0.125000
G01 X1.915710 Y0.834960 Z-0.125000
G01 X1.938810 Y0.859360 Z-0.125000
G01 X1.961910 Y0.883760 Z-0.125000
G01 X1.967910 Y0.894360 Z-0.125000
G01 X1.973910 Y0.904960 Z-0.125000
G01 X1.979910 Y0.958060 Z-0.125000
G01 X1.985910 Y1.011160 Z-0.125000
G01 X1.994910 Y1.027860 Z-0.125000
G01 X2.003910 Y1.044560 Z-0.125000
G01 X1.995910 Y1.055560 Z-0.125000
G01 X1.987910 Y1.066560 Z-0.125000
G01 X1.973710 Y1.092960 Z-0.125000
G01 X1.959510 Y1.119360 Z-0.125000
G01 X1.957510 Y1.141760 Z-0.125000
G01 X1.955510 Y1.164060 Z-0.125000
G01 X1.957510 Y1.156060 Z-0.125000
G01 X1.959510 Y1.148060 Z-0.125000
G01 X1.962510 Y1.153060 Z-0.125000
G01 X1.965510 Y1.158060 Z-0.125000
G01 X1.971510 Y1.136160 Z-0.125000
G01 X1.977510 Y1.114260 Z-0.125000
G01 X1.996010 Y1.090860 Z-0.125000
G01 X2.014510 Y1.067460 Z-0.125000
G01 X2.017510 Y1.067460 Z-0.125000
G01 X2.020510 Y1.067460 Z-0.125000
G01 X2.025510 Y1.083560 Z-0.125000
G01 X2.030510 Y1.099560 Z-0.125000
G01 X2.042310 Y1.107560 Z-0.125000
G01 X2.054110 Y1.115560 Z-0.125000
G01 X2.040410 Y1.141460 Z-0.125000
G01 X2.026710 Y1.167360 Z-0.125000
G01 X2.014510 Y1.205460 Z-0.125000
G01 X2.002310 Y1.243560 Z-0.125000
G01 X1.998310 Y1.271960 Z-0.125000
G01 X1.994310 Y1.300360 Z-0.125000
G01 X1.994220 Y1.340260 Z-0.125000
G01 X1.994130 Y1.380160 Z-0.125000
G01 X2.004630 Y1.393960 Z-0.125000
G01 X2.015130 Y1.407760 Z-0.125000
G01 X2.000530 Y1.413760 Z-0.125000
G01 X1.986030 Y1.419760 Z-0.125000
G01 X1.972030 Y1.430460 Z-0.125000
G01 X1.958030 Y1.441160 Z-0.125000
G01 X1.939030 Y1.415460 Z-0.125000
G01 X1.920030 Y1.389760 Z-0.125000
G01 X1.907730 Y1.363360 Z-0.125000
G01 X1.895430 Y1.336960 Z-0.125000
G01 X1.892430 Y1.330960 Z-0.125000
G01 X1.889430 Y1.324960 Z-0.125000
G01 X1.883430 Y1.324960 Z-0.125000
G01 X1.877430 Y1.324960 Z-0.125000
G01 X1.878230 Y1.351360 Z-0.125000
G01 X1.879030 Y1.377760 Z-0.125000
G01 X1.887030 Y1.401260 Z-0.125000
G01 X1.895030 Y1.424760 Z-0.125000
G01 X1.878230 Y1.415760 Z-0.125000
G01 X1.861430 Y1.406760 Z-0.125000
G01 X1.847330 Y1.387160 Z-0.125000
G01 X1.833130 Y1.367560 Z-0.125000
G01 X1.824130 Y1.369560 Z-0.125000
G01 X1.815130 Y1.371560 Z-0.125000
G01 X1.791030 Y1.353460 Z-0.125000
G01 X1.766930 Y1.335360 Z-0.125000
G01 X1.757930 Y1.335360 Z-0.125000
G01 X1.748930 Y1.335360 Z-0.125000
G01 X1.744930 Y1.320160 Z-0.125000
G01 X1.740930 Y1.304960 Z-0.125000
G01 X1.726430 Y1.250460 Z-0.125000
G01 X1.711930 Y1.195960 Z-0.125000
G01 X1.700830 Y1.175460 Z-0.125000
G01 X1.689730 Y1.154960 Z-0.125000
G01 X1.679530 Y1.151960 Z-0.125000
G01 X1.669330 Y1.148960 Z-0.125000
G01 X1.608330 Y1.149020 Z-0.125000
G01 X1.547330 Y1.149080 Z-0.125000
G01 X1.535130 Y1.152080 Z-0.125000
G01 X1.522930 Y1.155080 Z-0.125000
G01 X1.510230 Y1.180880 Z-0.125000
G01 X1.497530 Y1.206680 Z-0.125000
G01 X1.484830 Y1.256080 Z-0.125000
G01 X1.472130 Y1.305480 Z-0.125000
G01 X1.468130 Y1.320680 Z-0.125000
G01 X1.464130 Y1.335880 Z-0.125000
G01 X1.454130 Y1.335880 Z-0.125000
G01 X1.444130 Y1.335880 Z-0.125000
G01 X1.420030 Y1.353980 Z-0.125000
G01 X1.395930 Y1.372080 Z-0.125000
G01 X1.387930 Y1.370080 Z-0.125000
G01 X1.379930 Y1.368080 Z-0.125000
G01 X1.365730 Y1.387680 Z-0.125000
G01 X1.351530 Y1.407280 Z-0.125000
G01 X1.335230 Y1.416280 Z-0.125000
G01 X1.318930 Y1.425280 Z-0.125000
G01 X1.328930 Y1.392380 Z-0.125000
G01 X1.338930 Y1.359480 Z-0.125000
G01 X1.338930 Y1.341680 Z-0.125000
G01 X1.338930 Y1.323880 Z-0.125000
G01 X1.332930 Y1.323880 Z-0.125000
G01 X1.326930 Y1.323880 Z-0.125000
G01 X1.311030 Y1.357380 Z-0.125000
G01 X1.295130 Y1.390880 Z-0.125000
G01 X1.276230 Y1.416280 Z-0.125000
G01 X1.257330 Y1.441780 Z-0.125000
G01 X1.236530 Y1.427480 Z-0.125000
G01 X1.215730 Y1.413180 Z-0.125000
G01 X1.210730 Y1.413180 Z-0.125000
G01 X1.205730 Y1.413180 Z-0.125000
G01 X1.203730 Y1.409180 Z-0.125000
G01 X1.201730 Y1.405180 Z-0.125000
G01 X1.212530 Y1.392380 Z-0.125000
G01 X1.223330 Y1.379580 Z-0.125000
G01 X1.221330 Y1.319880 Z-0.125000
G01 X1.219330 Y1.260180 Z-0.125000
G01 X1.204730 Y1.213480 Z-0.125000
G01 X1.190130 Y1.166780 Z-0.125000
G01 X1.176330 Y1.141980 Z-0.125000
G01 X1.162430 Y1.117180 Z-0.125000
G01 X1.174330 Y1.108180 Z-0.125000
G01 X1.186230 Y1.099180 Z-0.125000
G01 X1.191230 Y1.082880 Z-0.125000
G01 X1.196230 Y1.066580 Z-0.125000
G01 X1.199230 Y1.066580 Z-0.125000
G01 X1.202230 Y1.066580 Z-0.125000
G01 X1.220630 Y1.089980 Z-0.125000
G01 X1.239030 Y1.113380 Z-0.125000
G01 X1.247030 Y1.137780 Z-0.125000
G01 X1.255030 Y1.162180 Z-0.125000
G01 X1.255730 Y1.154180 Z-0.125000
G01 X1.256430 Y1.146180 Z-0.125000
G01 X1.260430 Y1.154180 Z-0.125000
G01 X1.264430 Y1.162180 Z-0.125000
G01 X1.262430 Y1.140280 Z-0.125000
G01 X1.260430 Y1.118380 Z-0.125000
G01 X1.245930 Y1.091480 Z-0.125000
G01 X1.231430 Y1.064580 Z-0.125000
G01 X1.223430 Y1.053580 Z-0.125000
G01 X1.215430 Y1.042580 Z-0.125000
G01 X1.224430 Y1.025680 Z-0.125000
G01 X1.233430 Y1.008780 Z-0.125000
G01 X1.238430 Y0.959480 Z-0.125000
G01 X1.243430 Y0.910180 Z-0.125000
G01 X1.247430 Y0.898480 Z-0.125000
G01 X1.251430 Y0.886780 Z-0.125000
G01 X1.277330 Y0.859780 Z-0.125000
G01 X1.303230 Y0.832880 Z-0.125000
G01 X1.327630 Y0.786180 Z-0.125000
G01 X1.352030 Y0.739480 Z-0.125000
G01 X1.354030 Y0.724080 Z-0.125000
G01 X1.356030 Y0.708680 Z-0.125000
G01 X1.346030 Y0.704680 Z-0.125000
G01 X1.336030 Y0.700680 Z-0.125000
G01 X1.330030 Y0.702680 Z-0.125000
G01 X1.324030 Y0.704680 Z-0.125000
G01 X1.324030 Y0.689680 Z-0.125000
G01 X1.324030 Y0.674680 Z-0.125000
G01 X1.361630 Y0.621180 Z-0.125000
G01 X1.399230 Y0.567680 Z-0.125000
G01 X1.410230 Y0.504680 Z-0.125000
G01 X1.421230 Y0.441680 Z-0.125000
G01 X1.421430 Y0.404080 Z-0.125000
G01 X1.421630 Y0.366480 Z-0.125000
G01 X1.431630 Y0.319280 Z-0.125000
G01 X1.441630 Y0.272080 Z-0.125000
G01 X1.455930 Y0.236980 Z-0.125000
G01 X1.470230 Y0.201880 Z-0.125000
G01 X1.480230 Y0.156080 Z-0.125000
G01 X1.490230 Y0.110280 Z-0.125000
G01 X1.525730 Y0.063680 Z-0.125000
G01 X1.561230 Y0.017080 Z-0.125000
G01 X1.564230 Y0.017140 Z-0.125000
G01 X1.567230 Y0.017200 Z-0.125000
G01 X1.572230 Y0.020200 Z-0.125000
G01 X1.569610 Y0.023710 Z-0.125000
G00 Z5.000000

(End cutting path id: path220320)


(Start cutting path id: path220320)
(Change tool to Default tool)

G00 Z5.000000
G00 X1.417270 Y0.083050

G01 Z-0.125000 F100.0(Penetrate)
G01 X1.371870 Y0.092050 Z-0.125000 F400.000000
G01 X1.340070 Y0.101050 Z-0.125000
G01 X1.308270 Y0.110050 Z-0.125000
G01 X1.258970 Y0.129650 Z-0.125000
G01 X1.209670 Y0.149250 Z-0.125000
G01 X1.171670 Y0.168350 Z-0.125000
G01 X1.133670 Y0.187450 Z-0.125000
G01 X1.082870 Y0.220750 Z-0.125000
G01 X1.032070 Y0.254050 Z-0.125000
G01 X1.001570 Y0.278650 Z-0.125000
G01 X0.971070 Y0.303250 Z-0.125000
G01 X0.930970 Y0.343350 Z-0.125000
G01 X0.890870 Y0.383450 Z-0.125000
G01 X0.859670 Y0.422150 Z-0.125000
G01 X0.828470 Y0.460850 Z-0.125000
G01 X0.800470 Y0.503450 Z-0.125000
G01 X0.772470 Y0.546050 Z-0.125000
G01 X0.743170 Y0.607050 Z-0.125000
G01 X0.713870 Y0.668050 Z-0.125000
G01 X0.699370 Y0.711750 Z-0.125000
G01 X0.684870 Y0.755450 Z-0.125000
G01 X0.678870 Y0.779750 Z-0.125000
G01 X0.672870 Y0.804050 Z-0.125000
G01 X0.668870 Y0.825450 Z-0.125000
G01 X0.664870 Y0.846850 Z-0.125000
G01 X0.658870 Y0.883450 Z-0.125000
G01 X0.652870 Y0.920050 Z-0.125000
G01 X0.650870 Y0.993450 Z-0.125000
G01 X0.648870 Y1.066850 Z-0.125000
G01 X0.651870 Y1.094250 Z-0.125000
G01 X0.654870 Y1.121650 Z-0.125000
G01 X0.662870 Y1.120650 Z-0.125000
G01 X0.670870 Y1.119650 Z-0.125000
G01 X0.670270 Y1.034250 Z-0.125000
G01 X0.669670 Y0.948950 Z-0.125000
G01 X0.676670 Y0.902250 Z-0.125000
G01 X0.682670 Y0.855550 Z-0.125000
G01 X0.688670 Y0.827050 Z-0.125000
G01 X0.694670 Y0.798650 Z-0.125000
G01 X0.704970 Y0.762050 Z-0.125000
G01 X0.715270 Y0.725450 Z-0.125000
G01 X0.735070 Y0.675950 Z-0.125000
G01 X0.754870 Y0.626450 Z-0.125000
G01 X0.773570 Y0.590550 Z-0.125000
G01 X0.792270 Y0.554650 Z-0.125000
G01 X0.822970 Y0.507950 Z-0.125000
G01 X0.853670 Y0.461250 Z-0.125000
G01 X0.882070 Y0.426650 Z-0.125000
G01 X0.910470 Y0.392150 Z-0.125000
G01 X0.943770 Y0.359250 Z-0.125000
G01 X0.977070 Y0.326350 Z-0.125000
G01 X1.011070 Y0.297750 Z-0.125000
G01 X1.045070 Y0.269150 Z-0.125000
G01 X1.095870 Y0.236050 Z-0.125000
G01 X1.146670 Y0.202950 Z-0.125000
G01 X1.191370 Y0.181150 Z-0.125000
G01 X1.236070 Y0.159350 Z-0.125000
G01 X1.275070 Y0.144850 Z-0.125000
G01 X1.314070 Y0.130350 Z-0.125000
G01 X1.350170 Y0.119850 Z-0.125000
G01 X1.386270 Y0.109350 Z-0.125000
G01 X1.430970 Y0.100350 Z-0.125000
G01 X1.475670 Y0.091350 Z-0.125000
G01 X1.481670 Y0.086350 Z-0.125000
G01 X1.487670 Y0.081350 Z-0.125000
G01 X1.484670 Y0.077350 Z-0.125000
G01 X1.481670 Y0.073350 Z-0.125000
G01 X1.472670 Y0.073750 Z-0.125000
G01 X1.463670 Y0.074150 Z-0.125000
G01 X1.418270 Y0.083150 Z-0.125000
G01 X1.417270 Y0.083050 Z-0.125000
G00 Z5.000000

(End cutting path id: path220320)


(Start cutting path id: path220320)
(Change tool to Default tool)

G00 Z5.000000
G00 X1.352910 Y0.253340

G01 Z-0.125000 F100.0(Penetrate)
G01 X1.300110 Y0.270740 Z-0.125000 F400.000000
G01 X1.264810 Y0.287540 Z-0.125000
G01 X1.229510 Y0.304340 Z-0.125000
G01 X1.193610 Y0.325440 Z-0.125000
G01 X1.157810 Y0.346540 Z-0.125000
G01 X1.119210 Y0.375340 Z-0.125000
G01 X1.080610 Y0.404140 Z-0.125000
G01 X1.033710 Y0.450940 Z-0.125000
G01 X0.986810 Y0.497740 Z-0.125000
G01 X0.958410 Y0.536340 Z-0.125000
G01 X0.930010 Y0.574940 Z-0.125000
G01 X0.912510 Y0.602840 Z-0.125000
G01 X0.895010 Y0.630840 Z-0.125000
G01 X0.874710 Y0.674040 Z-0.125000
G01 X0.854410 Y0.717240 Z-0.125000
G01 X0.842910 Y0.749740 Z-0.125000
G01 X0.831410 Y0.782240 Z-0.125000
G01 X0.821210 Y0.821440 Z-0.125000
G01 X0.811010 Y0.860640 Z-0.125000
G01 X0.805010 Y0.902740 Z-0.125000
G01 X0.799010 Y0.944840 Z-0.125000
G01 X0.796010 Y0.988040 Z-0.125000
G01 X0.793010 Y1.031240 Z-0.125000
G01 X0.796010 Y1.062440 Z-0.125000
G01 X0.799010 Y1.093640 Z-0.125000
G01 X0.807010 Y1.092640 Z-0.125000
G01 X0.815010 Y1.091640 Z-0.125000
G01 X0.814410 Y1.036740 Z-0.125000
G01 X0.813810 Y0.981840 Z-0.125000
G01 X0.817810 Y0.941240 Z-0.125000
G01 X0.821810 Y0.900640 Z-0.125000
G01 X0.829810 Y0.862040 Z-0.125000
G01 X0.837810 Y0.823440 Z-0.125000
G01 X0.847810 Y0.792940 Z-0.125000
G01 X0.857810 Y0.762440 Z-0.125000
G01 X0.863810 Y0.744140 Z-0.125000
G01 X0.869810 Y0.725840 Z-0.125000
G01 X0.891510 Y0.680340 Z-0.125000
G01 X0.913210 Y0.634840 Z-0.125000
G01 X0.932410 Y0.605140 Z-0.125000
G01 X0.951610 Y0.575440 Z-0.125000
G01 X0.974410 Y0.544940 Z-0.125000
G01 X0.997210 Y0.514440 Z-0.125000
G01 X1.031810 Y0.478440 Z-0.125000
G01 X1.066410 Y0.442440 Z-0.125000
G01 X1.096910 Y0.417140 Z-0.125000
G01 X1.127410 Y0.391840 Z-0.125000
G01 X1.160710 Y0.369040 Z-0.125000
G01 X1.194010 Y0.346240 Z-0.125000
G01 X1.239910 Y0.322140 Z-0.125000
G01 X1.285810 Y0.298040 Z-0.125000
G01 X1.330510 Y0.281740 Z-0.125000
G01 X1.375210 Y0.265440 Z-0.125000
G01 X1.398610 Y0.258440 Z-0.125000
G01 X1.422010 Y0.251440 Z-0.125000
G01 X1.422010 Y0.243440 Z-0.125000
G01 X1.422010 Y0.235440 Z-0.125000
G01 X1.413010 Y0.235640 Z-0.125000
G01 X1.404010 Y0.235840 Z-0.125000
G01 X1.351210 Y0.253240 Z-0.125000
G01 X1.352910 Y0.253340 Z-0.125000
G00 Z5.000000

(End cutting path id: path220320)


(Start cutting path id: path220320)
(Change tool to Default tool)

G00 Z5.000000
G00 X1.724770 Y0.078050

G01 Z-0.125000 F100.0(Penetrate)
G01 X1.724770 Y0.084050 Z-0.125000 F400.000000
G01 X1.729770 Y0.088050 Z-0.125000
G01 X1.734770 Y0.092050 Z-0.125000
G01 X1.755070 Y0.095050 Z-0.125000
G01 X1.775370 Y0.098050 Z-0.125000
G01 X1.833570 Y0.112250 Z-0.125000
G01 X1.891870 Y0.126450 Z-0.125000
G01 X1.938970 Y0.144650 Z-0.125000
G01 X1.986070 Y0.162850 Z-0.125000
G01 X2.029070 Y0.184450 Z-0.125000
G01 X2.072070 Y0.206050 Z-0.125000
G01 X2.100570 Y0.223450 Z-0.125000
G01 X2.129070 Y0.240850 Z-0.125000
G01 X2.174870 Y0.275150 Z-0.125000
G01 X2.220670 Y0.309450 Z-0.125000
G01 X2.268370 Y0.356950 Z-0.125000
G01 X2.316070 Y0.404450 Z-0.125000
G01 X2.342870 Y0.438950 Z-0.125000
G01 X2.369670 Y0.473450 Z-0.125000
G01 X2.396270 Y0.514050 Z-0.125000
G01 X2.422870 Y0.554650 Z-0.125000
G01 X2.445270 Y0.599350 Z-0.125000
G01 X2.467670 Y0.644050 Z-0.125000
G01 X2.481570 Y0.678550 Z-0.125000
G01 X2.495470 Y0.713050 Z-0.125000
G01 X2.508070 Y0.755750 Z-0.125000
G01 X2.520670 Y0.798450 Z-0.125000
G01 X2.528670 Y0.841150 Z-0.125000
G01 X2.536670 Y0.883850 Z-0.125000
G01 X2.540670 Y0.918350 Z-0.125000
G01 X2.544670 Y0.952850 Z-0.125000
G01 X2.544760 Y1.028350 Z-0.125000
G01 X2.544850 Y1.103850 Z-0.125000
G01 X2.542850 Y1.109850 Z-0.125000
G01 X2.540850 Y1.115850 Z-0.125000
G01 X2.546850 Y1.120850 Z-0.125000
G01 X2.552850 Y1.125850 Z-0.125000
G01 X2.557850 Y1.120850 Z-0.125000
G01 X2.562850 Y1.115850 Z-0.125000
G01 X2.562790 Y1.025650 Z-0.125000
G01 X2.562730 Y0.935450 Z-0.125000
G01 X2.557730 Y0.896850 Z-0.125000
G01 X2.552730 Y0.858250 Z-0.125000
G01 X2.542730 Y0.813550 Z-0.125000
G01 X2.532730 Y0.768850 Z-0.125000
G01 X2.518130 Y0.724350 Z-0.125000
G01 X2.503530 Y0.679850 Z-0.125000
G01 X2.489530 Y0.647150 Z-0.125000
G01 X2.475630 Y0.614450 Z-0.125000
G01 X2.453930 Y0.573350 Z-0.125000
G01 X2.432230 Y0.532250 Z-0.125000
G01 X2.405730 Y0.492050 Z-0.125000
G01 X2.379230 Y0.451850 Z-0.125000
G01 X2.352130 Y0.419350 Z-0.125000
G01 X2.325030 Y0.386850 Z-0.125000
G01 X2.293030 Y0.353550 Z-0.125000
G01 X2.261030 Y0.320250 Z-0.125000
G01 X2.221330 Y0.286650 Z-0.125000
G01 X2.181630 Y0.253050 Z-0.125000
G01 X2.132830 Y0.220950 Z-0.125000
G01 X2.084030 Y0.188850 Z-0.125000
G01 X2.027130 Y0.160950 Z-0.125000
G01 X1.970230 Y0.132950 Z-0.125000
G01 X1.909230 Y0.112750 Z-0.125000
G01 X1.848230 Y0.092450 Z-0.125000
G01 X1.807630 Y0.084450 Z-0.125000
G01 X1.767030 Y0.076450 Z-0.125000
G01 X1.745730 Y0.073450 Z-0.125000
G01 X1.724430 Y0.070450 Z-0.125000
G01 X1.724430 Y0.076450 Z-0.125000
G01 X1.724770 Y0.078050 Z-0.125000
G00 Z5.000000

(End cutting path id: path220320)


(Start cutting path id: path220320)
(Change tool to Default tool)

G00 Z5.000000
G00 X1.783070 Y0.237740

G01 Z-0.125000 F100.0(Penetrate)
G01 X1.781070 Y0.243740 Z-0.125000 F400.000000
G01 X1.785070 Y0.247740 Z-0.125000
G01 X1.789070 Y0.251740 Z-0.125000
G01 X1.824970 Y0.262140 Z-0.125000
G01 X1.860870 Y0.272540 Z-0.125000
G01 X1.896170 Y0.286140 Z-0.125000
G01 X1.931470 Y0.299740 Z-0.125000
G01 X1.957670 Y0.312940 Z-0.125000
G01 X1.983870 Y0.326140 Z-0.125000
G01 X2.018370 Y0.346740 Z-0.125000
G01 X2.052970 Y0.367340 Z-0.125000
G01 X2.085470 Y0.391640 Z-0.125000
G01 X2.117970 Y0.415940 Z-0.125000
G01 X2.167070 Y0.464940 Z-0.125000
G01 X2.216170 Y0.513940 Z-0.125000
G01 X2.244470 Y0.552540 Z-0.125000
G01 X2.272770 Y0.591140 Z-0.125000
G01 X2.287270 Y0.615540 Z-0.125000
G01 X2.301770 Y0.639940 Z-0.125000
G01 X2.317970 Y0.672440 Z-0.125000
G01 X2.334170 Y0.704940 Z-0.125000
G01 X2.350770 Y0.749640 Z-0.125000
G01 X2.367370 Y0.794340 Z-0.125000
G01 X2.375370 Y0.826840 Z-0.125000
G01 X2.383370 Y0.859340 Z-0.125000
G01 X2.390370 Y0.895940 Z-0.125000
G01 X2.397370 Y0.932540 Z-0.125000
G01 X2.399370 Y1.012840 Z-0.125000
G01 X2.401370 Y1.093140 Z-0.125000
G01 X2.408370 Y1.093140 Z-0.125000
G01 X2.415370 Y1.093140 Z-0.125000
G01 X2.418370 Y1.057740 Z-0.125000
G01 X2.421370 Y1.022340 Z-0.125000
G01 X2.416370 Y0.964840 Z-0.125000
G01 X2.411370 Y0.907340 Z-0.125000
G01 X2.401370 Y0.859240 Z-0.125000
G01 X2.391370 Y0.811140 Z-0.125000
G01 X2.378770 Y0.772440 Z-0.125000
G01 X2.366170 Y0.733840 Z-0.125000
G01 X2.346570 Y0.690040 Z-0.125000
G01 X2.326970 Y0.646240 Z-0.125000
G01 X2.300270 Y0.602440 Z-0.125000
G01 X2.273570 Y0.558640 Z-0.125000
G01 X2.246370 Y0.524140 Z-0.125000
G01 X2.219170 Y0.489640 Z-0.125000
G01 X2.176170 Y0.446840 Z-0.125000
G01 X2.133170 Y0.404040 Z-0.125000
G01 X2.094570 Y0.375440 Z-0.125000
G01 X2.055970 Y0.346840 Z-0.125000
G01 X2.023470 Y0.327140 Z-0.125000
G01 X1.990970 Y0.307440 Z-0.125000
G01 X1.952370 Y0.289340 Z-0.125000
G01 X1.913770 Y0.271240 Z-0.125000
G01 X1.860970 Y0.254040 Z-0.125000
G01 X1.808170 Y0.236840 Z-0.125000
G01 X1.796870 Y0.233840 Z-0.125000
G01 X1.785570 Y0.230840 Z-0.125000
G01 X1.783070 Y0.237740 Z-0.125000
G00 Z5.000000

(End cutting path id: path220320)


(Start cutting path id: path220320)
(Change tool to Default tool)

G00 Z5.000000
G00 X1.666040 Y0.666070

G01 Z-0.125000 F100.0(Penetrate)
G01 X1.660040 Y0.678070 Z-0.125000 F400.000000
G01 X1.660040 Y0.686070 Z-0.125000
G01 X1.660040 Y0.694070 Z-0.125000
G01 X1.665040 Y0.699070 Z-0.125000
G01 X1.670040 Y0.704070 Z-0.125000
G01 X1.677040 Y0.704070 Z-0.125000
G01 X1.684040 Y0.704070 Z-0.125000
G01 X1.689040 Y0.698070 Z-0.125000
G01 X1.694040 Y0.692070 Z-0.125000
G01 X1.689040 Y0.673370 Z-0.125000
G01 X1.684040 Y0.654670 Z-0.125000
G01 X1.678040 Y0.654670 Z-0.125000
G01 X1.672040 Y0.654670 Z-0.125000
G01 X1.666040 Y0.666070 Z-0.125000
G00 Z5.000000

(End cutting path id: path220320)


(Start cutting path id: path220320)
(Change tool to Default tool)

G00 Z5.000000
G00 X1.680040 Y0.687570

G01 Z-0.125000 F100.0(Penetrate)
G01 X1.680100 Y0.690570 Z-0.125000 F400.000000
G01 X1.676100 Y0.690570 Z-0.125000
G01 X1.672100 Y0.690570 Z-0.125000
G01 X1.672170 Y0.681570 Z-0.125000
G01 X1.672230 Y0.672570 Z-0.125000
G01 X1.676230 Y0.678570 Z-0.125000
G01 X1.680230 Y0.684570 Z-0.125000
G01 X1.680290 Y0.687570 Z-0.125000
G01 X1.680040 Y0.687570 Z-0.125000
G00 Z5.000000

(End cutting path id: path220320)


(Start cutting path id: path220320)
(Change tool to Default tool)

G00 Z5.000000
G00 X1.767750 Y0.755270

G01 Z-0.125000 F100.0(Penetrate)
G01 X1.765750 Y0.759270 Z-0.125000 F400.000000
G01 X1.771750 Y0.786370 Z-0.125000
G01 X1.777750 Y0.813470 Z-0.125000
G01 X1.789750 Y0.828370 Z-0.125000
G01 X1.801750 Y0.843270 Z-0.125000
G01 X1.813950 Y0.845270 Z-0.125000
G01 X1.826250 Y0.847270 Z-0.125000
G01 X1.836950 Y0.860070 Z-0.125000
G01 X1.847650 Y0.872870 Z-0.125000
G01 X1.847650 Y0.877870 Z-0.125000
G01 X1.847650 Y0.882870 Z-0.125000
G01 X1.854650 Y0.909570 Z-0.125000
G01 X1.861650 Y0.936270 Z-0.125000
G01 X1.886250 Y0.982970 Z-0.125000
G01 X1.910850 Y1.029670 Z-0.125000
G01 X1.914850 Y1.031670 Z-0.125000
G01 X1.918850 Y1.033670 Z-0.125000
G01 X1.940850 Y1.038670 Z-0.125000
G01 X1.962850 Y1.043670 Z-0.125000
G01 X1.964850 Y1.041670 Z-0.125000
G01 X1.966850 Y1.039670 Z-0.125000
G01 X1.959850 Y1.020470 Z-0.125000
G01 X1.952850 Y1.001270 Z-0.125000
G01 X1.952790 Y0.984770 Z-0.125000
G01 X1.952720 Y0.968270 Z-0.125000
G01 X1.946720 Y0.945870 Z-0.125000
G01 X1.940720 Y0.923470 Z-0.125000
G01 X1.940660 Y0.911970 Z-0.125000
G01 X1.940600 Y0.900470 Z-0.125000
G01 X1.931600 Y0.892470 Z-0.125000
G01 X1.922600 Y0.884470 Z-0.125000
G01 X1.905600 Y0.872370 Z-0.125000
G01 X1.888600 Y0.860270 Z-0.125000
G01 X1.880600 Y0.860270 Z-0.125000
G01 X1.872600 Y0.860270 Z-0.125000
G01 X1.856800 Y0.842870 Z-0.125000
G01 X1.841000 Y0.825470 Z-0.125000
G01 X1.809400 Y0.787970 Z-0.125000
G01 X1.777800 Y0.750470 Z-0.125000
G01 X1.773800 Y0.750470 Z-0.125000
G01 X1.769800 Y0.750470 Z-0.125000
G01 X1.767800 Y0.754470 Z-0.125000
G01 X1.767750 Y0.755270 Z-0.125000
G00 Z5.000000

(End cutting path id: path220320)


(Start cutting path id: path220320)
(Change tool to Default tool)

G00 Z5.000000
G00 X1.809850 Y0.807470

G01 Z-0.125000 F100.0(Penetrate)
G01 X1.830750 Y0.832870 Z-0.125000 F400.000000
G01 X1.818850 Y0.832870 Z-0.125000
G01 X1.807050 Y0.832870 Z-0.125000
G01 X1.796750 Y0.819270 Z-0.125000
G01 X1.786450 Y0.805770 Z-0.125000
G01 X1.783450 Y0.789870 Z-0.125000
G01 X1.780450 Y0.773970 Z-0.125000
G01 X1.784450 Y0.777970 Z-0.125000
G01 X1.788450 Y0.781970 Z-0.125000
G01 X1.809850 Y0.807470 Z-0.125000
G00 Z5.000000

(End cutting path id: path220320)


(Start cutting path id: path220320)
(Change tool to Default tool)

G00 Z5.000000
G00 X1.878050 Y0.873470

G01 Z-0.125000 F100.0(Penetrate)
G01 X1.887050 Y0.873470 Z-0.125000 F400.000000
G01 X1.907650 Y0.889770 Z-0.125000
G01 X1.928250 Y0.906070 Z-0.125000
G01 X1.930250 Y0.915070 Z-0.125000
G01 X1.932250 Y0.924070 Z-0.125000
G01 X1.937250 Y0.948470 Z-0.125000
G01 X1.942250 Y0.972870 Z-0.125000
G01 X1.941650 Y0.988270 Z-0.125000
G01 X1.941050 Y1.003670 Z-0.125000
G01 X1.947050 Y1.017670 Z-0.125000
G01 X1.953050 Y1.031670 Z-0.125000
G01 X1.949050 Y1.031670 Z-0.125000
G01 X1.945050 Y1.031670 Z-0.125000
G01 X1.931950 Y1.025670 Z-0.125000
G01 X1.918850 Y1.019670 Z-0.125000
G01 X1.910850 Y1.003870 Z-0.125000
G01 X1.902850 Y0.988070 Z-0.125000
G01 X1.889150 Y0.963670 Z-0.125000
G01 X1.875450 Y0.939270 Z-0.125000
G01 X1.867450 Y0.912870 Z-0.125000
G01 X1.859450 Y0.886470 Z-0.125000
G01 X1.859450 Y0.877470 Z-0.125000
G01 X1.859450 Y0.868470 Z-0.125000
G01 X1.850450 Y0.856770 Z-0.125000
G01 X1.841450 Y0.845070 Z-0.125000
G01 X1.855550 Y0.858270 Z-0.125000
G01 X1.869650 Y0.871470 Z-0.125000
G01 X1.878050 Y0.873470 Z-0.125000
G00 Z5.000000

(End cutting path id: path220320)


(Start cutting path id: path220320)
(Change tool to Default tool)

G00 Z5.000000
G00 X1.692750 Y0.912770

G01 Z-0.125000 F100.0(Penetrate)
G01 X1.688750 Y0.919770 Z-0.125000 F400.000000
G01 X1.688650 Y0.916770 Z-0.125000
G01 X1.688550 Y0.913770 Z-0.125000
G01 X1.691550 Y0.906770 Z-0.125000
G01 X1.694550 Y0.899770 Z-0.125000
G01 X1.696550 Y0.901770 Z-0.125000
G01 X1.698550 Y0.903770 Z-0.125000
G01 X1.694550 Y0.910770 Z-0.125000
G01 X1.692750 Y0.912770 Z-0.125000
G00 Z5.000000

(End cutting path id: path220320)


(Start cutting path id: path220320)
(Change tool to Default tool)

G00 Z5.000000
G00 X1.682050 Y0.833870

G01 Z-0.125000 F100.0(Penetrate)
G01 X1.680050 Y0.847070 Z-0.125000 F400.000000
G01 X1.686050 Y0.862170 Z-0.125000
G01 X1.692050 Y0.877270 Z-0.125000
G01 X1.692050 Y0.884270 Z-0.125000
G01 X1.692050 Y0.891270 Z-0.125000
G01 X1.686050 Y0.896270 Z-0.125000
G01 X1.680050 Y0.901270 Z-0.125000
G01 X1.676050 Y0.931770 Z-0.125000
G01 X1.672050 Y0.962270 Z-0.125000
G01 X1.670050 Y0.971270 Z-0.125000
G01 X1.668050 Y0.980270 Z-0.125000
G01 X1.675050 Y0.979270 Z-0.125000
G01 X1.682050 Y0.978270 Z-0.125000
G01 X1.695750 Y0.940070 Z-0.125000
G01 X1.709350 Y0.901870 Z-0.125000
G01 X1.707350 Y0.881570 Z-0.125000
G01 X1.705350 Y0.861270 Z-0.125000
G01 X1.702350 Y0.841970 Z-0.125000
G01 X1.699350 Y0.822670 Z-0.125000
G01 X1.692350 Y0.822670 Z-0.125000
G01 X1.685350 Y0.822670 Z-0.125000
G01 X1.682050 Y0.833870 Z-0.125000
G00 Z5.000000

(End cutting path id: path220320)


(Start cutting path id: path220320)
(Change tool to Default tool)

G00 Z5.000000
G00 X1.511780 Y0.839970

G01 Z-0.125000 F100.0(Penetrate)
G01 X1.508780 Y0.859270 Z-0.125000 F400.000000
G01 X1.506780 Y0.879570 Z-0.125000
G01 X1.504780 Y0.899870 Z-0.125000
G01 X1.517780 Y0.936470 Z-0.125000
G01 X1.530680 Y0.973070 Z-0.125000
G01 X1.533680 Y0.978070 Z-0.125000
G01 X1.536680 Y0.983070 Z-0.125000
G01 X1.541680 Y0.980070 Z-0.125000
G01 X1.546680 Y0.977070 Z-0.125000
G01 X1.540680 Y0.938670 Z-0.125000
G01 X1.534680 Y0.900270 Z-0.125000
G01 X1.527680 Y0.893270 Z-0.125000
G01 X1.520680 Y0.886270 Z-0.125000
G01 X1.527680 Y0.865370 Z-0.125000
G01 X1.534680 Y0.844470 Z-0.125000
G01 X1.531680 Y0.832670 Z-0.125000
G01 X1.528680 Y0.820870 Z-0.125000
G01 X1.521680 Y0.820870 Z-0.125000
G01 X1.514680 Y0.820870 Z-0.125000
G01 X1.511780 Y0.839970 Z-0.125000
G00 Z5.000000

(End cutting path id: path220320)


(Start cutting path id: path220320)
(Change tool to Default tool)

G00 Z5.000000
G00 X1.525580 Y0.913370

G01 Z-0.125000 F100.0(Penetrate)
G01 X1.525520 Y0.920370 Z-0.125000 F400.000000
G01 X1.521520 Y0.914370 Z-0.125000
G01 X1.517520 Y0.908370 Z-0.125000
G01 X1.517460 Y0.905370 Z-0.125000
G01 X1.517400 Y0.902370 Z-0.125000
G01 X1.521400 Y0.905370 Z-0.125000
G01 X1.525400 Y0.908370 Z-0.125000
G01 X1.525340 Y0.915370 Z-0.125000
G01 X1.525580 Y0.913370 Z-0.125000
G00 Z5.000000

(End cutting path id: path220320)


(Start cutting path id: path220320)
(Change tool to Default tool)

G00 Z5.000000
G00 X1.430340 Y0.790870

G01 Z-0.125000 F100.0(Penetrate)
G01 X1.427340 Y0.805770 Z-0.125000 F400.000000
G01 X1.417040 Y0.819270 Z-0.125000
G01 X1.406740 Y0.832870 Z-0.125000
G01 X1.394840 Y0.832870 Z-0.125000
G01 X1.382940 Y0.832870 Z-0.125000
G01 X1.406440 Y0.804570 Z-0.125000
G01 X1.429940 Y0.776270 Z-0.125000
G01 X1.430940 Y0.776180 Z-0.125000
G01 X1.431940 Y0.776090 Z-0.125000
G01 X1.428940 Y0.790990 Z-0.125000
G01 X1.430340 Y0.790870 Z-0.125000
G00 Z5.000000

(End cutting path id: path220320)


(Start cutting path id: path220320)
(Change tool to Default tool)

G00 Z5.000000
G00 X1.416640 Y0.774970

G01 Z-0.125000 F100.0(Penetrate)
G01 X1.396540 Y0.798370 Z-0.125000 F400.000000
G01 X1.370440 Y0.828870 Z-0.125000
G01 X1.344340 Y0.859370 Z-0.125000
G01 X1.334340 Y0.860370 Z-0.125000
G01 X1.324340 Y0.861370 Z-0.125000
G01 X1.307940 Y0.873070 Z-0.125000
G01 X1.291540 Y0.884770 Z-0.125000
G01 X1.283540 Y0.891770 Z-0.125000
G01 X1.275540 Y0.898770 Z-0.125000
G01 X1.269540 Y0.929270 Z-0.125000
G01 X1.263540 Y0.959770 Z-0.125000
G01 X1.260540 Y0.986170 Z-0.125000
G01 X1.257540 Y1.012570 Z-0.125000
G01 X1.252540 Y1.023970 Z-0.125000
G01 X1.247540 Y1.035370 Z-0.125000
G01 X1.247540 Y1.039370 Z-0.125000
G01 X1.247540 Y1.043370 Z-0.125000
G01 X1.254540 Y1.043370 Z-0.125000
G01 X1.261540 Y1.043370 Z-0.125000
G01 X1.281540 Y1.037370 Z-0.125000
G01 X1.301540 Y1.031370 Z-0.125000
G01 X1.326940 Y0.981570 Z-0.125000
G01 X1.352340 Y0.931770 Z-0.125000
G01 X1.358340 Y0.907570 Z-0.125000
G01 X1.364340 Y0.883370 Z-0.125000
G01 X1.364340 Y0.877370 Z-0.125000
G01 X1.364340 Y0.871370 Z-0.125000
G01 X1.375040 Y0.858570 Z-0.125000
G01 X1.385740 Y0.845770 Z-0.125000
G01 X1.398040 Y0.843770 Z-0.125000
G01 X1.410340 Y0.841770 Z-0.125000
G01 X1.422340 Y0.826870 Z-0.125000
G01 X1.434340 Y0.811970 Z-0.125000
G01 X1.440340 Y0.784870 Z-0.125000
G01 X1.446340 Y0.757770 Z-0.125000
G01 X1.444340 Y0.753770 Z-0.125000
G01 X1.442340 Y0.749770 Z-0.125000
G01 X1.438340 Y0.749770 Z-0.125000
G01 X1.434340 Y0.749770 Z-0.125000
G01 X1.416640 Y0.774970 Z-0.125000
G00 Z5.000000

(End cutting path id: path220320)


(Start cutting path id: path220320)
(Change tool to Default tool)

G00 Z5.000000
G00 X1.367640 Y0.854770

G01 Z-0.125000 F100.0(Penetrate)
G01 X1.358640 Y0.864770 Z-0.125000 F400.000000
G01 X1.352640 Y0.894670 Z-0.125000
G01 X1.346640 Y0.924570 Z-0.125000
G01 X1.341640 Y0.934770 Z-0.125000
G03 X1.339608 Y0.938811 Z-0.125000 I-5.225441 J-2.624765
G03 X1.337982 Y0.942039 Z-0.125000 I-3.274744 J-1.648088
G03 X1.336354 Y0.945260 Z-0.125000 I-2.674250 J-1.349185
G03 X1.334987 Y0.947958 Z-0.125000 I-1.952999 J-0.988260
G03 X1.333617 Y0.950650 Z-0.125000 I-1.759988 J-0.893649
G03 X1.332362 Y0.953108 Z-0.125000 I-1.637057 J-0.834384
G03 X1.331104 Y0.955562 Z-0.125000 I-1.709310 J-0.874446
G03 X1.329815 Y0.958070 Z-0.125000 I-2.229686 J-1.144704
G03 X1.328522 Y0.960578 Z-0.125000 I-2.843856 J-1.464059
G03 X1.327052 Y0.963426 Z-0.125000 I-6.157609 J-3.176904
G03 X1.325579 Y0.966278 Z-0.125000 I-12.069574 J-6.233911
G02 X1.323781 Y0.969758 Z-0.125000 I41.890845 J21.647599
G02 X1.321980 Y0.973243 Z-0.125000 I18.157281 J9.381924
G02 X1.319708 Y0.977645 Z-0.125000 I12.046734 J6.221805
G02 X1.317434 Y0.982054 Z-0.125000 I11.599581 J5.985451
G02 X1.314540 Y0.987670 Z-0.125000 I12.380709 J6.382550
G01 X1.297340 Y1.020970 Z-0.125000
G01 X1.283240 Y1.026970 Z-0.125000
G01 X1.269140 Y1.032970 Z-0.125000
G01 X1.267140 Y1.030970 Z-0.125000
G01 X1.265140 Y1.028970 Z-0.125000
G01 X1.270140 Y1.015270 Z-0.125000
G01 X1.275140 Y1.001570 Z-0.125000
G01 X1.274640 Y0.987570 Z-0.125000
G01 X1.274140 Y0.973570 Z-0.125000
G01 X1.280140 Y0.942070 Z-0.125000
G01 X1.286140 Y0.910470 Z-0.125000
G01 X1.292140 Y0.903470 Z-0.125000
G01 X1.298140 Y0.896470 Z-0.125000
G01 X1.314040 Y0.884970 Z-0.125000
G01 X1.329940 Y0.873470 Z-0.125000
G01 X1.339940 Y0.873470 Z-0.125000
G01 X1.349940 Y0.873470 Z-0.125000
G01 X1.362440 Y0.859270 Z-0.125000
G01 X1.374940 Y0.845070 Z-0.125000
G01 X1.376940 Y0.845070 Z-0.125000
G01 X1.378940 Y0.845070 Z-0.125000
G01 X1.367640 Y0.854770 Z-0.125000
G00 Z5.000000

(End cutting path id: path220320)


(Start cutting path id: path220320)
(Change tool to Default tool)

G00 Z5.000000
G00 X1.540310 Y0.689670

G01 Z-0.125000 F100.0(Penetrate)
G01 X1.538310 Y0.691670 Z-0.125000 F400.000000
G01 X1.536310 Y0.689670 Z-0.125000
G01 X1.534310 Y0.687670 Z-0.125000
G01 X1.537310 Y0.679670 Z-0.125000
G01 X1.540310 Y0.671670 Z-0.125000
G01 X1.542310 Y0.678670 Z-0.125000
G01 X1.543310 Y0.685670 Z-0.125000
G01 X1.540310 Y0.689670 Z-0.125000
G00 Z5.000000

(End cutting path id: path220320)


(Start cutting path id: path220320)
(Change tool to Default tool)

G00 Z5.000000
G00 X1.526010 Y0.672870

G01 Z-0.125000 F100.0(Penetrate)
G01 X1.521010 Y0.691570 Z-0.125000 F400.000000
G01 X1.526010 Y0.697570 Z-0.125000
G01 X1.531010 Y0.703570 Z-0.125000
G01 X1.538010 Y0.703570 Z-0.125000
G01 X1.545010 Y0.703570 Z-0.125000
G01 X1.550010 Y0.698570 Z-0.125000
G01 X1.555010 Y0.693570 Z-0.125000
G01 X1.555010 Y0.685570 Z-0.125000
G01 X1.555010 Y0.677570 Z-0.125000
G01 X1.549010 Y0.665570 Z-0.125000
G01 X1.543010 Y0.653570 Z-0.125000
G01 X1.537010 Y0.653570 Z-0.125000
G01 X1.531010 Y0.653570 Z-0.125000
G01 X1.526010 Y0.672870 Z-0.125000
G00 Z5.000000

(End cutting path id: path220320)


(Start cutting path id: path220320)
(Change tool to Default tool)

G00 Z5.000000
G00 X1.569070 Y1.303990

G01 Z-0.125000 F100.0(Penetrate)
G01 X1.558170 Y1.315390 Z-0.125000 F400.000000
G01 X1.558170 Y1.441400 Z-0.125000
G01 X1.558170 Y1.567420 Z-0.125000
G01 X1.545970 Y1.579120 Z-0.125000
G01 X1.533770 Y1.590820 Z-0.125000
G01 X1.533770 Y1.595820 Z-0.125000
G01 X1.533770 Y1.600820 Z-0.125000
G01 X1.538770 Y1.600820 Z-0.125000
G01 X1.543770 Y1.600820 Z-0.125000
G01 X1.565970 Y1.592820 Z-0.125000
G01 X1.588170 Y1.584820 Z-0.125000
G01 X1.589170 Y1.584820 Z-0.125000
G01 X1.590170 Y1.584820 Z-0.125000
G01 X1.590170 Y1.438520 Z-0.125000
G01 X1.590170 Y1.292210 Z-0.125000
G01 X1.585170 Y1.292210 Z-0.125000
G01 X1.580170 Y1.292210 Z-0.125000
G01 X1.569070 Y1.303990 Z-0.125000
G00 Z5.000000

(End cutting path id: path220320)


(Start cutting path id: path220320)
(Change tool to Default tool)

G00 Z5.000000
G00 X1.642670 Y1.317790

G01 Z-0.125000 F100.0(Penetrate)
G01 X1.647670 Y1.322790 Z-0.125000 F400.000000
G01 X1.647670 Y1.449180 Z-0.125000
G01 X1.647670 Y1.575570 Z-0.125000
G01 X1.652670 Y1.580570 Z-0.125000
G01 X1.657670 Y1.585570 Z-0.125000
G01 X1.646870 Y1.580570 Z-0.125000
G01 X1.636070 Y1.575570 Z-0.125000
G01 X1.633070 Y1.561770 Z-0.125000
G01 X1.630070 Y1.547970 Z-0.125000
G01 X1.630770 Y1.430220 Z-0.125000
G01 X1.631470 Y1.312460 Z-0.125000
G01 X1.634470 Y1.312460 Z-0.125000
G01 X1.637470 Y1.312460 Z-0.125000
G01 X1.642670 Y1.317790 Z-0.125000
G00 Z5.000000

(End cutting path id: path220320)


(Start cutting path id: path220320)
(Change tool to Default tool)

G00 Z5.000000
G00 X1.623170 Y1.438350

G01 Z-0.125000 F100.0(Penetrate)
G01 X1.623170 Y1.584110 Z-0.125000 F400.000000
G01 X1.646970 Y1.593110 Z-0.125000
G01 X1.670770 Y1.602110 Z-0.125000
G01 X1.675770 Y1.602110 Z-0.125000
G01 X1.680770 Y1.602110 Z-0.125000
G01 X1.680770 Y1.597110 Z-0.125000
G01 X1.680770 Y1.592110 Z-0.125000
G01 X1.668570 Y1.580410 Z-0.125000
G01 X1.656370 Y1.568710 Z-0.125000
G01 X1.656370 Y1.440910 Z-0.125000
G01 X1.656370 Y1.313110 Z-0.125000
G01 X1.645170 Y1.303110 Z-0.125000
G01 X1.633970 Y1.293110 Z-0.125000
G01 X1.628970 Y1.293110 Z-0.125000
G01 X1.623970 Y1.293100 Z-0.125000
G01 X1.623970 Y1.438860 Z-0.125000
G01 X1.623170 Y1.438350 Z-0.125000
G00 Z5.000000

(End cutting path id: path220320)


(Start cutting path id: path220320)
(Change tool to Default tool)

G00 Z5.000000
G00 X1.579270 Y1.571440

G01 Z-0.125000 F100.0(Penetrate)
G01 X1.578270 Y1.576440 Z-0.125000 F400.000000
G01 X1.567370 Y1.581440 Z-0.125000
G01 X1.556370 Y1.586440 Z-0.125000
G01 X1.561370 Y1.581440 Z-0.125000
G01 X1.566370 Y1.576440 Z-0.125000
G01 X1.566370 Y1.450050 Z-0.125000
G01 X1.566370 Y1.323660 Z-0.125000
G01 X1.571370 Y1.318660 Z-0.125000
G01 X1.576370 Y1.313660 Z-0.125000
G01 X1.578370 Y1.440870 Z-0.125000
G01 X1.580370 Y1.568070 Z-0.125000
G01 X1.579270 Y1.571440 Z-0.125000
G00 Z5.000000

(End cutting path id: path220320)


(Start cutting path id: path220320)
(Change tool to Default tool)

G00 Z5.000000
G00 X2.276930 Y1.452100

G01 Z-0.125000 F100.0(Penetrate)
G01 X2.270930 Y1.457100 Z-0.125000 F400.000000
G01 X2.246830 Y1.491300 Z-0.125000
G01 X2.222730 Y1.525500 Z-0.125000
G01 X2.182130 Y1.568300 Z-0.125000
G01 X2.141530 Y1.611100 Z-0.125000
G01 X2.100930 Y1.643500 Z-0.125000
G01 X2.060330 Y1.676000 Z-0.125000
G01 X2.041230 Y1.687800 Z-0.125000
G01 X2.022130 Y1.699600 Z-0.125000
G03 X2.019772 Y1.701271 Z-0.125000 I-0.222502 J-0.311503
G03 X2.017955 Y1.702538 Z-0.125000 I-0.170674 J-0.242798
G03 X2.016131 Y1.703789 Z-0.125000 I-0.151292 J-0.218677
G03 X2.014738 Y1.704728 Z-0.125000 I-0.128017 J-0.188365
G03 X2.013340 Y1.705655 Z-0.125000 I-0.124514 J-0.186150
G03 X2.012263 Y1.706361 Z-0.125000 I-0.154865 J-0.235320
G03 X2.011186 Y1.707060 Z-0.125000 I-0.255004 J-0.391364
G02 X2.010318 Y1.707625 Z-0.125000 I0.169011 J0.260954
G02 X2.009454 Y1.708193 Z-0.125000 I0.074071 J0.113534
G02 X2.008686 Y1.708711 Z-0.125000 I0.033070 J0.049854
G01 X2.007927 Y1.709242 Z-0.125000
G01 X2.007153 Y1.709809 Z-0.125000
G01 X2.006392 Y1.710395 Z-0.125000
G02 X2.005506 Y1.711109 Z-0.125000 I0.032141 J0.040788
G02 X2.004633 Y1.711842 Z-0.125000 I0.039626 J0.048081
G02 X2.003530 Y1.712800 Z-0.125000 I0.064060 J0.074893
G01 X1.950730 Y1.738000 Z-0.125000
G01 X1.897930 Y1.763200 Z-0.125000
G01 X1.860930 Y1.775500 Z-0.125000
G01 X1.823930 Y1.787800 Z-0.125000
G01 X1.777630 Y1.798100 Z-0.125000
G01 X1.731330 Y1.808400 Z-0.125000
G01 X1.686630 Y1.813400 Z-0.125000
G01 X1.641930 Y1.818400 Z-0.125000
G01 X1.578930 Y1.816400 Z-0.125000
G01 X1.515930 Y1.814400 Z-0.125000
G01 X1.479330 Y1.807400 Z-0.125000
G01 X1.442730 Y1.800400 Z-0.125000
G01 X1.410230 Y1.792400 Z-0.125000
G01 X1.377730 Y1.784400 Z-0.125000
G01 X1.353330 Y1.775400 Z-0.125000
G01 X1.328930 Y1.766400 Z-0.125000
G01 X1.294330 Y1.751900 Z-0.125000
G01 X1.259830 Y1.737400 Z-0.125000
G01 X1.227330 Y1.719500 Z-0.125000
G01 X1.194830 Y1.701600 Z-0.125000
G01 X1.170430 Y1.685300 Z-0.125000
G01 X1.146030 Y1.668900 Z-0.125000
G01 X1.108930 Y1.638900 Z-0.125000
G01 X1.071830 Y1.608900 Z-0.125000
G01 X1.035830 Y1.571200 Z-0.125000
G01 X0.999830 Y1.533500 Z-0.125000
G01 X0.969130 Y1.493000 Z-0.125000
G01 X0.938430 Y1.452500 Z-0.125000
G01 X0.929430 Y1.451500 Z-0.125000
G01 X0.920430 Y1.450500 Z-0.125000
G01 X0.920430 Y1.454500 Z-0.125000
G01 X0.920430 Y1.458500 Z-0.125000
G01 X0.935530 Y1.479800 Z-0.125000
G01 X0.950630 Y1.501200 Z-0.125000
G01 X0.972730 Y1.529600 Z-0.125000
G01 X0.994830 Y1.558100 Z-0.125000
G01 X1.021630 Y1.586000 Z-0.125000
G01 X1.048430 Y1.613900 Z-0.125000
G01 X1.085030 Y1.644700 Z-0.125000
G01 X1.121630 Y1.675500 Z-0.125000
G01 X1.167130 Y1.705100 Z-0.125000
G01 X1.212630 Y1.734700 Z-0.125000
G01 X1.241930 Y1.749500 Z-0.125000
G01 X1.271230 Y1.764200 Z-0.125000
G01 X1.308130 Y1.778500 Z-0.125000
G01 X1.345030 Y1.792800 Z-0.125000
G01 X1.384930 Y1.804400 Z-0.125000
G01 X1.424830 Y1.816000 Z-0.125000
G01 X1.474330 Y1.824000 Z-0.125000
G01 X1.523830 Y1.832000 Z-0.125000
G01 X1.566530 Y1.835000 Z-0.125000
G01 X1.609230 Y1.838000 Z-0.125000
G01 X1.666130 Y1.833000 Z-0.125000
G01 X1.723030 Y1.828000 Z-0.125000
G01 X1.771830 Y1.818000 Z-0.125000
G01 X1.820630 Y1.808000 Z-0.125000
G01 X1.868030 Y1.792000 Z-0.125000
G01 X1.915430 Y1.776000 Z-0.125000
G01 X1.969630 Y1.749100 Z-0.125000
G01 X2.023830 Y1.722200 Z-0.125000
G01 X2.074530 Y1.686700 Z-0.125000
G01 X2.125230 Y1.651200 Z-0.125000
G01 X2.172430 Y1.604500 Z-0.125000
G01 X2.219630 Y1.557800 Z-0.125000
G01 X2.237330 Y1.536500 Z-0.125000
G01 X2.255030 Y1.515200 Z-0.125000
G01 X2.274630 Y1.486400 Z-0.125000
G01 X2.294230 Y1.457600 Z-0.125000
G01 X2.294230 Y1.451600 Z-0.125000
G01 X2.294230 Y1.445600 Z-0.125000
G01 X2.289230 Y1.445600 Z-0.125000
G01 X2.284230 Y1.445600 Z-0.125000
G01 X2.278230 Y1.450600 Z-0.125000
G01 X2.276930 Y1.452100 Z-0.125000
G00 Z5.000000

(End cutting path id: path220320)


(Start cutting path id: path220320)
(Change tool to Default tool)

G00 Z5.000000
G00 X2.244960 Y1.126550

G01 Z-0.125000 F100.0(Penetrate)
G01 X2.194160 Y1.146750 Z-0.125000 F400.000000
G01 X2.191160 Y1.149750 Z-0.125000
G01 X2.188160 Y1.152750 Z-0.125000
G01 X2.151660 Y1.142750 Z-0.125000
G01 X2.115160 Y1.132750 Z-0.125000
G01 X2.102660 Y1.133750 Z-0.125000
G01 X2.090160 Y1.134750 Z-0.125000
G01 X2.083160 Y1.144950 Z-0.125000
G01 X2.076160 Y1.155150 Z-0.125000
G01 X2.057660 Y1.199850 Z-0.125000
G01 X2.039160 Y1.244550 Z-0.125000
G01 X2.033160 Y1.281150 Z-0.125000
G01 X2.027160 Y1.317750 Z-0.125000
G01 X2.027150 Y1.345550 Z-0.125000
G01 X2.027130 Y1.373350 Z-0.125000
G01 X2.041430 Y1.390850 Z-0.125000
G01 X2.055730 Y1.408350 Z-0.125000
G01 X2.103030 Y1.435750 Z-0.125000
G01 X2.150330 Y1.463150 Z-0.125000
G01 X2.164930 Y1.465150 Z-0.125000
G01 X2.179530 Y1.467150 Z-0.125000
G01 X2.248430 Y1.448450 Z-0.125000
G01 X2.317330 Y1.429750 Z-0.125000
G01 X2.325330 Y1.429850 Z-0.125000
G01 X2.333330 Y1.429950 Z-0.125000
G01 X2.341330 Y1.435950 Z-0.125000
G01 X2.349330 Y1.441950 Z-0.125000
G01 X2.494160 Y1.441950 Z-0.125000
G01 X2.639000 Y1.441950 Z-0.125000
G01 X2.820970 Y1.462150 Z-0.125000
G01 X3.002940 Y1.482350 Z-0.125000
G01 X3.014540 Y1.476350 Z-0.125000
G01 X3.026140 Y1.470350 Z-0.125000
G01 X3.028140 Y1.470350 Z-0.125000
G01 X3.030140 Y1.470350 Z-0.125000
G01 X3.030140 Y1.476350 Z-0.125000
G01 X3.030140 Y1.482350 Z-0.125000
G01 X3.033140 Y1.482350 Z-0.125000
G01 X3.036140 Y1.482350 Z-0.125000
G01 X3.055640 Y1.495250 Z-0.125000
G01 X3.075140 Y1.508150 Z-0.125000
G01 X3.092140 Y1.534850 Z-0.125000
G01 X3.109140 Y1.561550 Z-0.125000
G01 X3.119140 Y1.587650 Z-0.125000
G01 X3.129140 Y1.613750 Z-0.125000
G01 X3.129080 Y1.638450 Z-0.125000
G01 X3.129020 Y1.663150 Z-0.125000
G01 X3.122020 Y1.677350 Z-0.125000
G01 X3.115020 Y1.691550 Z-0.125000
G01 X3.095220 Y1.715250 Z-0.125000
G01 X3.075520 Y1.738950 Z-0.125000
G01 X3.075520 Y1.744950 Z-0.125000
G01 X3.075520 Y1.750950 Z-0.125000
G01 X3.080520 Y1.750950 Z-0.125000
G01 X3.085520 Y1.750950 Z-0.125000
G01 X3.117920 Y1.732250 Z-0.125000
G01 X3.150320 Y1.713550 Z-0.125000
G01 X3.161520 Y1.700750 Z-0.125000
G01 X3.172720 Y1.687950 Z-0.125000
G01 X3.188620 Y1.659550 Z-0.125000
G01 X3.204520 Y1.631050 Z-0.125000
G01 X3.208520 Y1.606950 Z-0.125000
G01 X3.212520 Y1.582850 Z-0.125000
G01 X3.212520 Y1.551050 Z-0.125000
G01 X3.212520 Y1.519250 Z-0.125000
G01 X3.206520 Y1.477750 Z-0.125000
G01 X3.200520 Y1.436250 Z-0.125000
G01 X3.186520 Y1.394450 Z-0.125000
G01 X3.172520 Y1.352650 Z-0.125000
G01 X3.158120 Y1.330150 Z-0.125000
G01 X3.143720 Y1.307650 Z-0.125000
G01 X3.129120 Y1.294850 Z-0.125000
G01 X3.114520 Y1.282050 Z-0.125000
G01 X3.105520 Y1.277050 Z-0.125000
G01 X3.096520 Y1.272050 Z-0.125000
G01 X3.068320 Y1.255650 Z-0.125000
G01 X3.040120 Y1.239350 Z-0.125000
G01 X3.017720 Y1.235350 Z-0.125000
G01 X2.995420 Y1.231350 Z-0.125000
G01 X2.928320 Y1.216850 Z-0.125000
G01 X2.861220 Y1.202350 Z-0.125000
G01 X2.788120 Y1.186450 Z-0.125000
G01 X2.714920 Y1.170550 Z-0.125000
G01 X2.611290 Y1.148250 Z-0.125000
G01 X2.507650 Y1.125950 Z-0.125000
G01 X2.459550 Y1.115650 Z-0.125000
G01 X2.411450 Y1.105350 Z-0.125000
G01 X2.353850 Y1.105650 Z-0.125000
G01 X2.296250 Y1.105950 Z-0.125000
G01 X2.245450 Y1.126150 Z-0.125000
G01 X2.244960 Y1.126550 Z-0.125000
G00 Z5.000000

(End cutting path id: path220320)


(Start cutting path id: path220320)
(Change tool to Default tool)

G00 Z5.000000
G00 X2.728190 Y1.185650

G01 Z-0.125000 F100.0(Penetrate)
G01 X3.038690 Y1.252950 Z-0.125000 F400.000000
G01 X3.078190 Y1.276850 Z-0.125000
G01 X3.117690 Y1.300750 Z-0.125000
G01 X3.132190 Y1.316850 Z-0.125000
G01 X3.146690 Y1.332950 Z-0.125000
G01 X3.155690 Y1.350450 Z-0.125000
G01 X3.164690 Y1.367850 Z-0.125000
G01 X3.175990 Y1.401450 Z-0.125000
G01 X3.187290 Y1.435050 Z-0.125000
G01 X3.194290 Y1.475550 Z-0.125000
G01 X3.201290 Y1.516050 Z-0.125000
G01 X3.200290 Y1.564250 Z-0.125000
G01 X3.199290 Y1.612450 Z-0.125000
G01 X3.182290 Y1.646650 Z-0.125000
G01 X3.165290 Y1.680850 Z-0.125000
G01 X3.151790 Y1.694250 Z-0.125000
G01 X3.138290 Y1.707650 Z-0.125000
G01 X3.119990 Y1.718350 Z-0.125000
G01 X3.101690 Y1.729050 Z-0.125000
G01 X3.113090 Y1.714050 Z-0.125000
G01 X3.124490 Y1.699050 Z-0.125000
G01 X3.132490 Y1.681750 Z-0.125000
G01 X3.140490 Y1.664450 Z-0.125000
G01 X3.140500 Y1.638050 Z-0.125000
G01 X3.140500 Y1.611650 Z-0.125000
G01 X3.130500 Y1.583550 Z-0.125000
G01 X3.120500 Y1.555450 Z-0.125000
G01 X3.101800 Y1.527350 Z-0.125000
G01 X3.083100 Y1.499250 Z-0.125000
G01 X3.063000 Y1.486750 Z-0.125000
G01 X3.042900 Y1.474250 Z-0.125000
G01 X3.042900 Y1.464250 Z-0.125000
G01 X3.042900 Y1.454250 Z-0.125000
G01 X3.036900 Y1.454250 Z-0.125000
G01 X3.030900 Y1.454250 Z-0.125000
G01 X3.014700 Y1.462250 Z-0.125000
G01 X2.998500 Y1.470250 Z-0.125000
G01 X2.812670 Y1.449650 Z-0.125000
G01 X2.626840 Y1.429050 Z-0.125000
G01 X2.489380 Y1.429550 Z-0.125000
G01 X2.351910 Y1.430050 Z-0.125000
G01 X2.344910 Y1.424050 Z-0.125000
G01 X2.337910 Y1.418050 Z-0.125000
G01 X2.327910 Y1.418140 Z-0.125000
G01 X2.317910 Y1.418230 Z-0.125000
G01 X2.244710 Y1.438230 Z-0.125000
G01 X2.171610 Y1.458230 Z-0.125000
G01 X2.155010 Y1.451230 Z-0.125000
G01 X2.138410 Y1.444230 Z-0.125000
G01 X2.100210 Y1.421630 Z-0.125000
G01 X2.061910 Y1.399030 Z-0.125000
G01 X2.050110 Y1.383930 Z-0.125000
G01 X2.038310 Y1.368830 Z-0.125000
G01 X2.038510 Y1.343630 Z-0.125000
G01 X2.038710 Y1.318430 Z-0.125000
G01 X2.043710 Y1.288330 Z-0.125000
G01 X2.048710 Y1.258230 Z-0.125000
G01 X2.059210 Y1.229830 Z-0.125000
G01 X2.069710 Y1.201330 Z-0.125000
G01 X2.083110 Y1.174430 Z-0.125000
G01 X2.096510 Y1.147530 Z-0.125000
G01 X2.101510 Y1.145530 Z-0.125000
G01 X2.106510 Y1.143530 Z-0.125000
G01 X2.140610 Y1.152530 Z-0.125000
G01 X2.174710 Y1.161530 Z-0.125000
G01 X2.176710 Y1.166530 Z-0.125000
G01 X2.178710 Y1.171530 Z-0.125000
G01 X2.182710 Y1.171530 Z-0.125000
G01 X2.186710 Y1.171530 Z-0.125000
G01 X2.194710 Y1.163530 Z-0.125000
G01 X2.202710 Y1.155530 Z-0.125000
G01 X2.253510 Y1.135730 Z-0.125000
G01 X2.304310 Y1.115830 Z-0.125000
G01 X2.361210 Y1.116830 Z-0.125000
G01 X2.418110 Y1.117830 Z-0.125000
G01 X2.728610 Y1.185130 Z-0.125000
G01 X2.728190 Y1.185650 Z-0.125000
G00 Z5.000000

(End cutting path id: path220320)


(Start cutting path id: path220320)
(Change tool to Default tool)

G00 Z5.000000
G00 X0.966830 Y1.137850

G01 Z-0.125000 F100.0(Penetrate)
G01 X1.011530 Y1.155650 Z-0.125000 F400.000000
G01 X1.019530 Y1.162650 Z-0.125000
G01 X1.027530 Y1.170650 Z-0.125000
G01 X1.030530 Y1.170650 Z-0.125000
G01 X1.033530 Y1.170650 Z-0.125000
G01 X1.038530 Y1.164650 Z-0.125000
G01 X1.043530 Y1.158650 Z-0.125000
G01 X1.076130 Y1.150650 Z-0.125000
G01 X1.108730 Y1.142650 Z-0.125000
G01 X1.113730 Y1.144650 Z-0.125000
G01 X1.118730 Y1.146650 Z-0.125000
G01 X1.132230 Y1.173650 Z-0.125000
G01 X1.145730 Y1.200750 Z-0.125000
G01 X1.156130 Y1.229150 Z-0.125000
G01 X1.166530 Y1.257650 Z-0.125000
G01 X1.171530 Y1.285550 Z-0.125000
G01 X1.176530 Y1.313450 Z-0.125000
G01 X1.176620 Y1.341350 Z-0.125000
G01 X1.176710 Y1.369250 Z-0.125000
G01 X1.165210 Y1.383950 Z-0.125000
G01 X1.153710 Y1.398650 Z-0.125000
G01 X1.116210 Y1.420850 Z-0.125000
G01 X1.078710 Y1.443150 Z-0.125000
G01 X1.061410 Y1.451150 Z-0.125000
G01 X1.044110 Y1.459150 Z-0.125000
G01 X0.970910 Y1.439250 Z-0.125000
G01 X0.897810 Y1.419350 Z-0.125000
G01 X0.887810 Y1.419290 Z-0.125000
G01 X0.877810 Y1.419230 Z-0.125000
G01 X0.870810 Y1.425230 Z-0.125000
G01 X0.863810 Y1.431230 Z-0.125000
G01 X0.726280 Y1.430830 Z-0.125000
G01 X0.588750 Y1.430430 Z-0.125000
G01 X0.402850 Y1.450930 Z-0.125000
G01 X0.216960 Y1.471430 Z-0.125000
G01 X0.200860 Y1.463430 Z-0.125000
G01 X0.184760 Y1.455430 Z-0.125000
G01 X0.178760 Y1.455430 Z-0.125000
G01 X0.172760 Y1.455430 Z-0.125000
G01 X0.172700 Y1.464430 Z-0.125000
G01 X0.172640 Y1.473430 Z-0.125000
G01 X0.152440 Y1.486630 Z-0.125000
G01 X0.132240 Y1.499830 Z-0.125000
G01 X0.113740 Y1.527630 Z-0.125000
G01 X0.095240 Y1.555430 Z-0.125000
G01 X0.085240 Y1.583530 Z-0.125000
G01 X0.075240 Y1.611630 Z-0.125000
G01 X0.075240 Y1.638030 Z-0.125000
G01 X0.075240 Y1.664430 Z-0.125000
G01 X0.083240 Y1.681730 Z-0.125000
G01 X0.091240 Y1.699030 Z-0.125000
G01 X0.102640 Y1.714030 Z-0.125000
G01 X0.114040 Y1.729030 Z-0.125000
G01 X0.095740 Y1.718230 Z-0.125000
G01 X0.077440 Y1.707530 Z-0.125000
G01 X0.063940 Y1.694130 Z-0.125000
G01 X0.050440 Y1.680730 Z-0.125000
G01 X0.033440 Y1.646530 Z-0.125000
G01 X0.016440 Y1.612330 Z-0.125000
G01 X0.015440 Y1.563230 Z-0.125000
G01 X0.014440 Y1.514130 Z-0.125000
G01 X0.020440 Y1.477030 Z-0.125000
G01 X0.026440 Y1.439930 Z-0.125000
G01 X0.037140 Y1.405930 Z-0.125000
G01 X0.047740 Y1.371930 Z-0.125000
G01 X0.060140 Y1.348530 Z-0.125000
G01 X0.072540 Y1.325130 Z-0.125000
G01 X0.089240 Y1.309830 Z-0.125000
G01 X0.105940 Y1.294530 Z-0.125000
G01 X0.140440 Y1.273830 Z-0.125000
G01 X0.174940 Y1.253130 Z-0.125000
G01 X0.479740 Y1.186730 Z-0.125000
G01 X0.784540 Y1.120330 Z-0.125000
G01 X0.827240 Y1.118330 Z-0.125000
G01 X0.869940 Y1.116330 Z-0.125000
G01 X0.896340 Y1.118330 Z-0.125000
G01 X0.922740 Y1.120330 Z-0.125000
G01 X0.967440 Y1.138130 Z-0.125000
G01 X0.966830 Y1.137850 Z-0.125000
G00 Z5.000000

(End cutting path id: path220320)


(Start cutting path id: path220320)
(Change tool to Default tool)

G00 Z5.000000
G00 X0.678290 Y1.131850

G01 Z-0.125000 F100.0(Penetrate)
G01 X0.560430 Y1.157750 Z-0.125000 F400.000000
G01 X0.511630 Y1.168150 Z-0.125000
G01 X0.462830 Y1.178550 Z-0.125000
G01 X0.316520 Y1.210350 Z-0.125000
G01 X0.170220 Y1.242150 Z-0.125000
G01 X0.156520 Y1.250150 Z-0.125000
G01 X0.142820 Y1.258150 Z-0.125000
G01 X0.133820 Y1.263150 Z-0.125000
G01 X0.124820 Y1.268150 Z-0.125000
G01 X0.100720 Y1.283250 Z-0.125000
G01 X0.076520 Y1.298350 Z-0.125000
G01 X0.059520 Y1.323850 Z-0.125000
G01 X0.042520 Y1.349350 Z-0.125000
G01 X0.028120 Y1.392950 Z-0.125000
G01 X0.013720 Y1.436550 Z-0.125000
G01 X0.006720 Y1.481250 Z-0.125000
G01 X-0.000280 Y1.525950 Z-0.125000
G01 X0.001720 Y1.568650 Z-0.125000
G01 X0.003720 Y1.611350 Z-0.125000
G01 X0.011720 Y1.632450 Z-0.125000
G01 X0.019720 Y1.653550 Z-0.125000
G01 X0.038620 Y1.682050 Z-0.125000
G01 X0.057620 Y1.710550 Z-0.125000
G01 X0.093020 Y1.731150 Z-0.125000
G01 X0.128420 Y1.751650 Z-0.125000
G01 X0.133420 Y1.751660 Z-0.125000
G01 X0.138420 Y1.751660 Z-0.125000
G01 X0.138390 Y1.746660 Z-0.125000
G01 X0.138370 Y1.741660 Z-0.125000
G01 X0.115970 Y1.713560 Z-0.125000
G01 X0.093570 Y1.685460 Z-0.125000
G01 X0.087570 Y1.663160 Z-0.125000
G01 X0.081570 Y1.640860 Z-0.125000
G01 X0.085570 Y1.618060 Z-0.125000
G01 X0.089570 Y1.595260 Z-0.125000
G01 X0.106370 Y1.561060 Z-0.125000
G01 X0.123170 Y1.526860 Z-0.125000
G01 X0.140670 Y1.509860 Z-0.125000
G01 X0.158170 Y1.492860 Z-0.125000
G01 X0.170570 Y1.487860 Z-0.125000
G01 X0.182970 Y1.482860 Z-0.125000
G01 X0.182970 Y1.476860 Z-0.125000
G01 X0.182970 Y1.470860 Z-0.125000
G01 X0.184970 Y1.470860 Z-0.125000
G01 X0.186970 Y1.470860 Z-0.125000
G01 X0.198570 Y1.476860 Z-0.125000
G01 X0.210170 Y1.482860 Z-0.125000
G01 X0.392370 Y1.462660 Z-0.125000
G01 X0.574570 Y1.442460 Z-0.125000
G01 X0.719380 Y1.442460 Z-0.125000
G01 X0.864190 Y1.442460 Z-0.125000
G01 X0.874190 Y1.434460 Z-0.125000
G01 X0.884190 Y1.426460 Z-0.125000
G01 X0.957090 Y1.446660 Z-0.125000
G01 X1.029990 Y1.466860 Z-0.125000
G01 X1.046790 Y1.464860 Z-0.125000
G01 X1.063590 Y1.462860 Z-0.125000
G01 X1.107790 Y1.437760 Z-0.125000
G01 X1.151990 Y1.412660 Z-0.125000
G01 X1.169190 Y1.393560 Z-0.125000
G01 X1.186390 Y1.374460 Z-0.125000
G01 X1.186400 Y1.346060 Z-0.125000
G01 X1.186410 Y1.317660 Z-0.125000
G01 X1.180410 Y1.281760 Z-0.125000
G01 X1.174410 Y1.245860 Z-0.125000
G01 X1.163610 Y1.218760 Z-0.125000
G01 X1.152810 Y1.191660 Z-0.125000
G01 X1.140310 Y1.165260 Z-0.125000
G01 X1.127810 Y1.138860 Z-0.125000
G01 X1.123810 Y1.135860 Z-0.125000
G01 X1.119810 Y1.132860 Z-0.125000
G01 X1.109610 Y1.132660 Z-0.125000
G01 X1.099410 Y1.132460 Z-0.125000
G01 X1.064910 Y1.141460 Z-0.125000
G01 X1.030410 Y1.150460 Z-0.125000
G01 X0.972510 Y1.127560 Z-0.125000
G01 X0.914510 Y1.104560 Z-0.125000
G01 X0.854610 Y1.104960 Z-0.125000
G01 X0.794710 Y1.105360 Z-0.125000
G01 X0.676860 Y1.131260 Z-0.125000
G01 X0.678290 Y1.131850 Z-0.125000
G00 Z5.000000

(End cutting path id: path220320)


(Start cutting path id: path220320)
(Change tool to Default tool)

G00 Z5.000000
G00 X0.758070 Y1.459100

G01 Z-0.125000 F100.0(Penetrate)
G01 X0.753070 Y1.462100 Z-0.125000 F400.000000
G01 X0.758070 Y1.474000 Z-0.125000
G01 X0.763070 Y1.485900 Z-0.125000
G01 X0.775170 Y1.505800 Z-0.125000
G01 X0.787270 Y1.525700 Z-0.125000
G01 X0.809170 Y1.558600 Z-0.125000
G01 X0.831070 Y1.591500 Z-0.125000
G01 X0.841570 Y1.605700 Z-0.125000
G01 X0.852070 Y1.619900 Z-0.125000
G01 X0.878770 Y1.650400 Z-0.125000
G01 X0.905470 Y1.680900 Z-0.125000
G01 X0.941770 Y1.716300 Z-0.125000
G01 X0.978070 Y1.751700 Z-0.125000
G01 X1.006470 Y1.774500 Z-0.125000
G01 X1.034970 Y1.797300 Z-0.125000
G01 X1.075570 Y1.824100 Z-0.125000
G01 X1.116170 Y1.850900 Z-0.125000
G01 X1.161370 Y1.874700 Z-0.125000
G01 X1.206570 Y1.898500 Z-0.125000
G01 X1.246570 Y1.914800 Z-0.125000
G01 X1.286570 Y1.931100 Z-0.125000
G01 X1.341670 Y1.946900 Z-0.125000
G01 X1.396770 Y1.962700 Z-0.125000
G01 X1.451670 Y1.971700 Z-0.125000
G01 X1.506570 Y1.980700 Z-0.125000
G01 X1.604070 Y1.980900 Z-0.125000
G01 X1.701570 Y1.981100 Z-0.125000
G01 X1.746270 Y1.974100 Z-0.125000
G01 X1.790970 Y1.967100 Z-0.125000
G01 X1.831570 Y1.957100 Z-0.125000
G01 X1.872170 Y1.947100 Z-0.125000
G01 X1.918870 Y1.931100 Z-0.125000
G01 X1.965570 Y1.915200 Z-0.125000
G01 X2.000070 Y1.899500 Z-0.125000
G01 X2.034570 Y1.883800 Z-0.125000
G01 X2.073170 Y1.861800 Z-0.125000
G01 X2.111770 Y1.839800 Z-0.125000
G01 X2.140270 Y1.821000 Z-0.125000
G01 X2.168670 Y1.802200 Z-0.125000
G01 X2.208270 Y1.770400 Z-0.125000
G01 X2.247770 Y1.738600 Z-0.125000
G01 X2.286570 Y1.699700 Z-0.125000
G01 X2.325370 Y1.660800 Z-0.125000
G01 X2.350070 Y1.630000 Z-0.125000
G01 X2.374770 Y1.599200 Z-0.125000
G01 X2.402070 Y1.558300 Z-0.125000
G01 X2.429370 Y1.517400 Z-0.125000
G01 X2.444870 Y1.489500 Z-0.125000
G01 X2.460370 Y1.461700 Z-0.125000
G01 X2.455370 Y1.458700 Z-0.125000
G01 X2.450370 Y1.455700 Z-0.125000
G01 X2.445370 Y1.457700 Z-0.125000
G01 X2.440370 Y1.459700 Z-0.125000
G01 X2.435370 Y1.468700 Z-0.125000
G01 X2.430370 Y1.477700 Z-0.125000
G01 X2.420070 Y1.496300 Z-0.125000
G01 X2.409770 Y1.514900 Z-0.125000
G01 X2.392270 Y1.541800 Z-0.125000
G01 X2.374770 Y1.568700 Z-0.125000
G01 X2.354370 Y1.594600 Z-0.125000
G01 X2.333970 Y1.620500 Z-0.125000
G01 X2.308470 Y1.650000 Z-0.125000
G01 X2.282970 Y1.679500 Z-0.125000
G01 X2.248470 Y1.711200 Z-0.125000
G01 X2.213970 Y1.742900 Z-0.125000
G01 X2.190470 Y1.762000 Z-0.125000
G01 X2.166970 Y1.781100 Z-0.125000
G01 X2.131570 Y1.804900 Z-0.125000
G01 X2.096170 Y1.828700 Z-0.125000
G01 X2.059570 Y1.849300 Z-0.125000
G01 X2.022970 Y1.869900 Z-0.125000
G01 X1.986370 Y1.885900 Z-0.125000
G01 X1.949770 Y1.901900 Z-0.125000
G01 X1.913070 Y1.914500 Z-0.125000
G01 X1.876370 Y1.927100 Z-0.125000
G01 X1.835770 Y1.937400 Z-0.125000
G01 X1.795170 Y1.947700 Z-0.125000
G01 X1.738370 Y1.956700 Z-0.125000
G01 X1.681570 Y1.965700 Z-0.125000
G01 X1.608470 Y1.965800 Z-0.125000
G01 X1.535270 Y1.965890 Z-0.125000
G01 X1.486470 Y1.958890 Z-0.125000
G01 X1.437670 Y1.951890 Z-0.125000
G01 X1.394970 Y1.941790 Z-0.125000
G01 X1.352270 Y1.931690 Z-0.125000
G01 X1.307870 Y1.917190 Z-0.125000
G01 X1.263470 Y1.902690 Z-0.125000
G01 X1.230670 Y1.888290 Z-0.125000
G01 X1.197870 Y1.873890 Z-0.125000
G01 X1.171470 Y1.859790 Z-0.125000
G01 X1.145070 Y1.845690 Z-0.125000
G01 X1.120670 Y1.830990 Z-0.125000
G01 X1.096270 Y1.816290 Z-0.125000
G01 X1.067770 Y1.796290 Z-0.125000
G01 X1.039370 Y1.776290 Z-0.125000
G01 X1.008970 Y1.751490 Z-0.125000
G01 X0.978570 Y1.726790 Z-0.125000
G01 X0.941470 Y1.690190 Z-0.125000
G01 X0.904370 Y1.653590 Z-0.125000
G01 X0.871970 Y1.612590 Z-0.125000
G01 X0.839570 Y1.571590 Z-0.125000
G01 X0.816570 Y1.536290 Z-0.125000
G01 X0.793570 Y1.500990 Z-0.125000
G01 X0.783570 Y1.481390 Z-0.125000
G01 X0.773570 Y1.461690 Z-0.125000
G01 X0.767570 Y1.459690 Z-0.125000
G01 X0.761570 Y1.457690 Z-0.125000
G01 X0.756570 Y1.460690 Z-0.125000
G01 X0.758070 Y1.459100 Z-0.125000
G00 Z5.000000

(End cutting path id: path220320)


(Footer)
M5
G00 X0.0000 Y0.0000
M2
(Using default footer. To add your own footer create file "footer" in the output dir.)
(end)
%