%
(Header)
(Generated by gcodetools from Inkscape.)
(Using default header. To add your own header create file "header" in the output dir.)
M3
(Header end.)
G21 (All units in mm)

(Start cutting path id: path220320)
(Change tool to Default tool)

G00 Z5.000000
G00 X0.224755 Y7.335546

G01 Z-0.125000 F100.0(Penetrate)
G01 X0.448403 Y7.504235 Z-0.125000 F400.000000
G01 X0.661640 Y7.551785 Z-0.125000
G01 X0.874863 Y7.599185 Z-0.125000
G01 X1.019761 Y7.659335 Z-0.125000
G01 X1.164659 Y7.719485 Z-0.125000
G01 X1.385352 Y7.764185 Z-0.125000
G01 X1.606029 Y7.809035 Z-0.125000
G01 X1.754678 Y7.809035 Z-0.125000
G01 X1.903326 Y7.809035 Z-0.125000
G01 X2.169213 Y7.853884 Z-0.125000
G01 X2.435085 Y7.898734 Z-0.125000
G01 X2.496584 Y7.946134 Z-0.125000
G01 X2.558083 Y7.993534 Z-0.125000
G01 X2.648082 Y8.055184 Z-0.125000
G01 X2.738081 Y8.116834 Z-0.125000
G01 X2.806630 Y8.164234 Z-0.125000
G01 X2.875180 Y8.211783 Z-0.125000
G01 X2.987828 Y8.223783 Z-0.125000
G01 X3.100327 Y8.235783 Z-0.125000
G01 X3.088327 Y8.161234 Z-0.125000
G01 X3.076327 Y8.086834 Z-0.125000
G01 X3.133927 Y8.098834 Z-0.125000
G01 X3.191526 Y8.110834 Z-0.125000
G01 X3.388924 Y8.217033 Z-0.125000
G01 X3.586366 Y8.323083 Z-0.125000
G01 X3.676815 Y8.417733 Z-0.125000
G01 X3.767414 Y8.512533 Z-0.125000
G01 X3.831164 Y8.544783 Z-0.125000
G01 X3.895063 Y8.577183 Z-0.125000
G01 X4.105690 Y8.598482 Z-0.125000
G01 X4.316303 Y8.619782 Z-0.125000
G01 X4.378402 Y8.651582 Z-0.125000
G01 X4.440502 Y8.683382 Z-0.125000
G01 X4.486251 Y8.689382 Z-0.125000
G01 X4.532150 Y8.695382 Z-0.125000
G01 X4.565150 Y8.670032 Z-0.125000
G01 X4.598150 Y8.644682 Z-0.125000
G01 X4.576250 Y8.669132 Z-0.125000
G01 X4.554350 Y8.693582 Z-0.125000
G01 X4.554350 Y8.731082 Z-0.125000
G01 X4.554350 Y8.768582 Z-0.125000
G01 X4.629049 Y8.790332 Z-0.125000
G01 X4.703748 Y8.812082 Z-0.125000
G01 X4.756548 Y8.873432 Z-0.125000
G01 X4.809347 Y8.934782 Z-0.125000
G01 X4.950046 Y8.864732 Z-0.125000
G01 X5.090744 Y8.794682 Z-0.125000
G01 X5.249007 Y8.742032 Z-0.125000
G01 X5.407300 Y8.689682 Z-0.125000
G01 X5.539149 Y8.676182 Z-0.125000
G01 X5.670997 Y8.662682 Z-0.125000
G01 X5.809746 Y8.667182 Z-0.125000
G01 X5.948494 Y8.671682 Z-0.125000
G01 X6.004893 Y8.714882 Z-0.125000
G01 X6.061293 Y8.758082 Z-0.125000
G01 X6.088442 Y8.758082 Z-0.125000
G01 X6.115442 Y8.758082 Z-0.125000
G01 X6.151442 Y8.674532 Z-0.125000
G01 X6.187141 Y8.590982 Z-0.125000
G01 X6.232441 Y8.548233 Z-0.125000
G01 X6.277890 Y8.505483 Z-0.125000
G01 X6.277455 Y8.477583 Z-0.125000
G01 X6.277035 Y8.449833 Z-0.125000
G01 X6.255736 Y8.422383 Z-0.125000
G01 X6.234436 Y8.394933 Z-0.125000
G01 X6.146537 Y8.334633 Z-0.125000
G01 X6.058638 Y8.274333 Z-0.125000
G01 X5.953039 Y8.215983 Z-0.125000
G01 X5.847590 Y8.157484 Z-0.125000
G01 X5.909240 Y8.167984 Z-0.125000
G01 X5.970889 Y8.178484 Z-0.125000
G01 X6.063888 Y8.212083 Z-0.125000
G01 X6.156887 Y8.245683 Z-0.125000
G01 X6.191086 Y8.245683 Z-0.125000
G01 X6.225286 Y8.245683 Z-0.125000
G01 X6.222286 Y8.201584 Z-0.125000
G01 X6.219286 Y8.157484 Z-0.125000
G01 X6.198436 Y8.135584 Z-0.125000
G01 X6.161387 Y8.078284 Z-0.125000
G01 X6.117587 Y8.005834 Z-0.125000
G01 X6.042138 Y7.958134 Z-0.125000
G01 X5.966689 Y7.910434 Z-0.125000
G01 X5.975689 Y7.876834 Z-0.125000
G01 X5.984689 Y7.843234 Z-0.125000
G01 X5.903690 Y7.737935 Z-0.125000
G01 X5.822691 Y7.632785 Z-0.125000
G01 X5.822691 Y7.579385 Z-0.125000
G01 X5.822691 Y7.525985 Z-0.125000
G01 X5.747841 Y7.506785 Z-0.125000
G01 X5.673142 Y7.487585 Z-0.125000
G01 X5.576543 Y7.459986 Z-0.125000
G01 X5.479794 Y7.432536 Z-0.125000
G01 X5.347946 Y7.398036 Z-0.125000
G01 X5.216098 Y7.363536 Z-0.125000
G01 X5.128349 Y7.319436 Z-0.125000
G01 X5.040600 Y7.275336 Z-0.125000
G01 X5.027100 Y7.254936 Z-0.125000
G01 X5.013600 Y7.234536 Z-0.125000
G01 X5.013555 Y6.961912 Z-0.125000
G01 X5.013540 Y6.689303 Z-0.125000
G01 X5.024040 Y6.647603 Z-0.125000
G01 X5.034540 Y6.605903 Z-0.125000
G01 X5.127539 Y6.564653 Z-0.125000
G01 X5.220537 Y6.523553 Z-0.125000
G01 X5.428300 Y6.468953 Z-0.125000
G01 X5.636063 Y6.414203 Z-0.125000
G01 X5.728462 Y6.387653 Z-0.125000
G01 X5.820711 Y6.361103 Z-0.125000
G01 X5.820711 Y6.305154 Z-0.125000
G01 X5.820711 Y6.249204 Z-0.125000
G01 X5.900510 Y6.152454 Z-0.125000
G01 X5.980459 Y6.055854 Z-0.125000
G01 X5.972959 Y6.019254 Z-0.125000
G01 X5.965459 Y5.982654 Z-0.125000
G01 X6.024858 Y5.941855 Z-0.125000
G01 X6.084258 Y5.901055 Z-0.125000
G01 X6.123107 Y5.846755 Z-0.125000
G01 X6.161957 Y5.792455 Z-0.125000
G01 X6.192856 Y5.735305 Z-0.125000
G01 X6.223756 Y5.678155 Z-0.125000
G01 X6.223756 Y5.660305 Z-0.125000
G01 X6.223756 Y5.642455 Z-0.125000
G01 X6.192856 Y5.642710 Z-0.125000
G01 X6.161957 Y5.642965 Z-0.125000
G01 X6.025008 Y5.686765 Z-0.125000
G01 X5.888060 Y5.730715 Z-0.125000
G01 X5.866760 Y5.729740 Z-0.125000
G01 X5.845610 Y5.728780 Z-0.125000
G01 X5.959909 Y5.669080 Z-0.125000
G01 X6.074208 Y5.609380 Z-0.125000
G01 X6.160457 Y5.542481 Z-0.125000
G01 X6.246856 Y5.475581 Z-0.125000
G01 X6.265155 Y5.446331 Z-0.125000
G01 X6.283305 Y5.417081 Z-0.125000
G01 X6.231706 Y5.349581 Z-0.125000
G01 X6.179956 Y5.282081 Z-0.125000
G01 X6.141107 Y5.198532 Z-0.125000
G01 X6.102257 Y5.114982 Z-0.125000
G01 X6.091757 Y5.114982 Z-0.125000
G01 X6.081258 Y5.114982 Z-0.125000
G01 X6.014958 Y5.168232 Z-0.125000
G01 X5.948659 Y5.221481 Z-0.125000
G01 X5.774061 Y5.222441 Z-0.125000
G01 X5.599493 Y5.223401 Z-0.125000
G01 X5.476345 Y5.204502 Z-0.125000
G01 X5.353196 Y5.185752 Z-0.125000
G01 X5.221347 Y5.140902 Z-0.125000
G01 X5.089499 Y5.096052 Z-0.125000
G01 X4.972650 Y5.035002 Z-0.125000
G01 X4.855802 Y4.973952 Z-0.125000
G01 X4.819502 Y4.973952 Z-0.125000
G01 X4.783053 Y4.973952 Z-0.125000
G01 X4.745853 Y5.024352 Z-0.125000
G01 X4.708653 Y5.074902 Z-0.125000
G01 X4.635454 Y5.097702 Z-0.125000
G01 X4.562255 Y5.120652 Z-0.125000
G01 X4.546205 Y5.134152 Z-0.125000
G01 X4.530155 Y5.147652 Z-0.125000
G01 X4.561205 Y5.194752 Z-0.125000
G01 X4.592405 Y5.242001 Z-0.125000
G01 X4.553705 Y5.214701 Z-0.125000
G01 X4.515156 Y5.187402 Z-0.125000
G01 X4.461906 Y5.202852 Z-0.125000
G01 X4.408507 Y5.218301 Z-0.125000
G01 X4.371157 Y5.242151 Z-0.125000
G01 X4.333958 Y5.266151 Z-0.125000
G01 X4.114105 Y5.288501 Z-0.125000
G01 X3.894283 Y5.310701 Z-0.125000
G01 X3.825434 Y5.348351 Z-0.125000
G01 X3.756434 Y5.385851 Z-0.125000
G01 X3.677385 Y5.469851 Z-0.125000
G01 X3.598336 Y5.553851 Z-0.125000
G01 X3.447348 Y5.638600 Z-0.125000
G01 X3.296315 Y5.723500 Z-0.125000
G01 X3.234665 Y5.751250 Z-0.125000
G01 X3.173016 Y5.779150 Z-0.125000
G01 X3.134917 Y5.789650 Z-0.125000
G01 X3.096817 Y5.800150 Z-0.125000
G01 X3.086317 Y5.782000 Z-0.125000
G01 X3.075817 Y5.763850 Z-0.125000
G01 X3.093067 Y5.731750 Z-0.125000
G01 X3.110317 Y5.699650 Z-0.125000
G01 X3.095317 Y5.676400 Z-0.125000
G01 X3.080317 Y5.653150 Z-0.125000
G01 X2.977718 Y5.666650 Z-0.125000
G01 X2.874970 Y5.680150 Z-0.125000
G01 X2.681172 Y5.812600 Z-0.125000
G01 X2.487359 Y5.945050 Z-0.125000
G01 X2.460659 Y5.967999 Z-0.125000
G01 X2.433960 Y5.990799 Z-0.125000
G01 X2.168013 Y6.035649 Z-0.125000
G01 X1.902051 Y6.080649 Z-0.125000
G01 X1.749428 Y6.080649 Z-0.125000
G01 X1.596819 Y6.080649 Z-0.125000
G01 X1.382517 Y6.124599 Z-0.125000
G01 X1.168199 Y6.168549 Z-0.125000
G01 X1.097850 Y6.196899 Z-0.125000
G01 X1.027501 Y6.225249 Z-0.125000
G01 X0.956252 Y6.256899 Z-0.125000
G01 X0.884853 Y6.288699 Z-0.125000
G01 X0.666635 Y6.337298 Z-0.125000
G01 X0.448463 Y6.385898 Z-0.125000
G01 X0.223600 Y6.554468 Z-0.125000
G01 X-0.001277 Y6.723037 Z-0.125000
G01 X-0.001277 Y6.741187 Z-0.125000
G01 X-0.001277 Y6.759337 Z-0.125000
G01 X0.044172 Y6.808387 Z-0.125000
G01 X0.089622 Y6.857437 Z-0.125000
G01 X0.162821 Y6.848437 Z-0.125000
G01 X0.236170 Y6.839437 Z-0.125000
G01 X0.403268 Y6.828937 Z-0.125000
G01 X0.570336 Y6.818437 Z-0.125000
G01 X0.627486 Y6.763537 Z-0.125000
G01 X0.684635 Y6.708638 Z-0.125000
G01 X0.684635 Y6.660788 Z-0.125000
G01 X0.684635 Y6.612938 Z-0.125000
G01 X0.776284 Y6.593288 Z-0.125000
G01 X0.868083 Y6.573638 Z-0.125000
G01 X1.062106 Y6.564638 Z-0.125000
G01 X1.256143 Y6.555638 Z-0.125000
G01 X1.396692 Y6.519938 Z-0.125000
G01 X1.537240 Y6.483938 Z-0.125000
G01 X1.669239 Y6.491438 Z-0.125000
G01 X1.801237 Y6.498938 Z-0.125000
G01 X1.894086 Y6.539588 Z-0.125000
G01 X1.986935 Y6.580238 Z-0.125000
G01 X1.979435 Y6.587738 Z-0.125000
G01 X1.971935 Y6.595238 Z-0.125000
G01 X1.890936 Y6.574988 Z-0.125000
G01 X1.809787 Y6.554738 Z-0.125000
G01 X1.668489 Y6.591788 Z-0.125000
G01 X1.527190 Y6.628838 Z-0.125000
G01 X1.519690 Y6.628838 Z-0.125000
G01 X1.512190 Y6.628838 Z-0.125000
G01 X1.512190 Y6.655238 Z-0.125000
G01 X1.512190 Y6.681638 Z-0.125000
G01 X1.569340 Y6.706538 Z-0.125000
G01 X1.626489 Y6.731587 Z-0.125000
G01 X1.559440 Y6.732757 Z-0.125000
G01 X1.492391 Y6.733912 Z-0.125000
G01 X1.453991 Y6.755212 Z-0.125000
G01 X1.415591 Y6.776362 Z-0.125000
G01 X1.151805 Y6.788362 Z-0.125000
G01 X0.887988 Y6.800362 Z-0.125000
G01 X0.832038 Y6.812362 Z-0.125000
G01 X0.776089 Y6.824362 Z-0.125000
G01 X0.768589 Y6.846712 Z-0.125000
G01 X0.761089 Y6.869062 Z-0.125000
G01 X0.885138 Y6.899362 Z-0.125000
G01 X1.009336 Y6.929512 Z-0.125000
G01 X1.436396 Y6.923512 Z-0.125000
G01 X1.863426 Y6.917512 Z-0.125000
G01 X1.876926 Y6.931012 Z-0.125000
G01 X1.890426 Y6.944512 Z-0.125000
G01 X1.876926 Y6.958012 Z-0.125000
G01 X1.863426 Y6.971512 Z-0.125000
G01 X1.442891 Y6.965512 Z-0.125000
G01 X1.022371 Y6.959512 Z-0.125000
G01 X0.890373 Y6.990862 Z-0.125000
G01 X0.758374 Y7.022062 Z-0.125000
G01 X0.758374 Y7.042162 Z-0.125000
G01 X0.758374 Y7.062262 Z-0.125000
G01 X0.894722 Y7.082812 Z-0.125000
G01 X1.031071 Y7.103361 Z-0.125000
G01 X1.201364 Y7.103256 Z-0.125000
G01 X1.371702 Y7.103106 Z-0.125000
G01 X1.421201 Y7.122156 Z-0.125000
G01 X1.470701 Y7.141356 Z-0.125000
G01 X1.541050 Y7.154856 Z-0.125000
G01 X1.611399 Y7.168356 Z-0.125000
G01 X1.562950 Y7.191456 Z-0.125000
G01 X1.514650 Y7.214556 Z-0.125000
G01 X1.514650 Y7.235256 Z-0.125000
G01 X1.514650 Y7.255956 Z-0.125000
G01 X1.661349 Y7.294806 Z-0.125000
G01 X1.808047 Y7.333656 Z-0.125000
G01 X1.890696 Y7.312956 Z-0.125000
G01 X1.973195 Y7.292256 Z-0.125000
G01 X1.980695 Y7.299756 Z-0.125000
G01 X1.988195 Y7.307256 Z-0.125000
G01 X1.895346 Y7.347606 Z-0.125000
G01 X1.802497 Y7.387956 Z-0.125000
G01 X1.676048 Y7.395456 Z-0.125000
G01 X1.549750 Y7.402956 Z-0.125000
G01 X1.394727 Y7.366806 Z-0.125000
G01 X1.239748 Y7.330806 Z-0.125000
G01 X1.053016 Y7.321806 Z-0.125000
G01 X0.866223 Y7.312806 Z-0.125000
G01 X0.776074 Y7.293306 Z-0.125000
G01 X0.685775 Y7.274256 Z-0.125000
G01 X0.685775 Y7.226406 Z-0.125000
G01 X0.685775 Y7.178556 Z-0.125000
G01 X0.628626 Y7.124106 Z-0.125000
G01 X0.571476 Y7.069657 Z-0.125000
G01 X0.334059 Y7.051657 Z-0.125000
G01 X0.096642 Y7.033657 Z-0.125000
G01 X0.048342 Y7.079407 Z-0.125000
G01 X0.000043 Y7.125156 Z-0.125000
G01 X0.000493 Y7.144056 Z-0.125000
G01 X0.000883 Y7.162806 Z-0.125000
G01 X0.224545 Y7.331526 Z-0.125000
G01 X0.224755 Y7.335546 Z-0.125000
G00 Z5.000000

(End cutting path id: path220320)


(Start cutting path id: path220320)
(Change tool to Default tool)

G00 Z5.000000
G00 X0.085557 Y7.108461

G01 Z-0.125000 F100.0(Penetrate)
G01 X0.100557 Y7.085512 Z-0.125000 F400.000000
G01 X0.248305 Y7.096011 Z-0.125000
G01 X0.396053 Y7.106511 Z-0.125000
G01 X0.475252 Y7.115511 Z-0.125000
G01 X0.554301 Y7.124511 Z-0.125000
G01 X0.594051 Y7.160961 Z-0.125000
G01 X0.633650 Y7.197561 Z-0.125000
G01 X0.633650 Y7.235061 Z-0.125000
G01 X0.633650 Y7.272561 Z-0.125000
G01 X0.655550 Y7.300911 Z-0.125000
G01 X0.677450 Y7.329111 Z-0.125000
G01 X0.800599 Y7.348011 Z-0.125000
G01 X0.923747 Y7.366761 Z-0.125000
G01 X1.099590 Y7.377261 Z-0.125000
G01 X1.275448 Y7.387761 Z-0.125000
G01 X1.363347 Y7.411611 Z-0.125000
G01 X1.451396 Y7.435461 Z-0.125000
G01 X1.578895 Y7.447461 Z-0.125000
G01 X1.706393 Y7.459461 Z-0.125000
G01 X1.789942 Y7.436961 Z-0.125000
G01 X1.873491 Y7.414611 Z-0.125000
G01 X1.935140 Y7.384461 Z-0.125000
G01 X1.996790 Y7.354461 Z-0.125000
G01 X2.089939 Y7.332561 Z-0.125000
G01 X2.183238 Y7.310661 Z-0.125000
G01 X2.177238 Y7.282011 Z-0.125000
G01 X2.171238 Y7.253361 Z-0.125000
G01 X2.101039 Y7.241361 Z-0.125000
G01 X2.030839 Y7.229361 Z-0.125000
G01 X1.925541 Y7.255911 Z-0.125000
G01 X1.820242 Y7.282611 Z-0.125000
G01 X1.718693 Y7.261161 Z-0.125000
G01 X1.617144 Y7.239711 Z-0.125000
G01 X1.617144 Y7.226211 Z-0.125000
G01 X1.617144 Y7.212711 Z-0.125000
G01 X1.797442 Y7.203711 Z-0.125000
G01 X1.977665 Y7.194711 Z-0.125000
G01 X2.021764 Y7.187211 Z-0.125000
G01 X2.065864 Y7.179711 Z-0.125000
G01 X2.294491 Y7.175211 Z-0.125000
G01 X2.523104 Y7.170711 Z-0.125000
G01 X2.461454 Y7.157211 Z-0.125000
G01 X2.399805 Y7.143711 Z-0.125000
G01 X2.461454 Y7.139211 Z-0.125000
G01 X2.523104 Y7.134711 Z-0.125000
G01 X2.444055 Y7.118661 Z-0.125000
G01 X2.365005 Y7.102611 Z-0.125000
G01 X2.162733 Y7.099611 Z-0.125000
G01 X1.960505 Y7.096611 Z-0.125000
G01 X1.728698 Y7.099611 Z-0.125000
G01 X1.496861 Y7.102611 Z-0.125000
G01 X1.434761 Y7.076662 Z-0.125000
G01 X1.372512 Y7.050712 Z-0.125000
G01 X1.130130 Y7.049737 Z-0.125000
G01 X0.887748 Y7.048582 Z-0.125000
G01 X0.931847 Y7.030732 Z-0.125000
G01 X0.975947 Y7.012882 Z-0.125000
G01 X1.415591 Y7.017382 Z-0.125000
G01 X1.855251 Y7.021882 Z-0.125000
G01 X1.912401 Y6.991732 Z-0.125000
G01 X1.969550 Y6.961432 Z-0.125000
G01 X1.969550 Y6.944632 Z-0.125000
G01 X1.969550 Y6.927982 Z-0.125000
G01 X1.912401 Y6.897832 Z-0.125000
G01 X1.855251 Y6.867532 Z-0.125000
G01 X1.415591 Y6.872032 Z-0.125000
G01 X0.975947 Y6.876532 Z-0.125000
G01 X0.931847 Y6.858682 Z-0.125000
G01 X0.887748 Y6.840832 Z-0.125000
G01 X1.130130 Y6.839662 Z-0.125000
G01 X1.372512 Y6.838507 Z-0.125000
G01 X1.437911 Y6.810907 Z-0.125000
G01 X1.503310 Y6.783307 Z-0.125000
G01 X1.731923 Y6.787807 Z-0.125000
G01 X1.960550 Y6.792307 Z-0.125000
G01 X2.162778 Y6.789307 Z-0.125000
G01 X2.365065 Y6.786307 Z-0.125000
G01 X2.452964 Y6.770857 Z-0.125000
G01 X2.541013 Y6.755407 Z-0.125000
G01 X2.470664 Y6.750907 Z-0.125000
G01 X2.400315 Y6.746407 Z-0.125000
G01 X2.461964 Y6.732907 Z-0.125000
G01 X2.523614 Y6.719407 Z-0.125000
G01 X2.295016 Y6.714907 Z-0.125000
G01 X2.066389 Y6.710408 Z-0.125000
G01 X2.022289 Y6.702908 Z-0.125000
G01 X1.978190 Y6.695408 Z-0.125000
G01 X1.797922 Y6.686408 Z-0.125000
G01 X1.617654 Y6.677408 Z-0.125000
G01 X1.617654 Y6.663908 Z-0.125000
G01 X1.617654 Y6.650408 Z-0.125000
G01 X1.718753 Y6.629408 Z-0.125000
G01 X1.819852 Y6.608408 Z-0.125000
G01 X1.926651 Y6.633608 Z-0.125000
G01 X2.033449 Y6.658958 Z-0.125000
G01 X2.102449 Y6.648458 Z-0.125000
G01 X2.171148 Y6.637958 Z-0.125000
G01 X2.177148 Y6.609158 Z-0.125000
G01 X2.183148 Y6.580058 Z-0.125000
G01 X2.093599 Y6.561008 Z-0.125000
G01 X2.004050 Y6.541808 Z-0.125000
G01 X1.938650 Y6.509258 Z-0.125000
G01 X1.873251 Y6.477008 Z-0.125000
G01 X1.789702 Y6.454508 Z-0.125000
G01 X1.706153 Y6.432008 Z-0.125000
G01 X1.578655 Y6.444008 Z-0.125000
G01 X1.451156 Y6.456008 Z-0.125000
G01 X1.363107 Y6.479858 Z-0.125000
G01 X1.275208 Y6.503558 Z-0.125000
G01 X1.099335 Y6.514058 Z-0.125000
G01 X0.923477 Y6.524558 Z-0.125000
G01 X0.791629 Y6.544208 Z-0.125000
G01 X0.659780 Y6.563858 Z-0.125000
G01 X0.646280 Y6.583058 Z-0.125000
G01 X0.632781 Y6.602108 Z-0.125000
G01 X0.632511 Y6.647408 Z-0.125000
G01 X0.632271 Y6.692558 Z-0.125000
G01 X0.589521 Y6.732757 Z-0.125000
G01 X0.546771 Y6.772957 Z-0.125000
G01 X0.323304 Y6.790357 Z-0.125000
G01 X0.099822 Y6.807757 Z-0.125000
G01 X0.084672 Y6.784357 Z-0.125000
G01 X0.069672 Y6.760957 Z-0.125000
G01 X0.069402 Y6.750457 Z-0.125000
G01 X0.069147 Y6.739957 Z-0.125000
G01 X0.278170 Y6.582278 Z-0.125000
G01 X0.487192 Y6.424613 Z-0.125000
G01 X0.684080 Y6.385313 Z-0.125000
G01 X0.880983 Y6.346013 Z-0.125000
G01 X1.024681 Y6.285414 Z-0.125000
G01 X1.168379 Y6.224664 Z-0.125000
G01 X1.375317 Y6.180864 Z-0.125000
G01 X1.582225 Y6.136914 Z-0.125000
G01 X1.744643 Y6.135954 Z-0.125000
G01 X1.907001 Y6.134979 Z-0.125000
G01 X2.179623 Y6.087429 Z-0.125000
G01 X2.452229 Y6.039879 Z-0.125000
G01 X2.683647 Y5.877265 Z-0.125000
G01 X2.915079 Y5.714710 Z-0.125000
G01 X2.975228 Y5.714710 Z-0.125000
G01 X3.035378 Y5.714710 Z-0.125000
G01 X3.035378 Y5.768110 Z-0.125000
G01 X3.035378 Y5.821360 Z-0.125000
G01 X3.051728 Y5.837260 Z-0.125000
G01 X3.067927 Y5.853160 Z-0.125000
G01 X3.146976 Y5.837860 Z-0.125000
G01 X3.226026 Y5.822410 Z-0.125000
G01 X3.410688 Y5.722210 Z-0.125000
G01 X3.595366 Y5.622010 Z-0.125000
G01 X3.700815 Y5.521811 Z-0.125000
G01 X3.806414 Y5.421761 Z-0.125000
G01 X3.852013 Y5.393561 Z-0.125000
G01 X3.897613 Y5.365361 Z-0.125000
G01 X4.127530 Y5.338511 Z-0.125000
G01 X4.357447 Y5.311811 Z-0.125000
G01 X4.429897 Y5.275061 Z-0.125000
G01 X4.502346 Y5.238311 Z-0.125000
G01 X4.549895 Y5.272061 Z-0.125000
G01 X4.597595 Y5.305811 Z-0.125000
G01 X4.711893 Y5.367311 Z-0.125000
G01 X4.826192 Y5.428811 Z-0.125000
G01 X4.922791 Y5.437811 Z-0.125000
G01 X5.019390 Y5.446811 Z-0.125000
G01 X4.986240 Y5.437811 Z-0.125000
G01 X4.953091 Y5.428811 Z-0.125000
G01 X4.975440 Y5.415311 Z-0.125000
G01 X4.997790 Y5.401811 Z-0.125000
G01 X4.903141 Y5.373761 Z-0.125000
G01 X4.808492 Y5.345711 Z-0.125000
G01 X4.707393 Y5.265911 Z-0.125000
G01 X4.606295 Y5.186112 Z-0.125000
G01 X4.606295 Y5.171112 Z-0.125000
G01 X4.606295 Y5.156112 Z-0.125000
G01 X4.675744 Y5.135412 Z-0.125000
G01 X4.745343 Y5.114712 Z-0.125000
G01 X4.781193 Y5.063862 Z-0.125000
G01 X4.817342 Y5.013012 Z-0.125000
G01 X4.929391 Y5.072562 Z-0.125000
G01 X5.041440 Y5.132112 Z-0.125000
G01 X5.206453 Y5.184912 Z-0.125000
G01 X5.371421 Y5.237711 Z-0.125000
G01 X5.494419 Y5.255711 Z-0.125000
G01 X5.617268 Y5.273711 Z-0.125000
G01 X5.789931 Y5.274116 Z-0.125000
G01 X5.962564 Y5.274506 Z-0.125000
G01 X6.022113 Y5.229056 Z-0.125000
G01 X6.081663 Y5.183757 Z-0.125000
G01 X6.108062 Y5.246756 Z-0.125000
G01 X6.134462 Y5.309756 Z-0.125000
G01 X6.180661 Y5.370356 Z-0.125000
G01 X6.226861 Y5.430956 Z-0.125000
G01 X6.115562 Y5.513156 Z-0.125000
G01 X6.004263 Y5.595355 Z-0.125000
G01 X5.889965 Y5.648305 Z-0.125000
G01 X5.775666 Y5.701405 Z-0.125000
G01 X5.749116 Y5.713405 Z-0.125000
G01 X5.722567 Y5.725405 Z-0.125000
G01 X5.722567 Y5.749705 Z-0.125000
G01 X5.722567 Y5.774005 Z-0.125000
G01 X5.836865 Y5.771005 Z-0.125000
G01 X5.951164 Y5.768005 Z-0.125000
G01 X6.053013 Y5.732905 Z-0.125000
G01 X6.154712 Y5.697955 Z-0.125000
G01 X6.114212 Y5.770555 Z-0.125000
G01 X6.073863 Y5.843155 Z-0.125000
G01 X5.988964 Y5.904355 Z-0.125000
G01 X5.904215 Y5.965554 Z-0.125000
G01 X5.913214 Y6.002454 Z-0.125000
G01 X5.922214 Y6.039354 Z-0.125000
G01 X5.844065 Y6.143454 Z-0.125000
G01 X5.765916 Y6.247704 Z-0.125000
G01 X5.765916 Y6.288054 Z-0.125000
G01 X5.765916 Y6.328404 Z-0.125000
G01 X5.700067 Y6.346103 Z-0.125000
G01 X5.634218 Y6.363803 Z-0.125000
G01 X5.398315 Y6.426503 Z-0.125000
G01 X5.162428 Y6.489203 Z-0.125000
G01 X5.073629 Y6.537203 Z-0.125000
G01 X4.984680 Y6.585203 Z-0.125000
G01 X4.972680 Y6.629303 Z-0.125000
G01 X4.960680 Y6.673403 Z-0.125000
G01 X4.960920 Y6.937222 Z-0.125000
G01 X4.961205 Y7.201041 Z-0.125000
G01 X4.971705 Y7.253841 Z-0.125000
G01 X4.982205 Y7.306641 Z-0.125000
G01 X5.093804 Y7.361541 Z-0.125000
G01 X5.205553 Y7.416591 Z-0.125000
G01 X5.419180 Y7.471640 Z-0.125000
G01 X5.632808 Y7.526690 Z-0.125000
G01 X5.698807 Y7.545140 Z-0.125000
G01 X5.764656 Y7.563590 Z-0.125000
G01 X5.764656 Y7.605290 Z-0.125000
G01 X5.764656 Y7.646690 Z-0.125000
G01 X5.842955 Y7.750790 Z-0.125000
G01 X5.921254 Y7.855039 Z-0.125000
G01 X5.912254 Y7.890589 Z-0.125000
G01 X5.903255 Y7.925989 Z-0.125000
G01 X5.988154 Y7.987339 Z-0.125000
G01 X6.073053 Y8.048539 Z-0.125000
G01 X6.112202 Y8.119039 Z-0.125000
G01 X6.151352 Y8.189539 Z-0.125000
G01 X6.009153 Y8.148289 Z-0.125000
G01 X5.866955 Y8.107039 Z-0.125000
G01 X5.789856 Y8.107039 Z-0.125000
G01 X5.712757 Y8.107039 Z-0.125000
G01 X5.712757 Y8.132539 Z-0.125000
G01 X5.712757 Y8.158039 Z-0.125000
G01 X5.857805 Y8.226588 Z-0.125000
G01 X6.002853 Y8.295138 Z-0.125000
G01 X6.112952 Y8.377038 Z-0.125000
G01 X6.223051 Y8.458938 Z-0.125000
G01 X6.161252 Y8.548788 Z-0.125000
G01 X6.099602 Y8.638637 Z-0.125000
G01 X6.099602 Y8.661887 Z-0.125000
G01 X6.099602 Y8.685137 Z-0.125000
G01 X6.083403 Y8.694137 Z-0.125000
G01 X6.067203 Y8.703137 Z-0.125000
G01 X6.011703 Y8.656487 Z-0.125000
G01 X5.956054 Y8.609537 Z-0.125000
G01 X5.697787 Y8.620037 Z-0.125000
G01 X5.439535 Y8.630537 Z-0.125000
G01 X5.237532 Y8.693837 Z-0.125000
G01 X5.035530 Y8.756987 Z-0.125000
G01 X4.928281 Y8.816987 Z-0.125000
G01 X4.821032 Y8.876987 Z-0.125000
G01 X4.783083 Y8.825687 Z-0.125000
G01 X4.745133 Y8.774387 Z-0.125000
G01 X4.674784 Y8.753537 Z-0.125000
G01 X4.604435 Y8.732537 Z-0.125000
G01 X4.604435 Y8.717537 Z-0.125000
G01 X4.604435 Y8.702537 Z-0.125000
G01 X4.705533 Y8.622737 Z-0.125000
G01 X4.806632 Y8.543088 Z-0.125000
G01 X4.912231 Y8.510088 Z-0.125000
G01 X5.017680 Y8.477088 Z-0.125000
G01 X4.982580 Y8.474088 Z-0.125000
G01 X4.947631 Y8.471088 Z-0.125000
G01 X4.982580 Y8.454438 Z-0.125000
G01 X5.017680 Y8.437788 Z-0.125000
G01 X4.922881 Y8.446788 Z-0.125000
G01 X4.828082 Y8.455788 Z-0.125000
G01 X4.711833 Y8.518488 Z-0.125000
G01 X4.595585 Y8.581188 Z-0.125000
G01 X4.547885 Y8.614937 Z-0.125000
G01 X4.500186 Y8.648687 Z-0.125000
G01 X4.427137 Y8.611487 Z-0.125000
G01 X4.353938 Y8.574288 Z-0.125000
G01 X4.140550 Y8.550738 Z-0.125000
G01 X3.927177 Y8.527338 Z-0.125000
G01 X3.876628 Y8.508138 Z-0.125000
G01 X3.826229 Y8.489088 Z-0.125000
G01 X3.709530 Y8.377038 Z-0.125000
G01 X3.592831 Y8.264988 Z-0.125000
G01 X3.390589 Y8.159539 Z-0.125000
G01 X3.188316 Y8.054089 Z-0.125000
G01 X3.121567 Y8.045089 Z-0.125000
G01 X3.054818 Y8.036089 Z-0.125000
G01 X3.038468 Y8.078989 Z-0.125000
G01 X3.021968 Y8.121889 Z-0.125000
G01 X3.032468 Y8.148439 Z-0.125000
G01 X3.042968 Y8.174989 Z-0.125000
G01 X2.978018 Y8.174989 Z-0.125000
G01 X2.913069 Y8.174989 Z-0.125000
G01 X2.681637 Y8.012419 Z-0.125000
G01 X2.450190 Y7.849834 Z-0.125000
G01 X2.177583 Y7.802285 Z-0.125000
G01 X1.905021 Y7.754735 Z-0.125000
G01 X1.742393 Y7.753760 Z-0.125000
G01 X1.579795 Y7.752800 Z-0.125000
G01 X1.375347 Y7.709450 Z-0.125000
G01 X1.170899 Y7.666100 Z-0.125000
G01 X1.019161 Y7.604000 Z-0.125000
G01 X0.867378 Y7.541900 Z-0.125000
G01 X0.668990 Y7.499750 Z-0.125000
G01 X0.470617 Y7.457601 Z-0.125000
G01 X0.268915 Y7.303806 Z-0.125000
G01 X0.067197 Y7.149996 Z-0.125000
G01 X0.067482 Y7.139496 Z-0.125000
G01 X0.067737 Y7.128996 Z-0.125000
G01 X0.082737 Y7.106046 Z-0.125000
G01 X0.085557 Y7.108461 Z-0.125000
G00 Z5.000000

(End cutting path id: path220320)


(Start cutting path id: path220320)
(Change tool to Default tool)

G00 Z5.000000
G00 X0.343434 Y7.767875

G01 Z-0.125000 F100.0(Penetrate)
G01 X0.384533 Y7.964224 Z-0.125000 F400.000000
G01 X0.422783 Y8.102074 Z-0.125000
G01 X0.461032 Y8.239923 Z-0.125000
G01 X0.545932 Y8.453403 Z-0.125000
G01 X0.630831 Y8.666897 Z-0.125000
G01 X0.713480 Y8.831567 Z-0.125000
G01 X0.796129 Y8.996191 Z-0.125000
G01 X0.940127 Y9.216061 Z-0.125000
G01 X1.084275 Y9.435915 Z-0.125000
G01 X1.190774 Y9.567765 Z-0.125000
G01 X1.297273 Y9.699615 Z-0.125000
G01 X1.470836 Y9.873134 Z-0.125000
G01 X1.644384 Y10.046684 Z-0.125000
G01 X1.811812 Y10.181683 Z-0.125000
G01 X1.979240 Y10.316533 Z-0.125000
G01 X2.163528 Y10.437883 Z-0.125000
G01 X2.347831 Y10.559232 Z-0.125000
G01 X2.611648 Y10.686132 Z-0.125000
G01 X2.875435 Y10.812882 Z-0.125000
G01 X3.064612 Y10.875731 Z-0.125000
G01 X3.253715 Y10.938581 Z-0.125000
G01 X3.358864 Y10.966031 Z-0.125000
G01 X3.464013 Y10.993481 Z-0.125000
G01 X3.556712 Y11.012081 Z-0.125000
G01 X3.649411 Y11.030531 Z-0.125000
G01 X3.807704 Y11.056631 Z-0.125000
G01 X3.965967 Y11.082881 Z-0.125000
G01 X4.283618 Y11.093381 Z-0.125000
G01 X4.601255 Y11.103881 Z-0.125000
G01 X4.719903 Y11.091881 Z-0.125000
G01 X4.838552 Y11.079881 Z-0.125000
G01 X4.832552 Y11.044331 Z-0.125000
G01 X4.826552 Y11.008781 Z-0.125000
G01 X4.457226 Y11.011781 Z-0.125000
G01 X4.087916 Y11.014781 Z-0.125000
G01 X3.885643 Y10.986431 Z-0.125000
G01 X3.683430 Y10.958231 Z-0.125000
G01 X3.560282 Y10.931081 Z-0.125000
G01 X3.437283 Y10.903931 Z-0.125000
G01 X3.278960 Y10.859231 Z-0.125000
G01 X3.120682 Y10.814532 Z-0.125000
G01 X2.906514 Y10.728882 Z-0.125000
G01 X2.692362 Y10.643082 Z-0.125000
G01 X2.537203 Y10.561932 Z-0.125000
G01 X2.382060 Y10.480932 Z-0.125000
G01 X2.179803 Y10.348033 Z-0.125000
G01 X1.977545 Y10.215133 Z-0.125000
G01 X1.828147 Y10.092133 Z-0.125000
G01 X1.678598 Y9.969134 Z-0.125000
G01 X1.536250 Y9.824984 Z-0.125000
G01 X1.393902 Y9.680835 Z-0.125000
G01 X1.270003 Y9.533535 Z-0.125000
G01 X1.146105 Y9.386235 Z-0.125000
G01 X1.002856 Y9.166366 Z-0.125000
G01 X0.859608 Y8.946527 Z-0.125000
G01 X0.765259 Y8.753042 Z-0.125000
G01 X0.670910 Y8.559573 Z-0.125000
G01 X0.608211 Y8.390598 Z-0.125000
G01 X0.545512 Y8.221608 Z-0.125000
G01 X0.500062 Y8.065204 Z-0.125000
G01 X0.454613 Y7.908829 Z-0.125000
G01 X0.417713 Y7.715360 Z-0.125000
G01 X0.380663 Y7.521905 Z-0.125000
G01 X0.358914 Y7.498055 Z-0.125000
G01 X0.337164 Y7.474205 Z-0.125000
G01 X0.317964 Y7.486205 Z-0.125000
G01 X0.298764 Y7.498205 Z-0.125000
G01 X0.301764 Y7.536755 Z-0.125000
G01 X0.304764 Y7.575305 Z-0.125000
G01 X0.345864 Y7.771655 Z-0.125000
G01 X0.343434 Y7.767875 Z-0.125000
G00 Z5.000000

(End cutting path id: path220320)


(Start cutting path id: path220320)
(Change tool to Default tool)

G00 Z5.000000
G00 X1.079910 Y8.046394

G01 Z-0.125000 F100.0(Penetrate)
G01 X1.155209 Y8.275008 Z-0.125000 F400.000000
G01 X1.227959 Y8.427618 Z-0.125000
G01 X1.300858 Y8.580288 Z-0.125000
G01 X1.391907 Y8.735447 Z-0.125000
G01 X1.483106 Y8.890622 Z-0.125000
G01 X1.607754 Y9.057661 Z-0.125000
G01 X1.732403 Y9.224761 Z-0.125000
G01 X1.934765 Y9.427920 Z-0.125000
G01 X2.137158 Y9.631080 Z-0.125000
G01 X2.304211 Y9.753779 Z-0.125000
G01 X2.471279 Y9.876479 Z-0.125000
G01 X2.592178 Y9.952379 Z-0.125000
G01 X2.713226 Y10.028279 Z-0.125000
G01 X2.899989 Y10.116178 Z-0.125000
G01 X3.086842 Y10.204078 Z-0.125000
G01 X3.227541 Y10.254028 Z-0.125000
G01 X3.368239 Y10.303978 Z-0.125000
G01 X3.537722 Y10.348078 Z-0.125000
G01 X3.707190 Y10.392178 Z-0.125000
G01 X3.889438 Y10.418728 Z-0.125000
G01 X4.071701 Y10.445278 Z-0.125000
G01 X4.258674 Y10.457278 Z-0.125000
G01 X4.445661 Y10.469277 Z-0.125000
G01 X4.580660 Y10.457278 Z-0.125000
G01 X4.715658 Y10.445278 Z-0.125000
G01 X4.709658 Y10.409878 Z-0.125000
G01 X4.703658 Y10.374478 Z-0.125000
G01 X4.466241 Y10.377478 Z-0.125000
G01 X4.228809 Y10.380478 Z-0.125000
G01 X4.052936 Y10.361128 Z-0.125000
G01 X3.877078 Y10.341628 Z-0.125000
G01 X3.709995 Y10.306528 Z-0.125000
G01 X3.542927 Y10.271278 Z-0.125000
G01 X3.411078 Y10.229128 Z-0.125000
G01 X3.279230 Y10.186978 Z-0.125000
G01 X3.200181 Y10.158928 Z-0.125000
G01 X3.121132 Y10.130878 Z-0.125000
G01 X2.924454 Y10.036679 Z-0.125000
G01 X2.727701 Y9.942479 Z-0.125000
G01 X2.599003 Y9.859229 Z-0.125000
G01 X2.470304 Y9.776129 Z-0.125000
G01 X2.338456 Y9.677580 Z-0.125000
G01 X2.206457 Y9.579030 Z-0.125000
G01 X2.050549 Y9.429480 Z-0.125000
G01 X1.894581 Y9.279931 Z-0.125000
G01 X1.785082 Y9.148081 Z-0.125000
G01 X1.675583 Y9.016231 Z-0.125000
G01 X1.576735 Y8.872082 Z-0.125000
G01 X1.477886 Y8.727932 Z-0.125000
G01 X1.373487 Y8.529093 Z-0.125000
G01 X1.269088 Y8.330268 Z-0.125000
G01 X1.198439 Y8.136814 Z-0.125000
G01 X1.127790 Y7.943344 Z-0.125000
G01 X1.099440 Y7.842244 Z-0.125000
G01 X1.071090 Y7.741145 Z-0.125000
G01 X1.036441 Y7.741145 Z-0.125000
G01 X1.001791 Y7.741145 Z-0.125000
G01 X1.002751 Y7.780745 Z-0.125000
G01 X1.003711 Y7.820345 Z-0.125000
G01 X1.079010 Y8.048989 Z-0.125000
G01 X1.079910 Y8.046394 Z-0.125000
G00 Z5.000000

(End cutting path id: path220320)


(Start cutting path id: path220320)
(Change tool to Default tool)

G00 Z5.000000
G00 X0.321384 Y6.437078

G01 Z-0.125000 F100.0(Penetrate)
G01 X0.347934 Y6.437078 Z-0.125000 F400.000000
G01 X0.365484 Y6.415178 Z-0.125000
G01 X0.383183 Y6.393278 Z-0.125000
G01 X0.395183 Y6.305229 Z-0.125000
G01 X0.407183 Y6.217329 Z-0.125000
G01 X0.468532 Y5.965224 Z-0.125000
G01 X0.529882 Y5.713120 Z-0.125000
G01 X0.608781 Y5.509211 Z-0.125000
G01 X0.687530 Y5.305271 Z-0.125000
G01 X0.781129 Y5.119317 Z-0.125000
G01 X0.874728 Y4.933377 Z-0.125000
G01 X0.950027 Y4.810228 Z-0.125000
G01 X1.025176 Y4.687078 Z-0.125000
G01 X1.173674 Y4.488913 Z-0.125000
G01 X1.322173 Y4.290719 Z-0.125000
G01 X1.527535 Y4.084245 Z-0.125000
G01 X1.732913 Y3.877785 Z-0.125000
G01 X1.882311 Y3.761685 Z-0.125000
G01 X2.031859 Y3.645586 Z-0.125000
G01 X2.207687 Y3.530386 Z-0.125000
G01 X2.383590 Y3.415186 Z-0.125000
G01 X2.577028 Y3.317987 Z-0.125000
G01 X2.770466 Y3.220937 Z-0.125000
G01 X2.920014 Y3.160787 Z-0.125000
G01 X3.069412 Y3.100637 Z-0.125000
G01 X3.254075 Y3.046187 Z-0.125000
G01 X3.438738 Y2.991587 Z-0.125000
G01 X3.623386 Y2.955888 Z-0.125000
G01 X3.808079 Y2.920488 Z-0.125000
G01 X3.957477 Y2.902038 Z-0.125000
G01 X4.107025 Y2.883588 Z-0.125000
G01 X4.433797 Y2.883213 Z-0.125000
G01 X4.760553 Y2.882808 Z-0.125000
G01 X4.787102 Y2.893308 Z-0.125000
G01 X4.813652 Y2.903808 Z-0.125000
G01 X4.836602 Y2.875758 Z-0.125000
G01 X4.859552 Y2.847558 Z-0.125000
G01 X4.838402 Y2.826408 Z-0.125000
G01 X4.817252 Y2.805258 Z-0.125000
G01 X4.426837 Y2.805498 Z-0.125000
G01 X4.036406 Y2.805768 Z-0.125000
G01 X3.869323 Y2.828718 Z-0.125000
G01 X3.702270 Y2.851668 Z-0.125000
G01 X3.508817 Y2.894868 Z-0.125000
G01 X3.315350 Y2.938068 Z-0.125000
G01 X3.122692 Y3.001217 Z-0.125000
G01 X2.930004 Y3.064367 Z-0.125000
G01 X2.788556 Y3.124667 Z-0.125000
G01 X2.647107 Y3.184967 Z-0.125000
G01 X2.469209 Y3.278867 Z-0.125000
G01 X2.291341 Y3.372916 Z-0.125000
G01 X2.117478 Y3.487516 Z-0.125000
G01 X1.943630 Y3.602116 Z-0.125000
G01 X1.803082 Y3.719415 Z-0.125000
G01 X1.662534 Y3.836715 Z-0.125000
G01 X1.518685 Y3.975165 Z-0.125000
G01 X1.374837 Y4.113614 Z-0.125000
G01 X1.229489 Y4.285589 Z-0.125000
G01 X1.084140 Y4.457564 Z-0.125000
G01 X0.945242 Y4.668898 Z-0.125000
G01 X0.806343 Y4.880247 Z-0.125000
G01 X0.685445 Y5.126487 Z-0.125000
G01 X0.564546 Y5.372726 Z-0.125000
G01 X0.476947 Y5.636515 Z-0.125000
G01 X0.389348 Y5.900350 Z-0.125000
G01 X0.354399 Y6.076239 Z-0.125000
G01 X0.319299 Y6.252129 Z-0.125000
G01 X0.307299 Y6.344378 Z-0.125000
G01 X0.295299 Y6.436778 Z-0.125000
G01 X0.321849 Y6.436778 Z-0.125000
G01 X0.321384 Y6.437078 Z-0.125000
G00 Z5.000000

(End cutting path id: path220320)


(Start cutting path id: path220320)
(Change tool to Default tool)

G00 Z5.000000
G00 X1.012411 Y6.184764

G01 Z-0.125000 F100.0(Penetrate)
G01 X1.040611 Y6.195264 Z-0.125000 F400.000000
G01 X1.056511 Y6.179214 Z-0.125000
G01 X1.072410 Y6.163314 Z-0.125000
G01 X1.117560 Y6.007809 Z-0.125000
G01 X1.162559 Y5.852305 Z-0.125000
G01 X1.221659 Y5.699485 Z-0.125000
G01 X1.280758 Y5.546651 Z-0.125000
G01 X1.337907 Y5.433101 Z-0.125000
G01 X1.395057 Y5.319551 Z-0.125000
G01 X1.484006 Y5.170002 Z-0.125000
G01 X1.573105 Y5.020452 Z-0.125000
G01 X1.678403 Y4.879752 Z-0.125000
G01 X1.783702 Y4.739053 Z-0.125000
G01 X1.995890 Y4.526353 Z-0.125000
G01 X2.208047 Y4.313684 Z-0.125000
G01 X2.375145 Y4.190984 Z-0.125000
G01 X2.542198 Y4.068285 Z-0.125000
G01 X2.647647 Y4.005435 Z-0.125000
G01 X2.753246 Y3.942585 Z-0.125000
G01 X2.893944 Y3.872535 Z-0.125000
G01 X3.034643 Y3.802485 Z-0.125000
G01 X3.228081 Y3.730635 Z-0.125000
G01 X3.421533 Y3.658786 Z-0.125000
G01 X3.562232 Y3.623686 Z-0.125000
G01 X3.702930 Y3.588736 Z-0.125000
G01 X3.861178 Y3.559786 Z-0.125000
G01 X4.019486 Y3.530836 Z-0.125000
G01 X4.366807 Y3.521836 Z-0.125000
G01 X4.714143 Y3.512836 Z-0.125000
G01 X4.714143 Y3.481636 Z-0.125000
G01 X4.714143 Y3.450136 Z-0.125000
G01 X4.561010 Y3.438136 Z-0.125000
G01 X4.407847 Y3.426136 Z-0.125000
G01 X4.158835 Y3.446686 Z-0.125000
G01 X3.909868 Y3.467236 Z-0.125000
G01 X3.701925 Y3.510586 Z-0.125000
G01 X3.493982 Y3.553936 Z-0.125000
G01 X3.326704 Y3.608236 Z-0.125000
G01 X3.159441 Y3.662536 Z-0.125000
G01 X2.969724 Y3.747435 Z-0.125000
G01 X2.780036 Y3.832335 Z-0.125000
G01 X2.590543 Y3.947835 Z-0.125000
G01 X2.401020 Y4.063335 Z-0.125000
G01 X2.251772 Y4.181234 Z-0.125000
G01 X2.102524 Y4.299134 Z-0.125000
G01 X1.917321 Y4.484998 Z-0.125000
G01 X1.732148 Y4.670848 Z-0.125000
G01 X1.608249 Y4.837932 Z-0.125000
G01 X1.484501 Y5.005047 Z-0.125000
G01 X1.399152 Y5.145747 Z-0.125000
G01 X1.313953 Y5.286446 Z-0.125000
G01 X1.235504 Y5.453501 Z-0.125000
G01 X1.157054 Y5.620630 Z-0.125000
G01 X1.082505 Y5.849260 Z-0.125000
G01 X1.007956 Y6.077919 Z-0.125000
G01 X0.995956 Y6.126669 Z-0.125000
G01 X0.983956 Y6.175419 Z-0.125000
G01 X1.012411 Y6.184764 Z-0.125000
G00 Z5.000000

(End cutting path id: path220320)


(Start cutting path id: path220320)
(Change tool to Default tool)

G00 Z5.000000
G00 X2.865775 Y6.691553

G01 Z-0.125000 F100.0(Penetrate)
G01 X2.917674 Y6.718552 Z-0.125000 F400.000000
G01 X2.950224 Y6.718552 Z-0.125000
G01 X2.982773 Y6.718552 Z-0.125000
G01 X3.003773 Y6.697553 Z-0.125000
G01 X3.024773 Y6.676553 Z-0.125000
G01 X3.024773 Y6.647003 Z-0.125000
G01 X3.024773 Y6.617453 Z-0.125000
G01 X3.000323 Y6.597203 Z-0.125000
G01 X2.975873 Y6.576953 Z-0.125000
G01 X2.894874 Y6.597203 Z-0.125000
G01 X2.814025 Y6.617453 Z-0.125000
G01 X2.814025 Y6.641153 Z-0.125000
G01 X2.814025 Y6.664853 Z-0.125000
G01 X2.865775 Y6.691553 Z-0.125000
G00 Z5.000000

(End cutting path id: path220320)


(Start cutting path id: path220320)
(Change tool to Default tool)

G00 Z5.000000
G00 X2.959074 Y6.630803

G01 Z-0.125000 F100.0(Penetrate)
G01 X2.972573 Y6.630503 Z-0.125000 F400.000000
G01 X2.972573 Y6.648203 Z-0.125000
G01 X2.972573 Y6.665903 Z-0.125000
G01 X2.932974 Y6.665618 Z-0.125000
G01 X2.893224 Y6.665393 Z-0.125000
G01 X2.919774 Y6.648293 Z-0.125000
G01 X2.946324 Y6.631193 Z-0.125000
G01 X2.959824 Y6.630938 Z-0.125000
G01 X2.959074 Y6.630803 Z-0.125000
G00 Z5.000000

(End cutting path id: path220320)


(Start cutting path id: path220320)
(Change tool to Default tool)

G00 Z5.000000
G00 X3.252185 Y6.251439

G01 Z-0.125000 F100.0(Penetrate)
G01 X3.268235 Y6.260439 Z-0.125000 F400.000000
G01 X3.385834 Y6.235989 Z-0.125000
G01 X3.503282 Y6.211539 Z-0.125000
G01 X3.567632 Y6.159339 Z-0.125000
G01 X3.631981 Y6.107289 Z-0.125000
G01 X3.639481 Y6.054189 Z-0.125000
G01 X3.646981 Y6.001389 Z-0.125000
G01 X3.702330 Y5.955040 Z-0.125000
G01 X3.757679 Y5.908690 Z-0.125000
G01 X3.780479 Y5.908690 Z-0.125000
G01 X3.803129 Y5.908690 Z-0.125000
G01 X3.918628 Y5.880040 Z-0.125000
G01 X4.033976 Y5.851540 Z-0.125000
G01 X4.236204 Y5.744890 Z-0.125000
G01 X4.438462 Y5.638240 Z-0.125000
G01 X4.448961 Y5.622340 Z-0.125000
G01 X4.459461 Y5.606440 Z-0.125000
G01 X4.482411 Y5.511041 Z-0.125000
G01 X4.505061 Y5.415791 Z-0.125000
G01 X4.494561 Y5.405291 Z-0.125000
G01 X4.484061 Y5.394791 Z-0.125000
G01 X4.400812 Y5.423291 Z-0.125000
G01 X4.317563 Y5.451791 Z-0.125000
G01 X4.245864 Y5.452061 Z-0.125000
G01 X4.174165 Y5.452316 Z-0.125000
G01 X4.077416 Y5.478266 Z-0.125000
G01 X3.980667 Y5.504216 Z-0.125000
G01 X3.930717 Y5.504471 Z-0.125000
G01 X3.880768 Y5.504756 Z-0.125000
G01 X3.846868 Y5.544356 Z-0.125000
G01 X3.812969 Y5.584106 Z-0.125000
G01 X3.760619 Y5.657605 Z-0.125000
G01 X3.708420 Y5.731105 Z-0.125000
G01 X3.708420 Y5.765155 Z-0.125000
G01 X3.708420 Y5.799205 Z-0.125000
G01 X3.633121 Y5.867305 Z-0.125000
G01 X3.557822 Y5.935405 Z-0.125000
G01 X3.395674 Y6.072204 Z-0.125000
G01 X3.233540 Y6.208854 Z-0.125000
G01 X3.233540 Y6.225054 Z-0.125000
G01 X3.233540 Y6.241254 Z-0.125000
G01 X3.249590 Y6.250254 Z-0.125000
G01 X3.252185 Y6.251439 Z-0.125000
G00 Z5.000000

(End cutting path id: path220320)


(Start cutting path id: path220320)
(Change tool to Default tool)

G00 Z5.000000
G00 X3.478008 Y6.069054

G01 Z-0.125000 F100.0(Penetrate)
G01 X3.587956 Y5.978604 Z-0.125000 F400.000000
G01 X3.587956 Y6.029904 Z-0.125000
G01 X3.587956 Y6.081204 Z-0.125000
G01 X3.529457 Y6.125904 Z-0.125000
G01 X3.470808 Y6.170754 Z-0.125000
G01 X3.401809 Y6.182754 Z-0.125000
G01 X3.333109 Y6.194754 Z-0.125000
G01 X3.350809 Y6.176754 Z-0.125000
G01 X3.368509 Y6.158754 Z-0.125000
G01 X3.478008 Y6.069054 Z-0.125000
G00 Z5.000000

(End cutting path id: path220320)


(Start cutting path id: path220320)
(Change tool to Default tool)

G00 Z5.000000
G00 X3.763754 Y5.773885

G01 Z-0.125000 F100.0(Penetrate)
G01 X3.763754 Y5.736835 Z-0.125000 F400.000000
G01 X3.834254 Y5.647585 Z-0.125000
G01 X3.904903 Y5.558336 Z-0.125000
G01 X3.944352 Y5.550836 Z-0.125000
G01 X3.983802 Y5.543336 Z-0.125000
G01 X4.089251 Y5.521886 Z-0.125000
G01 X4.194849 Y5.500436 Z-0.125000
G01 X4.261599 Y5.503436 Z-0.125000
G01 X4.328348 Y5.506436 Z-0.125000
G01 X4.389097 Y5.481086 Z-0.125000
G01 X4.449846 Y5.455736 Z-0.125000
G01 X4.449846 Y5.473136 Z-0.125000
G01 X4.449846 Y5.490536 Z-0.125000
G01 X4.425997 Y5.547086 Z-0.125000
G01 X4.402147 Y5.603635 Z-0.125000
G01 X4.333898 Y5.638585 Z-0.125000
G01 X4.265649 Y5.673535 Z-0.125000
G01 X4.160200 Y5.732785 Z-0.125000
G01 X4.054751 Y5.792185 Z-0.125000
G01 X3.940602 Y5.825035 Z-0.125000
G01 X3.826454 Y5.858035 Z-0.125000
G01 X3.789404 Y5.858035 Z-0.125000
G01 X3.752354 Y5.858035 Z-0.125000
G01 X3.701655 Y5.896285 Z-0.125000
G01 X3.650956 Y5.934535 Z-0.125000
G01 X3.708105 Y5.873335 Z-0.125000
G01 X3.765254 Y5.812135 Z-0.125000
G01 X3.763754 Y5.773885 Z-0.125000
G00 Z5.000000

(End cutting path id: path220320)


(Start cutting path id: path220320)
(Change tool to Default tool)

G00 Z5.000000
G00 X3.933927 Y6.575648

G01 Z-0.125000 F100.0(Penetrate)
G01 X3.965877 Y6.594248 Z-0.125000 F400.000000
G01 X3.953877 Y6.594683 Z-0.125000
G01 X3.941877 Y6.595103 Z-0.125000
G01 X3.913078 Y6.584603 Z-0.125000
G01 X3.884428 Y6.574103 Z-0.125000
G01 X3.891928 Y6.566603 Z-0.125000
G01 X3.899428 Y6.559103 Z-0.125000
G01 X3.931677 Y6.577853 Z-0.125000
G01 X3.933927 Y6.575648 Z-0.125000
G00 Z5.000000

(End cutting path id: path220320)


(Start cutting path id: path220320)
(Change tool to Default tool)

G00 Z5.000000
G00 X3.592336 Y6.621998

G01 Z-0.125000 F100.0(Penetrate)
G01 X3.649486 Y6.632498 Z-0.125000 F400.000000
G01 X3.714885 Y6.604898 Z-0.125000
G01 X3.780284 Y6.577298 Z-0.125000
G01 X3.809834 Y6.577298 Z-0.125000
G01 X3.839233 Y6.577298 Z-0.125000
G01 X3.858433 Y6.603248 Z-0.125000
G01 X3.878083 Y6.629198 Z-0.125000
G01 X4.009931 Y6.647948 Z-0.125000
G01 X4.141780 Y6.666848 Z-0.125000
G01 X4.179730 Y6.674348 Z-0.125000
G01 X4.217679 Y6.681848 Z-0.125000
G01 X4.213179 Y6.651398 Z-0.125000
G01 X4.208679 Y6.620948 Z-0.125000
G01 X4.043231 Y6.561848 Z-0.125000
G01 X3.877768 Y6.502748 Z-0.125000
G01 X3.789869 Y6.511748 Z-0.125000
G01 X3.701970 Y6.520748 Z-0.125000
G01 X3.618421 Y6.532748 Z-0.125000
G01 X3.534872 Y6.544748 Z-0.125000
G01 X3.534872 Y6.576998 Z-0.125000
G01 X3.534872 Y6.609098 Z-0.125000
G01 X3.592336 Y6.621998 Z-0.125000
G00 Z5.000000

(End cutting path id: path220320)


(Start cutting path id: path220320)
(Change tool to Default tool)

G00 Z5.000000
G00 X3.618706 Y7.359006

G01 Z-0.125000 F100.0(Penetrate)
G01 X3.702255 Y7.371006 Z-0.125000 F400.000000
G01 X3.790154 Y7.380006 Z-0.125000
G01 X3.878203 Y7.389006 Z-0.125000
G01 X4.036481 Y7.333056 Z-0.125000
G01 X4.194759 Y7.277106 Z-0.125000
G01 X4.215909 Y7.265106 Z-0.125000
G01 X4.236909 Y7.253106 Z-0.125000
G01 X4.224909 Y7.233456 Z-0.125000
G01 X4.212909 Y7.214106 Z-0.125000
G01 X4.046756 Y7.238706 Z-0.125000
G01 X3.880603 Y7.263156 Z-0.125000
G01 X3.849403 Y7.291506 Z-0.125000
G01 X3.818054 Y7.319856 Z-0.125000
G01 X3.727605 Y7.290156 Z-0.125000
G01 X3.637156 Y7.260606 Z-0.125000
G01 X3.586306 Y7.271106 Z-0.125000
G01 X3.535457 Y7.281606 Z-0.125000
G01 X3.535457 Y7.313256 Z-0.125000
G01 X3.535457 Y7.345056 Z-0.125000
G01 X3.618706 Y7.359006 Z-0.125000
G00 Z5.000000

(End cutting path id: path220320)


(Start cutting path id: path220320)
(Change tool to Default tool)

G00 Z5.000000
G00 X3.936327 Y7.299156

G01 Z-0.125000 F100.0(Penetrate)
G01 X3.966027 Y7.299441 Z-0.125000 F400.000000
G01 X3.939477 Y7.316541 Z-0.125000
G01 X3.912928 Y7.333641 Z-0.125000
G01 X3.897928 Y7.333911 Z-0.125000
G01 X3.882928 Y7.334151 Z-0.125000
G01 X3.893428 Y7.316451 Z-0.125000
G01 X3.903928 Y7.298751 Z-0.125000
G01 X3.933627 Y7.298991 Z-0.125000
G01 X3.936327 Y7.299156 Z-0.125000
G00 Z5.000000

(End cutting path id: path220320)


(Start cutting path id: path220320)
(Change tool to Default tool)

G00 Z5.000000
G00 X3.406203 Y7.711610

G01 Z-0.125000 F100.0(Penetrate)
G01 X3.470703 Y7.723610 Z-0.125000 F400.000000
G01 X3.529352 Y7.768310 Z-0.125000
G01 X3.587851 Y7.813010 Z-0.125000
G01 X3.587851 Y7.864309 Z-0.125000
G01 X3.587851 Y7.915609 Z-0.125000
G01 X3.465153 Y7.813910 Z-0.125000
G01 X3.342454 Y7.712210 Z-0.125000
G01 X3.342064 Y7.704710 Z-0.125000
G01 X3.341674 Y7.698710 Z-0.125000
G01 X3.406173 Y7.710710 Z-0.125000
G01 X3.406203 Y7.711610 Z-0.125000
G00 Z5.000000

(End cutting path id: path220320)


(Start cutting path id: path220320)
(Change tool to Default tool)

G00 Z5.000000
G00 X3.337204 Y7.770710

G01 Z-0.125000 F100.0(Penetrate)
G01 X3.438303 Y7.857709 Z-0.125000 F400.000000
G01 X3.570152 Y7.970809 Z-0.125000
G01 X3.702000 Y8.083909 Z-0.125000
G01 X3.708000 Y8.126209 Z-0.125000
G01 X3.715500 Y8.168359 Z-0.125000
G01 X3.766049 Y8.239458 Z-0.125000
G01 X3.816749 Y8.310558 Z-0.125000
G01 X3.848098 Y8.345958 Z-0.125000
G01 X3.879448 Y8.381358 Z-0.125000
G01 X4.011446 Y8.405208 Z-0.125000
G01 X4.143295 Y8.429058 Z-0.125000
G01 X4.257594 Y8.442558 Z-0.125000
G01 X4.371892 Y8.456058 Z-0.125000
G01 X4.421392 Y8.475708 Z-0.125000
G01 X4.471041 Y8.495358 Z-0.125000
G01 X4.487541 Y8.495358 Z-0.125000
G01 X4.504041 Y8.495358 Z-0.125000
G01 X4.504041 Y8.463558 Z-0.125000
G01 X4.504041 Y8.431458 Z-0.125000
G01 X4.477941 Y8.344758 Z-0.125000
G01 X4.451841 Y8.258058 Z-0.125000
G01 X4.236159 Y8.147959 Z-0.125000
G01 X4.020491 Y8.038009 Z-0.125000
G01 X3.915643 Y8.011759 Z-0.125000
G01 X3.810794 Y7.985509 Z-0.125000
G01 X3.786344 Y7.985509 Z-0.125000
G01 X3.761894 Y7.985509 Z-0.125000
G01 X3.706545 Y7.939309 Z-0.125000
G01 X3.651196 Y7.893109 Z-0.125000
G01 X3.643696 Y7.840159 Z-0.125000
G01 X3.636196 Y7.787060 Z-0.125000
G01 X3.571847 Y7.735160 Z-0.125000
G01 X3.507497 Y7.683110 Z-0.125000
G01 X3.390049 Y7.658510 Z-0.125000
G01 X3.272600 Y7.634060 Z-0.125000
G01 X3.256700 Y7.643060 Z-0.125000
G01 X3.240500 Y7.652060 Z-0.125000
G01 X3.240500 Y7.667810 Z-0.125000
G01 X3.240500 Y7.683410 Z-0.125000
G01 X3.337204 Y7.770710 Z-0.125000
G00 Z5.000000

(End cutting path id: path220320)


(Start cutting path id: path220320)
(Change tool to Default tool)

G00 Z5.000000
G00 X3.682665 Y7.982989

G01 Z-0.125000 F100.0(Penetrate)
G01 X3.724815 Y8.022589 Z-0.125000 F400.000000
G01 X3.854263 Y8.049289 Z-0.125000
G01 X3.983712 Y8.075989 Z-0.125000
G01 X4.027661 Y8.097739 Z-0.125000
G03 X4.045145 Y8.106494 Z-0.125000 I-7.481338 J14.962547
G03 X4.059110 Y8.113509 Z-0.125000 I-4.917641 J9.806519
G03 X4.073043 Y8.120536 Z-0.125000 I-4.115820 J8.178475
G03 X4.084713 Y8.126447 Z-0.125000 I-3.143652 J6.220271
G03 X4.096358 Y8.132375 Z-0.125000 I-2.908108 J5.727475
G03 X4.106992 Y8.137814 Z-0.125000 I-2.851251 J5.587310
G03 X4.117612 Y8.143271 Z-0.125000 I-3.081683 J6.010570
G03 X4.128468 Y8.148870 Z-0.125000 I-4.383471 J8.512502
G03 X4.139325 Y8.154485 Z-0.125000 I-6.007754 J11.630291
G03 X4.151662 Y8.160875 Z-0.125000 I-18.265296 J35.278817
G03 X4.164015 Y8.167276 Z-0.125000 I-93.195674 J179.937507
G02 X4.179096 Y8.175089 Z-0.125000 I22.844644 J-44.082628
G02 X4.194203 Y8.182908 Z-0.125000 I17.312293 J-33.431448
G02 X4.213291 Y8.192774 Z-0.125000 I15.041373 J-29.078690
G02 X4.232410 Y8.202640 Z-0.125000 I15.321570 J-29.667882
G02 X4.256769 Y8.215188 Z-0.125000 I17.473234 J-33.887851
G01 X4.400917 Y8.289438 Z-0.125000
G01 X4.426267 Y8.350188 Z-0.125000
G01 X4.451766 Y8.411088 Z-0.125000
G01 X4.444266 Y8.418588 Z-0.125000
G01 X4.436767 Y8.426088 Z-0.125000
G01 X4.377367 Y8.406888 Z-0.125000
G01 X4.317968 Y8.387238 Z-0.125000
G01 X4.257369 Y8.390238 Z-0.125000
G01 X4.196769 Y8.393238 Z-0.125000
G01 X4.060271 Y8.366838 Z-0.125000
G01 X3.923772 Y8.340288 Z-0.125000
G01 X3.894523 Y8.316438 Z-0.125000
G01 X3.865423 Y8.292588 Z-0.125000
G01 X3.815624 Y8.223888 Z-0.125000
G01 X3.765824 Y8.155339 Z-0.125000
G01 X3.765824 Y8.113639 Z-0.125000
G01 X3.765824 Y8.071789 Z-0.125000
G01 X3.704175 Y8.017789 Z-0.125000
G01 X3.642526 Y7.963789 Z-0.125000
G01 X3.642526 Y7.953289 Z-0.125000
G01 X3.642526 Y7.942789 Z-0.125000
G01 X3.682665 Y7.982989 Z-0.125000
G00 Z5.000000

(End cutting path id: path220320)


(Start cutting path id: path220320)
(Change tool to Default tool)

G00 Z5.000000
G00 X2.967624 Y7.235691

G01 Z-0.125000 F100.0(Penetrate)
G01 X2.978123 Y7.246191 Z-0.125000 F400.000000
G01 X2.969124 Y7.255191 Z-0.125000
G01 X2.960124 Y7.264191 Z-0.125000
G01 X2.927124 Y7.250691 Z-0.125000
G01 X2.894124 Y7.237191 Z-0.125000
G01 X2.926224 Y7.231191 Z-0.125000
G01 X2.958324 Y7.223691 Z-0.125000
G01 X2.967624 Y7.235691 Z-0.125000
G00 Z5.000000

(End cutting path id: path220320)


(Start cutting path id: path220320)
(Change tool to Default tool)

G00 Z5.000000
G00 X2.894724 Y7.297341

G01 Z-0.125000 F100.0(Penetrate)
G01 X2.975573 Y7.317591 Z-0.125000 F400.000000
G01 X3.000173 Y7.297341 Z-0.125000
G01 X3.024623 Y7.277241 Z-0.125000
G01 X3.024623 Y7.247691 Z-0.125000
G01 X3.024623 Y7.218141 Z-0.125000
G01 X3.003623 Y7.197141 Z-0.125000
G01 X2.982623 Y7.176141 Z-0.125000
G01 X2.950224 Y7.176141 Z-0.125000
G01 X2.917974 Y7.176141 Z-0.125000
G01 X2.866075 Y7.203141 Z-0.125000
G01 X2.814175 Y7.230141 Z-0.125000
G01 X2.814175 Y7.253841 Z-0.125000
G01 X2.814175 Y7.277541 Z-0.125000
G01 X2.894724 Y7.297341 Z-0.125000
G00 Z5.000000

(End cutting path id: path220320)


(Start cutting path id: path220320)
(Change tool to Default tool)

G00 Z5.000000
G00 X5.624318 Y7.110906

G01 Z-0.125000 F100.0(Penetrate)
G01 X5.673667 Y7.158156 Z-0.125000 F400.000000
G01 X6.219001 Y7.158156 Z-0.125000
G01 X6.764335 Y7.158156 Z-0.125000
G01 X6.814884 Y7.210806 Z-0.125000
G01 X6.865433 Y7.263606 Z-0.125000
G01 X6.888233 Y7.263606 Z-0.125000
G01 X6.911183 Y7.263606 Z-0.125000
G01 X6.911183 Y7.241256 Z-0.125000
G01 X6.911183 Y7.219206 Z-0.125000
G01 X6.876233 Y7.122906 Z-0.125000
G01 X6.841134 Y7.026607 Z-0.125000
G01 X6.841134 Y7.022107 Z-0.125000
G01 X6.841134 Y7.017607 Z-0.125000
G01 X6.208006 Y7.017607 Z-0.125000
G01 X5.574893 Y7.017607 Z-0.125000
G01 X5.574893 Y7.040557 Z-0.125000
G01 X5.574893 Y7.063507 Z-0.125000
G01 X5.624318 Y7.110906 Z-0.125000
G00 Z5.000000

(End cutting path id: path220320)


(Start cutting path id: path220320)
(Change tool to Default tool)

G00 Z5.000000
G00 X5.684047 Y6.792157

G01 Z-0.125000 F100.0(Penetrate)
G01 X5.705047 Y6.771157 Z-0.125000 F400.000000
G01 X6.252016 Y6.771157 Z-0.125000
G01 X6.798939 Y6.771157 Z-0.125000
G01 X6.821289 Y6.749257 Z-0.125000
G01 X6.843789 Y6.727357 Z-0.125000
G01 X6.822939 Y6.774007 Z-0.125000
G01 X6.802089 Y6.820957 Z-0.125000
G01 X6.742240 Y6.831457 Z-0.125000
G01 X6.682391 Y6.843457 Z-0.125000
G01 X6.172816 Y6.840457 Z-0.125000
G01 X5.663257 Y6.837457 Z-0.125000
G01 X5.663257 Y6.825457 Z-0.125000
G01 X5.663257 Y6.813457 Z-0.125000
G01 X5.684047 Y6.792157 Z-0.125000
G00 Z5.000000

(End cutting path id: path220320)


(Start cutting path id: path220320)
(Change tool to Default tool)

G00 Z5.000000
G00 X6.205786 Y6.876607

G01 Z-0.125000 F100.0(Penetrate)
G01 X6.836529 Y6.876607 Z-0.125000 F400.000000
G01 X6.874028 Y6.773707 Z-0.125000
G01 X6.911528 Y6.670808 Z-0.125000
G01 X6.911528 Y6.650858 Z-0.125000
G01 X6.911528 Y6.630758 Z-0.125000
G01 X6.888578 Y6.630758 Z-0.125000
G01 X6.865628 Y6.630758 Z-0.125000
G01 X6.815079 Y6.683408 Z-0.125000
G01 X6.764530 Y6.736207 Z-0.125000
G01 X6.211486 Y6.736207 Z-0.125000
G01 X5.658442 Y6.736207 Z-0.125000
G01 X5.616743 Y6.784657 Z-0.125000
G01 X5.575043 Y6.833107 Z-0.125000
G01 X5.575013 Y6.855007 Z-0.125000
G01 X5.574998 Y6.876907 Z-0.125000
G01 X6.205846 Y6.876907 Z-0.125000
G01 X6.205786 Y6.876607 Z-0.125000
G00 Z5.000000

(End cutting path id: path220320)


(Start cutting path id: path220320)
(Change tool to Default tool)

G00 Z5.000000
G00 X6.781719 Y7.066657

G01 Z-0.125000 F100.0(Penetrate)
G01 X6.801369 Y7.072657 Z-0.125000 F400.000000
G01 X6.822669 Y7.120056 Z-0.125000
G01 X6.843969 Y7.167306 Z-0.125000
G01 X6.821619 Y7.145406 Z-0.125000
G01 X6.799269 Y7.123506 Z-0.125000
G01 X6.252346 Y7.123506 Z-0.125000
G01 X5.705407 Y7.123506 Z-0.125000
G01 X5.683357 Y7.101606 Z-0.125000
G01 X5.661307 Y7.079707 Z-0.125000
G01 X6.211801 Y7.072207 Z-0.125000
G01 X6.762265 Y7.064707 Z-0.125000
G01 X6.781719 Y7.066657 Z-0.125000
G00 Z5.000000

(End cutting path id: path220320)


(Start cutting path id: path220320)
(Change tool to Default tool)

G00 Z5.000000
G00 X6.265275 Y4.047270

G01 Z-0.125000 F100.0(Penetrate)
G01 X6.287175 Y4.073970 Z-0.125000 F400.000000
G01 X6.435073 Y4.178219 Z-0.125000
G01 X6.582822 Y4.282469 Z-0.125000
G01 X6.767860 Y4.458359 Z-0.125000
G01 X6.952837 Y4.634233 Z-0.125000
G01 X7.093236 Y4.810108 Z-0.125000
G01 X7.233784 Y4.985997 Z-0.125000
G01 X7.284784 Y5.068797 Z-0.125000
G01 X7.335783 Y5.151597 Z-0.125000
G03 X7.342904 Y5.161746 Z-0.125000 I-2.711572 J1.910069
G03 X7.348377 Y5.169608 Z-0.125000 I-2.187942 J1.529011
G03 X7.353814 Y5.177480 Z-0.125000 I-2.012494 J1.395679
G03 X7.357957 Y5.183525 Z-0.125000 I-1.845087 J1.268936
G03 X7.362074 Y5.189574 Z-0.125000 I-1.915500 J1.308148
G03 X7.365248 Y5.194261 Z-0.125000 I-3.113008 J2.111591
G03 X7.368411 Y5.198942 Z-0.125000 I-11.658268 J7.882356
G02 X7.370976 Y5.202728 Z-0.125000 I1.375412 J-0.929135
G02 X7.373551 Y5.206497 Z-0.125000 I0.752709 J-0.511505
G02 X7.375868 Y5.209837 Z-0.125000 I0.375872 J-0.258190
G02 X7.378216 Y5.213152 Z-0.125000 I0.305676 J-0.214007
G02 X7.380649 Y5.216502 Z-0.125000 I0.258930 J-0.185513
G02 X7.383127 Y5.219823 Z-0.125000 I0.261733 J-0.192718
G02 X7.386045 Y5.223634 Z-0.125000 I0.319458 J-0.241562
G02 X7.389011 Y5.227420 Z-0.125000 I0.376715 J-0.292020
G02 X7.392782 Y5.232146 Z-0.125000 I0.584775 J-0.462823
G01 X7.501831 Y5.460776 Z-0.125000
G01 X7.610880 Y5.689420 Z-0.125000
G01 X7.664129 Y5.849425 Z-0.125000
G01 X7.717529 Y6.009459 Z-0.125000
G01 X7.762078 Y6.209979 Z-0.125000
G01 X7.806778 Y6.410543 Z-0.125000
G01 X7.827327 Y6.604013 Z-0.125000
G01 X7.847877 Y6.797482 Z-0.125000
G01 X7.837377 Y7.070092 Z-0.125000
G01 X7.826877 Y7.342716 Z-0.125000
G01 X7.798378 Y7.500980 Z-0.125000
G01 X7.770028 Y7.659290 Z-0.125000
G01 X7.735378 Y7.799990 Z-0.125000
G01 X7.700729 Y7.940689 Z-0.125000
G01 X7.663679 Y8.046289 Z-0.125000
G01 X7.626630 Y8.151739 Z-0.125000
G01 X7.563930 Y8.301288 Z-0.125000
G01 X7.501081 Y8.450688 Z-0.125000
G01 X7.423832 Y8.591387 Z-0.125000
G01 X7.346583 Y8.732087 Z-0.125000
G01 X7.275784 Y8.837687 Z-0.125000
G01 X7.204985 Y8.943287 Z-0.125000
G01 X7.075386 Y9.103936 Z-0.125000
G01 X6.945788 Y9.264601 Z-0.125000
G01 X6.782619 Y9.420540 Z-0.125000
G01 X6.619391 Y9.576450 Z-0.125000
G01 X6.444103 Y9.709200 Z-0.125000
G01 X6.268815 Y9.841949 Z-0.125000
G01 X6.262815 Y9.880649 Z-0.125000
G01 X6.256816 Y9.919349 Z-0.125000
G01 X6.275565 Y9.919349 Z-0.125000
G01 X6.294615 Y9.919349 Z-0.125000
G01 X6.387014 Y9.854099 Z-0.125000
G01 X6.479413 Y9.788699 Z-0.125000
G01 X6.602562 Y9.693300 Z-0.125000
G01 X6.725710 Y9.597900 Z-0.125000
G01 X6.846459 Y9.481650 Z-0.125000
G01 X6.967207 Y9.365400 Z-0.125000
G01 X7.100406 Y9.207076 Z-0.125000
G01 X7.233604 Y9.048766 Z-0.125000
G01 X7.361703 Y8.851712 Z-0.125000
G01 X7.489801 Y8.654597 Z-0.125000
G01 X7.553701 Y8.527848 Z-0.125000
G01 X7.617600 Y8.401098 Z-0.125000
G01 X7.679249 Y8.241333 Z-0.125000
G01 X7.741048 Y8.081524 Z-0.125000
G01 X7.791148 Y7.908694 Z-0.125000
G01 X7.841247 Y7.735850 Z-0.125000
G01 X7.876197 Y7.521740 Z-0.125000
G01 X7.911146 Y7.307661 Z-0.125000
G01 X7.923146 Y7.122966 Z-0.125000
G01 X7.935146 Y6.938302 Z-0.125000
G01 X7.915496 Y6.692078 Z-0.125000
G01 X7.895847 Y6.445868 Z-0.125000
G01 X7.853097 Y6.234789 Z-0.125000
G01 X7.810348 Y6.023739 Z-0.125000
G01 X7.741198 Y5.818450 Z-0.125000
G01 X7.672049 Y5.613190 Z-0.125000
G01 X7.555501 Y5.378756 Z-0.125000
G01 X7.438952 Y5.144322 Z-0.125000
G01 X7.285309 Y4.925097 Z-0.125000
G01 X7.131695 Y4.705858 Z-0.125000
G01 X6.929438 Y4.501693 Z-0.125000
G01 X6.727210 Y4.297529 Z-0.125000
G01 X6.634811 Y4.220729 Z-0.125000
G01 X6.542412 Y4.143929 Z-0.125000
G01 X6.417914 Y4.059330 Z-0.125000
G01 X6.293565 Y3.974730 Z-0.125000
G01 X6.268665 Y3.974730 Z-0.125000
G01 X6.243616 Y3.974730 Z-0.125000
G01 X6.243616 Y3.997530 Z-0.125000
G01 X6.243616 Y4.020330 Z-0.125000
G01 X6.265515 Y4.047180 Z-0.125000
G01 X6.265275 Y4.047270 Z-0.125000
G00 Z5.000000

(End cutting path id: path220320)


(Start cutting path id: path220320)
(Change tool to Default tool)

G00 Z5.000000
G00 X4.856432 Y4.185809

G01 Z-0.125000 F100.0(Penetrate)
G01 X4.944031 Y4.405649 Z-0.125000 F400.000000
G01 X4.959031 Y4.420799 Z-0.125000
G01 X4.974030 Y4.435949 Z-0.125000
G01 X4.930681 Y4.593823 Z-0.125000
G01 X4.887331 Y4.751698 Z-0.125000
G01 X4.893331 Y4.805698 Z-0.125000
G01 X4.899331 Y4.859697 Z-0.125000
G01 X4.943431 Y4.891947 Z-0.125000
G01 X4.987380 Y4.924197 Z-0.125000
G01 X5.180863 Y5.003997 Z-0.125000
G01 X5.374286 Y5.083797 Z-0.125000
G01 X5.532549 Y5.109747 Z-0.125000
G01 X5.690842 Y5.135697 Z-0.125000
G01 X5.810991 Y5.135772 Z-0.125000
G01 X5.931139 Y5.135862 Z-0.125000
G01 X6.006738 Y5.073912 Z-0.125000
G01 X6.082338 Y5.011962 Z-0.125000
G01 X6.200836 Y4.807378 Z-0.125000
G01 X6.319335 Y4.602718 Z-0.125000
G01 X6.326835 Y4.539418 Z-0.125000
G01 X6.334335 Y4.476268 Z-0.125000
G01 X6.253636 Y4.177919 Z-0.125000
G01 X6.172936 Y3.879630 Z-0.125000
G01 X6.173341 Y3.843930 Z-0.125000
G01 X6.173791 Y3.808380 Z-0.125000
G01 X6.199741 Y3.774330 Z-0.125000
G01 X6.225691 Y3.740280 Z-0.125000
G01 X6.225691 Y3.113462 Z-0.125000
G01 X6.225691 Y2.486629 Z-0.125000
G01 X6.313140 Y1.699131 Z-0.125000
G01 X6.400439 Y0.911618 Z-0.125000
G01 X6.374489 Y0.861518 Z-0.125000
G01 X6.348539 Y0.811418 Z-0.125000
G01 X6.348539 Y0.802418 Z-0.125000
G01 X6.348539 Y0.793418 Z-0.125000
G01 X6.375089 Y0.793418 Z-0.125000
G01 X6.401639 Y0.793418 Z-0.125000
G01 X6.401639 Y0.778418 Z-0.125000
G01 X6.401639 Y0.763418 Z-0.125000
G01 X6.457438 Y0.679119 Z-0.125000
G01 X6.513238 Y0.594819 Z-0.125000
G01 X6.629036 Y0.521019 Z-0.125000
G01 X6.744685 Y0.447219 Z-0.125000
G01 X6.857784 Y0.405369 Z-0.125000
G01 X6.970882 Y0.363669 Z-0.125000
G01 X7.077681 Y0.363939 Z-0.125000
G01 X7.184480 Y0.364194 Z-0.125000
G01 X7.246129 Y0.396144 Z-0.125000
G01 X7.307778 Y0.427944 Z-0.125000
G01 X7.410377 Y0.513294 Z-0.125000
G01 X7.512976 Y0.598644 Z-0.125000
G01 X7.537726 Y0.598644 Z-0.125000
G01 X7.562625 Y0.598644 Z-0.125000
G01 X7.562625 Y0.576294 Z-0.125000
G01 X7.562625 Y0.554094 Z-0.125000
G01 X7.481776 Y0.413694 Z-0.125000
G01 X7.400777 Y0.273295 Z-0.125000
G01 X7.345428 Y0.224845 Z-0.125000
G01 X7.290079 Y0.176245 Z-0.125000
G01 X7.166930 Y0.107245 Z-0.125000
G01 X7.043781 Y0.038545 Z-0.125000
G01 X6.939533 Y0.019495 Z-0.125000
G01 X6.835284 Y0.000445 Z-0.125000
G01 X6.697735 Y0.000445 Z-0.125000
G01 X6.560187 Y0.000445 Z-0.125000
G01 X6.380414 Y0.027595 Z-0.125000
G01 X6.200626 Y0.054745 Z-0.125000
G01 X6.019833 Y0.115345 Z-0.125000
G01 X5.839025 Y0.175945 Z-0.125000
G01 X5.741676 Y0.238195 Z-0.125000
G01 X5.644328 Y0.300445 Z-0.125000
G01 X5.588828 Y0.363744 Z-0.125000
G01 X5.533329 Y0.426894 Z-0.125000
G01 X5.513679 Y0.465594 Z-0.125000
G01 X5.493729 Y0.504144 Z-0.125000
G01 X5.422930 Y0.626244 Z-0.125000
G01 X5.352131 Y0.748343 Z-0.125000
G01 X5.332931 Y0.845093 Z-0.125000
G01 X5.313731 Y0.941693 Z-0.125000
G01 X5.250882 Y1.231912 Z-0.125000
G01 X5.188033 Y1.522101 Z-0.125000
G01 X5.119034 Y1.838690 Z-0.125000
G01 X5.049884 Y2.155265 Z-0.125000
G01 X4.953136 Y2.603748 Z-0.125000
G01 X4.856387 Y3.052262 Z-0.125000
G01 X4.811537 Y3.260327 Z-0.125000
G01 X4.766838 Y3.468376 Z-0.125000
G01 X4.767993 Y3.717600 Z-0.125000
G01 X4.769163 Y3.966825 Z-0.125000
G01 X4.856762 Y4.186694 Z-0.125000
G01 X4.856432 Y4.185809 Z-0.125000
G00 Z5.000000

(End cutting path id: path220320)


(Start cutting path id: path220320)
(Change tool to Default tool)

G00 Z5.000000
G00 X5.112224 Y2.094530

G01 Z-0.125000 F100.0(Penetrate)
G01 X5.403415 Y0.750743 Z-0.125000 F400.000000
G01 X5.506764 Y0.579624 Z-0.125000
G01 X5.610113 Y0.408519 Z-0.125000
G01 X5.679712 Y0.345669 Z-0.125000
G01 X5.749311 Y0.282820 Z-0.125000
G01 X5.824911 Y0.244270 Z-0.125000
G01 X5.900510 Y0.205720 Z-0.125000
G01 X6.045708 Y0.156670 Z-0.125000
G01 X6.190906 Y0.107470 Z-0.125000
G01 X6.366149 Y0.078220 Z-0.125000
G01 X6.541377 Y0.048970 Z-0.125000
G01 X6.749830 Y0.056470 Z-0.125000
G01 X6.958237 Y0.062470 Z-0.125000
G01 X7.106436 Y0.136120 Z-0.125000
G01 X7.254634 Y0.209770 Z-0.125000
G01 X7.312533 Y0.268270 Z-0.125000
G01 X7.370583 Y0.326470 Z-0.125000
G01 X7.417082 Y0.405669 Z-0.125000
G01 X7.463582 Y0.484719 Z-0.125000
G01 X7.398632 Y0.435519 Z-0.125000
G01 X7.333833 Y0.386469 Z-0.125000
G01 X7.258984 Y0.352569 Z-0.125000
G01 X7.184285 Y0.318670 Z-0.125000
G01 X7.069986 Y0.318655 Z-0.125000
G01 X6.955687 Y0.318655 Z-0.125000
G01 X6.834189 Y0.361554 Z-0.125000
G01 X6.712690 Y0.404604 Z-0.125000
G01 X6.591042 Y0.485604 Z-0.125000
G01 X6.469243 Y0.566604 Z-0.125000
G01 X6.415244 Y0.653604 Z-0.125000
G01 X6.361244 Y0.740453 Z-0.125000
G01 X6.319545 Y0.740453 Z-0.125000
G01 X6.278145 Y0.740453 Z-0.125000
G01 X6.278145 Y0.767753 Z-0.125000
G01 X6.278145 Y0.795053 Z-0.125000
G01 X6.313695 Y0.865103 Z-0.125000
G01 X6.349244 Y0.935303 Z-0.125000
G01 X6.260145 Y1.739526 Z-0.125000
G01 X6.171047 Y2.543764 Z-0.125000
G01 X6.174046 Y3.138662 Z-0.125000
G01 X6.177046 Y3.733545 Z-0.125000
G01 X6.148847 Y3.764595 Z-0.125000
G01 X6.120797 Y3.795645 Z-0.125000
G01 X6.121172 Y3.838395 Z-0.125000
G01 X6.121592 Y3.881145 Z-0.125000
G01 X6.207841 Y4.197704 Z-0.125000
G01 X6.294240 Y4.514293 Z-0.125000
G01 X6.262140 Y4.586143 Z-0.125000
G01 X6.230491 Y4.657993 Z-0.125000
G01 X6.132542 Y4.823503 Z-0.125000
G01 X6.034593 Y4.989012 Z-0.125000
G01 X5.969344 Y5.040162 Z-0.125000
G01 X5.904095 Y5.091312 Z-0.125000
G01 X5.795046 Y5.090352 Z-0.125000
G01 X5.685997 Y5.089377 Z-0.125000
G01 X5.555799 Y5.068677 Z-0.125000
G01 X5.425600 Y5.047977 Z-0.125000
G01 X5.302452 Y5.002677 Z-0.125000
G01 X5.179303 Y4.957377 Z-0.125000
G01 X5.062754 Y4.899327 Z-0.125000
G01 X4.946206 Y4.841277 Z-0.125000
G01 X4.937206 Y4.817878 Z-0.125000
G01 X4.928206 Y4.794328 Z-0.125000
G01 X4.967355 Y4.646578 Z-0.125000
G01 X5.006355 Y4.498978 Z-0.125000
G01 X5.026605 Y4.491478 Z-0.125000
G01 X5.047004 Y4.483978 Z-0.125000
G01 X5.047004 Y4.464778 Z-0.125000
G01 X5.047004 Y4.445429 Z-0.125000
G01 X5.014155 Y4.409429 Z-0.125000
G01 X4.981605 Y4.373429 Z-0.125000
G01 X4.895806 Y4.153619 Z-0.125000
G01 X4.809707 Y3.933735 Z-0.125000
G01 X4.815707 Y3.687511 Z-0.125000
G01 X4.821707 Y3.441256 Z-0.125000
G01 X5.112854 Y2.097485 Z-0.125000
G01 X5.112224 Y2.094530 Z-0.125000
G00 Z5.000000

(End cutting path id: path220320)


(Start cutting path id: path220320)
(Change tool to Default tool)

G00 Z5.000000
G00 X4.905331 Y9.717239

G01 Z-0.125000 F100.0(Penetrate)
G01 X4.982580 Y9.523770 Z-0.125000 F400.000000
G01 X5.014980 Y9.487770 Z-0.125000
G01 X5.047379 Y9.451770 Z-0.125000
G01 X5.047379 Y9.436770 Z-0.125000
G01 X5.047379 Y9.421770 Z-0.125000
G01 X5.023530 Y9.402270 Z-0.125000
G01 X4.999530 Y9.382770 Z-0.125000
G01 X4.965180 Y9.241771 Z-0.125000
G01 X4.930831 Y9.100771 Z-0.125000
G01 X4.938331 Y9.078421 Z-0.125000
G01 X4.945831 Y9.056221 Z-0.125000
G01 X5.062829 Y8.997871 Z-0.125000
G01 X5.179828 Y8.939672 Z-0.125000
G01 X5.302977 Y8.894522 Z-0.125000
G01 X5.426125 Y8.849372 Z-0.125000
G01 X5.546724 Y8.829722 Z-0.125000
G01 X5.667322 Y8.810072 Z-0.125000
G01 X5.787921 Y8.809682 Z-0.125000
G01 X5.908520 Y8.809307 Z-0.125000
G01 X5.971819 Y8.858957 Z-0.125000
G01 X6.035118 Y8.908607 Z-0.125000
G01 X6.131417 Y9.071041 Z-0.125000
G01 X6.227716 Y9.233461 Z-0.125000
G01 X6.260415 Y9.308461 Z-0.125000
G01 X6.293415 Y9.383460 Z-0.125000
G01 X6.207016 Y9.700035 Z-0.125000
G01 X6.120767 Y10.016624 Z-0.125000
G01 X6.120482 Y10.059374 Z-0.125000
G01 X6.120242 Y10.102123 Z-0.125000
G01 X6.147992 Y10.132873 Z-0.125000
G01 X6.175891 Y10.163623 Z-0.125000
G01 X6.172891 Y10.758807 Z-0.125000
G01 X6.169892 Y11.353975 Z-0.125000
G01 X6.258690 Y12.158483 Z-0.125000
G01 X6.347639 Y12.962991 Z-0.125000
G01 X6.312240 Y13.032741 Z-0.125000
G01 X6.276840 Y13.102490 Z-0.125000
G01 X6.276840 Y13.129790 Z-0.125000
G01 X6.276840 Y13.157090 Z-0.125000
G01 X6.316440 Y13.157345 Z-0.125000
G01 X6.356039 Y13.157600 Z-0.125000
G01 X6.413339 Y13.245050 Z-0.125000
G01 X6.470488 Y13.332500 Z-0.125000
G01 X6.590787 Y13.412300 Z-0.125000
G01 X6.711085 Y13.492099 Z-0.125000
G01 X6.832584 Y13.535149 Z-0.125000
G01 X6.954082 Y13.578199 Z-0.125000
G01 X7.068381 Y13.578169 Z-0.125000
G01 X7.182680 Y13.578154 Z-0.125000
G01 X7.257379 Y13.544254 Z-0.125000
G01 X7.332378 Y13.510354 Z-0.125000
G01 X7.397327 Y13.461155 Z-0.125000
G01 X7.462127 Y13.412105 Z-0.125000
G01 X7.415627 Y13.491304 Z-0.125000
G01 X7.369128 Y13.570354 Z-0.125000
G01 X7.311078 Y13.628554 Z-0.125000
G01 X7.253179 Y13.686904 Z-0.125000
G01 X7.105131 Y13.760554 Z-0.125000
G01 X6.956932 Y13.834204 Z-0.125000
G01 X6.744520 Y13.840203 Z-0.125000
G01 X6.532062 Y13.846203 Z-0.125000
G01 X6.371444 Y13.818304 Z-0.125000
G01 X6.210826 Y13.790404 Z-0.125000
G01 X6.063678 Y13.744354 Z-0.125000
G01 X5.916529 Y13.698304 Z-0.125000
G01 X5.815431 Y13.644904 Z-0.125000
G01 X5.714332 Y13.591504 Z-0.125000
G01 X5.648033 Y13.519354 Z-0.125000
G01 X5.581583 Y13.447055 Z-0.125000
G01 X5.492034 Y13.297505 Z-0.125000
G01 X5.402485 Y13.147955 Z-0.125000
G01 X5.115089 Y11.828844 Z-0.125000
G01 X4.827722 Y10.509732 Z-0.125000
G01 X4.818722 Y10.325083 Z-0.125000
G01 X4.809722 Y10.140403 Z-0.125000
G01 X4.818722 Y10.026104 Z-0.125000
G01 X4.827722 Y9.911804 Z-0.125000
G01 X4.904971 Y9.718319 Z-0.125000
G01 X4.905331 Y9.717239 Z-0.125000
G00 Z5.000000

(End cutting path id: path220320)


(Start cutting path id: path220320)
(Change tool to Default tool)

G00 Z5.000000
G00 X4.881631 Y10.965986

G01 Z-0.125000 F100.0(Penetrate)
G01 X4.993680 Y11.476030 Z-0.125000 F400.000000
G01 X5.038530 Y11.687094 Z-0.125000
G01 X5.083379 Y11.898159 Z-0.125000
G01 X5.221077 Y12.531322 Z-0.125000
G01 X5.358776 Y13.164470 Z-0.125000
G01 X5.392076 Y13.223870 Z-0.125000
G01 X5.425375 Y13.283270 Z-0.125000
G01 X5.448025 Y13.320470 Z-0.125000
G01 X5.470375 Y13.357670 Z-0.125000
G01 X5.535774 Y13.462219 Z-0.125000
G01 X5.601173 Y13.566769 Z-0.125000
G01 X5.711272 Y13.640569 Z-0.125000
G01 X5.821371 Y13.714369 Z-0.125000
G01 X6.010188 Y13.776619 Z-0.125000
G01 X6.199006 Y13.838868 Z-0.125000
G01 X6.392429 Y13.869018 Z-0.125000
G01 X6.585897 Y13.899168 Z-0.125000
G01 X6.770575 Y13.890168 Z-0.125000
G01 X6.955222 Y13.881168 Z-0.125000
G01 X7.046271 Y13.846218 Z-0.125000
G01 X7.137320 Y13.811419 Z-0.125000
G01 X7.260619 Y13.729369 Z-0.125000
G01 X7.383917 Y13.647319 Z-0.125000
G01 X7.472866 Y13.494169 Z-0.125000
G01 X7.561815 Y13.340960 Z-0.125000
G01 X7.561830 Y13.319060 Z-0.125000
G01 X7.561845 Y13.297160 Z-0.125000
G01 X7.539946 Y13.297265 Z-0.125000
G01 X7.518046 Y13.297370 Z-0.125000
G01 X7.396697 Y13.394270 Z-0.125000
G01 X7.275199 Y13.491169 Z-0.125000
G01 X7.178900 Y13.519369 Z-0.125000
G01 X7.082451 Y13.547569 Z-0.125000
G01 X6.983752 Y13.528219 Z-0.125000
G01 X6.885053 Y13.508719 Z-0.125000
G01 X6.737155 Y13.435970 Z-0.125000
G01 X6.589107 Y13.363220 Z-0.125000
G01 X6.515458 Y13.287320 Z-0.125000
G01 X6.441658 Y13.211420 Z-0.125000
G01 X6.419609 Y13.157570 Z-0.125000
G01 X6.397409 Y13.103870 Z-0.125000
G01 X6.373409 Y13.103870 Z-0.125000
G01 X6.349409 Y13.103870 Z-0.125000
G01 X6.349409 Y13.094870 Z-0.125000
G01 X6.349409 Y13.085871 Z-0.125000
G01 X6.375359 Y13.035771 Z-0.125000
G01 X6.401309 Y12.985671 Z-0.125000
G01 X6.313860 Y12.197108 Z-0.125000
G01 X6.226411 Y11.408620 Z-0.125000
G01 X6.226411 Y10.781907 Z-0.125000
G01 X6.226411 Y10.155223 Z-0.125000
G01 X6.192661 Y10.112173 Z-0.125000
G01 X6.159062 Y10.069124 Z-0.125000
G01 X6.246511 Y9.753569 Z-0.125000
G01 X6.333960 Y9.438000 Z-0.125000
G01 X6.326460 Y9.365400 Z-0.125000
G01 X6.318960 Y9.292801 Z-0.125000
G01 X6.210211 Y9.101506 Z-0.125000
G01 X6.101612 Y8.910212 Z-0.125000
G01 X6.018813 Y8.835962 Z-0.125000
G01 X5.936014 Y8.761412 Z-0.125000
G01 X5.812866 Y8.761352 Z-0.125000
G01 X5.689717 Y8.761292 Z-0.125000
G01 X5.534319 Y8.786642 Z-0.125000
G01 X5.378921 Y8.812142 Z-0.125000
G01 X5.261772 Y8.858642 Z-0.125000
G01 X5.144623 Y8.905142 Z-0.125000
G01 X5.030325 Y8.959292 Z-0.125000
G01 X4.916026 Y9.013591 Z-0.125000
G01 X4.902526 Y9.032191 Z-0.125000
G01 X4.889026 Y9.050941 Z-0.125000
G01 X4.888066 Y9.094891 Z-0.125000
G01 X4.887121 Y9.138991 Z-0.125000
G01 X4.925371 Y9.288541 Z-0.125000
G01 X4.963620 Y9.438090 Z-0.125000
G01 X4.864172 Y9.688875 Z-0.125000
G01 X4.764873 Y9.939629 Z-0.125000
G01 X4.767873 Y10.198933 Z-0.125000
G01 X4.770873 Y10.458238 Z-0.125000
G01 X4.882921 Y10.968296 Z-0.125000
G01 X4.881631 Y10.965986 Z-0.125000
G00 Z5.000000

(End cutting path id: path220320)


(Start cutting path id: path220320)
(Change tool to Default tool)

G00 Z5.000000
G00 X6.294675 Y10.620507

G01 Z-0.125000 F100.0(Penetrate)
G01 X6.308175 Y10.641207 Z-0.125000 F400.000000
G01 X6.359624 Y10.618257 Z-0.125000
G01 X6.411074 Y10.595457 Z-0.125000
G01 X6.497173 Y10.543257 Z-0.125000
G01 X6.583272 Y10.491207 Z-0.125000
G01 X6.725770 Y10.396258 Z-0.125000
G01 X6.868268 Y10.301308 Z-0.125000
G01 X6.929918 Y10.255858 Z-0.125000
G01 X6.991567 Y10.210258 Z-0.125000
G01 X7.123416 Y10.094458 Z-0.125000
G01 X7.255264 Y9.978809 Z-0.125000
G01 X7.408592 Y9.821819 Z-0.125000
G01 X7.561890 Y9.664845 Z-0.125000
G01 X7.660589 Y9.541695 Z-0.125000
G01 X7.759138 Y9.418545 Z-0.125000
G01 X7.874937 Y9.242656 Z-0.125000
G01 X7.990885 Y9.066781 Z-0.125000
G01 X8.093634 Y8.871332 Z-0.125000
G01 X8.196383 Y8.675897 Z-0.125000
G01 X8.266732 Y8.502858 Z-0.125000
G01 X8.337081 Y8.329788 Z-0.125000
G01 X8.405331 Y8.091514 Z-0.125000
G01 X8.473580 Y7.853194 Z-0.125000
G01 X8.514229 Y7.615745 Z-0.125000
G01 X8.554729 Y7.378296 Z-0.125000
G01 X8.555689 Y6.956197 Z-0.125000
G01 X8.556664 Y6.534068 Z-0.125000
G01 X8.524714 Y6.340613 Z-0.125000
G01 X8.492615 Y6.147174 Z-0.125000
G01 X8.451365 Y5.971269 Z-0.125000
G01 X8.409666 Y5.795395 Z-0.125000
G01 X8.340666 Y5.593135 Z-0.125000
G01 X8.271517 Y5.390876 Z-0.125000
G01 X8.203718 Y5.241326 Z-0.125000
G01 X8.135919 Y5.091777 Z-0.125000
G01 X8.040820 Y4.924692 Z-0.125000
G01 X7.945721 Y4.757623 Z-0.125000
G01 X7.864572 Y4.634473 Z-0.125000
G01 X7.783423 Y4.511323 Z-0.125000
G01 X7.645874 Y4.340204 Z-0.125000
G01 X7.508326 Y4.169039 Z-0.125000
G01 X7.340043 Y4.001280 Z-0.125000
G01 X7.171745 Y3.833550 Z-0.125000
G01 X7.038696 Y3.726450 Z-0.125000
G01 X6.905648 Y3.619351 Z-0.125000
G01 X6.728725 Y3.501001 Z-0.125000
G01 X6.551802 Y3.382651 Z-0.125000
G01 X6.431204 Y3.315602 Z-0.125000
G01 X6.310755 Y3.248552 Z-0.125000
G01 X6.297255 Y3.271352 Z-0.125000
G01 X6.282255 Y3.294152 Z-0.125000
G01 X6.289755 Y3.313652 Z-0.125000
G01 X6.297255 Y3.333152 Z-0.125000
G01 X6.335055 Y3.356551 Z-0.125000
G01 X6.372854 Y3.379951 Z-0.125000
G01 X6.453403 Y3.424651 Z-0.125000
G01 X6.533802 Y3.469351 Z-0.125000
G01 X6.650501 Y3.545101 Z-0.125000
G01 X6.767050 Y3.620851 Z-0.125000
G01 X6.879098 Y3.709201 Z-0.125000
G01 X6.991147 Y3.797550 Z-0.125000
G01 X7.118796 Y3.907950 Z-0.125000
G01 X7.246444 Y4.018350 Z-0.125000
G01 X7.383692 Y4.167899 Z-0.125000
G01 X7.520941 Y4.317449 Z-0.125000
G01 X7.603440 Y4.419449 Z-0.125000
G01 X7.685939 Y4.521298 Z-0.125000
G01 X7.788838 Y4.674463 Z-0.125000
G01 X7.891587 Y4.827628 Z-0.125000
G01 X7.980536 Y4.985922 Z-0.125000
G01 X8.069485 Y5.144187 Z-0.125000
G01 X8.138634 Y5.302511 Z-0.125000
G01 X8.207633 Y5.460806 Z-0.125000
G01 X8.262232 Y5.619550 Z-0.125000
G01 X8.316832 Y5.778265 Z-0.125000
G01 X8.361231 Y5.954170 Z-0.125000
G01 X8.405631 Y6.130074 Z-0.125000
G01 X8.442530 Y6.375833 Z-0.125000
G01 X8.479580 Y6.621593 Z-0.125000
G01 X8.479970 Y6.938182 Z-0.125000
G01 X8.480390 Y7.254801 Z-0.125000
G01 X8.451140 Y7.465820 Z-0.125000
G01 X8.422040 Y7.676885 Z-0.125000
G01 X8.378241 Y7.861564 Z-0.125000
G01 X8.334442 Y8.046244 Z-0.125000
G01 X8.271592 Y8.238318 Z-0.125000
G01 X8.208743 Y8.430408 Z-0.125000
G01 X8.146194 Y8.572458 Z-0.125000
G01 X8.083794 Y8.714507 Z-0.125000
G01 X8.022595 Y8.828807 Z-0.125000
G01 X7.961396 Y8.943107 Z-0.125000
G01 X7.897797 Y9.048556 Z-0.125000
G01 X7.834197 Y9.154156 Z-0.125000
G01 X7.747798 Y9.277306 Z-0.125000
G01 X7.661249 Y9.400455 Z-0.125000
G01 X7.554151 Y9.532155 Z-0.125000
G01 X7.447052 Y9.663855 Z-0.125000
G01 X7.288789 Y9.824264 Z-0.125000
G01 X7.130510 Y9.984674 Z-0.125000
G01 X6.952897 Y10.125073 Z-0.125000
G01 X6.775345 Y10.265473 Z-0.125000
G01 X6.622511 Y10.365073 Z-0.125000
G01 X6.469648 Y10.464672 Z-0.125000
G01 X6.384599 Y10.508022 Z-0.125000
G01 X6.299550 Y10.551372 Z-0.125000
G01 X6.290550 Y10.575672 Z-0.125000
G01 X6.281550 Y10.599972 Z-0.125000
G01 X6.295050 Y10.620672 Z-0.125000
G01 X6.294675 Y10.620507 Z-0.125000
G00 Z5.000000

(End cutting path id: path220320)


(Footer)
M5
G00 X0.0000 Y0.0000
M2
(Using default footer. To add your own footer create file "footer" in the output dir.)
(end)
%