%
(Header)
(Generated by gcodetools from Inkscape.)
(Using default header. To add your own header create file "header" in the output dir.)
M3
(Header end.)
G21 (All units in mm)

(Start cutting path id: path220320)
(Change tool to Default tool)

G00 Z5.000000
G00 X43.613760 Y48.358760

G01 Z-0.125000 F100.0(Penetrate)
G01 X43.613760 Y62.968870 Z-0.125000 F400.000000
G01 X62.511390 Y62.968870 Z-0.125000
G01 X81.409030 Y62.968870 Z-0.125000
G01 X81.409030 Y48.358760 Z-0.125000
G01 X81.409030 Y33.748650 Z-0.125000
G01 X62.511390 Y33.748650 Z-0.125000
G01 X43.613760 Y33.748650 Z-0.125000
G01 X43.613760 Y48.358760 Z-0.125000
G00 Z5.000000

(End cutting path id: path220320)


(Start cutting path id: path220320)
(Change tool to Default tool)

G00 Z5.000000
G00 X53.225130 Y50.027380

G01 Z-0.125000 F100.0(Penetrate)
G01 X52.046570 Y50.286120 Z-0.125000 F400.000000
G01 X51.558880 Y50.389880 Z-0.125000
G01 X51.071200 Y50.493630 Z-0.125000
G01 X49.608160 Y50.811770 Z-0.125000
G01 X48.145120 Y51.129900 Z-0.125000
G01 X48.007920 Y51.207400 Z-0.125000
G01 X47.870730 Y51.284900 Z-0.125000
G01 X47.784430 Y51.337100 Z-0.125000
G01 X47.698130 Y51.389300 Z-0.125000
G01 X47.456610 Y51.540300 Z-0.125000
G01 X47.215090 Y51.691300 Z-0.125000
G01 X47.044790 Y51.945880 Z-0.125000
G01 X46.874490 Y52.200450 Z-0.125000
G01 X46.730630 Y52.636760 Z-0.125000
G01 X46.586760 Y53.073060 Z-0.125000
G01 X46.517560 Y53.520100 Z-0.125000
G01 X46.448360 Y53.967150 Z-0.125000
G01 X46.469260 Y54.393870 Z-0.125000
G01 X46.490160 Y54.820590 Z-0.125000
G01 X46.571060 Y55.031200 Z-0.125000
G01 X46.651960 Y55.241810 Z-0.125000
G01 X46.841390 Y55.526750 Z-0.125000
G01 X47.030830 Y55.811700 Z-0.125000
G01 X47.384820 Y56.017160 Z-0.125000
G01 X47.738820 Y56.222610 Z-0.125000
G01 X47.789620 Y56.222640 Z-0.125000
G01 X47.840420 Y56.222670 Z-0.125000
G01 X47.840180 Y56.171870 Z-0.125000
G01 X47.839930 Y56.121070 Z-0.125000
G01 X47.615950 Y55.840470 Z-0.125000
G01 X47.391970 Y55.559880 Z-0.125000
G01 X47.327170 Y55.337080 Z-0.125000
G01 X47.262370 Y55.114290 Z-0.125000
G01 X47.307170 Y54.886160 Z-0.125000
G01 X47.351970 Y54.658030 Z-0.125000
G01 X47.520140 Y54.316130 Z-0.125000
G01 X47.688310 Y53.974230 Z-0.125000
G01 X47.863600 Y53.803870 Z-0.125000
G01 X48.038890 Y53.633500 Z-0.125000
G01 X48.163160 Y53.582000 Z-0.125000
G01 X48.287420 Y53.530500 Z-0.125000
G01 X48.287420 Y53.474500 Z-0.125000
G01 X48.287420 Y53.418500 Z-0.125000
G01 X48.309720 Y53.418500 Z-0.125000
G01 X48.332020 Y53.418500 Z-0.125000
G01 X48.447870 Y53.478400 Z-0.125000
G01 X48.563710 Y53.538300 Z-0.125000
G01 X50.385740 Y53.336150 Z-0.125000
G01 X52.207770 Y53.134000 Z-0.125000
G01 X53.655840 Y53.134000 Z-0.125000
G01 X55.103920 Y53.134000 Z-0.125000
G01 X55.203120 Y53.055900 Z-0.125000
G01 X55.302320 Y52.977800 Z-0.125000
G01 X56.031520 Y53.179750 Z-0.125000
G01 X56.760720 Y53.381700 Z-0.125000
G01 X56.928320 Y53.365000 Z-0.125000
G01 X57.095920 Y53.348300 Z-0.125000
G01 X57.537920 Y53.097130 Z-0.125000
G01 X57.979930 Y52.845970 Z-0.125000
G01 X58.151810 Y52.654680 Z-0.125000
G01 X58.323700 Y52.463400 Z-0.125000
G01 X58.323820 Y52.178910 Z-0.125000
G01 X58.323940 Y51.894430 Z-0.125000
G01 X58.265040 Y51.535350 Z-0.125000
G01 X58.206140 Y51.176260 Z-0.125000
G01 X58.098610 Y50.905420 Z-0.125000
G01 X57.991080 Y50.634590 Z-0.125000
G01 X57.865890 Y50.370430 Z-0.125000
G01 X57.740700 Y50.106270 Z-0.125000
G01 X57.697700 Y50.076370 Z-0.125000
G01 X57.654700 Y50.046470 Z-0.125000
G01 X57.553100 Y50.044470 Z-0.125000
G01 X57.451500 Y50.042470 Z-0.125000
G01 X57.106060 Y50.130870 Z-0.125000
G01 X56.760620 Y50.219270 Z-0.125000
G01 X56.181200 Y49.989730 Z-0.125000
G01 X55.601790 Y49.760200 Z-0.125000
G01 X55.002640 Y49.764200 Z-0.125000
G01 X54.403490 Y49.768200 Z-0.125000
G01 X53.224930 Y50.026940 Z-0.125000
G01 X53.225130 Y50.027380 Z-0.125000
G00 Z5.000000

(End cutting path id: path220320)


(Start cutting path id: path220320)
(Change tool to Default tool)

G00 Z5.000000
G00 X56.110570 Y50.082680

G01 Z-0.125000 F100.0(Penetrate)
G01 X56.557620 Y50.261060 Z-0.125000 F400.000000
G01 X56.641520 Y50.336060 Z-0.125000
G01 X56.725420 Y50.411160 Z-0.125000
G01 X56.758920 Y50.411160 Z-0.125000
G01 X56.792420 Y50.411160 Z-0.125000
G01 X56.837520 Y50.355560 Z-0.125000
G01 X56.882620 Y50.299960 Z-0.125000
G01 X57.208490 Y50.220360 Z-0.125000
G01 X57.534360 Y50.140760 Z-0.125000
G01 X57.585860 Y50.157960 Z-0.125000
G01 X57.637360 Y50.175160 Z-0.125000
G01 X57.772080 Y50.445610 Z-0.125000
G01 X57.906800 Y50.716070 Z-0.125000
G01 X58.011200 Y51.000550 Z-0.125000
G01 X58.115600 Y51.285030 Z-0.125000
G01 X58.161500 Y51.563720 Z-0.125000
G01 X58.207400 Y51.842420 Z-0.125000
G01 X58.208310 Y52.121140 Z-0.125000
G01 X58.209220 Y52.399870 Z-0.125000
G01 X58.094630 Y52.546540 Z-0.125000
G01 X57.980030 Y52.693210 Z-0.125000
G01 X57.604700 Y52.915710 Z-0.125000
G01 X57.229360 Y53.138200 Z-0.125000
G01 X57.056060 Y53.214300 Z-0.125000
G01 X56.882750 Y53.290400 Z-0.125000
G01 X56.151230 Y53.090980 Z-0.125000
G01 X55.419710 Y52.891560 Z-0.125000
G01 X55.321310 Y52.890960 Z-0.125000
G01 X55.222910 Y52.890350 Z-0.125000
G01 X55.152310 Y52.954250 Z-0.125000
G01 X55.081710 Y53.018150 Z-0.125000
G01 X53.706410 Y53.014150 Z-0.125000
G01 X52.331100 Y53.010150 Z-0.125000
G01 X50.472180 Y53.215440 Z-0.125000
G01 X48.613270 Y53.420730 Z-0.125000
G01 X48.451960 Y53.338430 Z-0.125000
G01 X48.290650 Y53.256130 Z-0.125000
G01 X48.228050 Y53.256130 Z-0.125000
G01 X48.165450 Y53.256130 Z-0.125000
G01 X48.164850 Y53.347530 Z-0.125000
G01 X48.164240 Y53.439030 Z-0.125000
G01 X47.961980 Y53.571280 Z-0.125000
G01 X47.759720 Y53.703540 Z-0.125000
G01 X47.574960 Y53.981390 Z-0.125000
G01 X47.390200 Y54.259240 Z-0.125000
G01 X47.291100 Y54.540010 Z-0.125000
G01 X47.192000 Y54.820790 Z-0.125000
G01 X47.192030 Y55.084950 Z-0.125000
G01 X47.192070 Y55.349110 Z-0.125000
G01 X47.270570 Y55.522090 Z-0.125000
G01 X47.349070 Y55.695070 Z-0.125000
G01 X47.462700 Y55.844960 Z-0.125000
G01 X47.576330 Y55.994850 Z-0.125000
G01 X47.393450 Y55.887380 Z-0.125000
G01 X47.210570 Y55.779920 Z-0.125000
G01 X47.075860 Y55.645800 Z-0.125000
G01 X46.941160 Y55.511670 Z-0.125000
G01 X46.771060 Y55.169370 Z-0.125000
G01 X46.600970 Y54.827070 Z-0.125000
G01 X46.586870 Y54.336160 Z-0.125000
G01 X46.572870 Y53.845250 Z-0.125000
G01 X46.636870 Y53.474070 Z-0.125000
G01 X46.700970 Y53.102880 Z-0.125000
G01 X46.807450 Y52.762950 Z-0.125000
G01 X46.913940 Y52.423020 Z-0.125000
G01 X47.037490 Y52.189260 Z-0.125000
G01 X47.161040 Y51.955490 Z-0.125000
G01 X47.328050 Y51.802180 Z-0.125000
G01 X47.495060 Y51.648870 Z-0.125000
G01 X47.840500 Y51.442070 Z-0.125000
G01 X48.185940 Y51.235280 Z-0.125000
G01 X51.233950 Y50.571230 Z-0.125000
G01 X54.281950 Y49.907190 Z-0.125000
G01 X54.708670 Y49.884990 Z-0.125000
G01 X55.135390 Y49.862790 Z-0.125000
G01 X55.399560 Y49.883690 Z-0.125000
G01 X55.663720 Y49.904590 Z-0.125000
G01 X56.110760 Y50.082980 Z-0.125000
G01 X56.110570 Y50.082680 Z-0.125000
G00 Z5.000000

(End cutting path id: path220320)


(Start cutting path id: path220320)
(Change tool to Default tool)

G00 Z5.000000
G00 X54.023050 Y53.293290

G01 Z-0.125000 F100.0(Penetrate)
G01 X53.974950 Y53.322990 Z-0.125000 F400.000000
G01 X54.028150 Y53.441870 Z-0.125000
G01 X54.081350 Y53.560760 Z-0.125000
G01 X54.201930 Y53.759800 Z-0.125000
G01 X54.322520 Y53.958850 Z-0.125000
G01 X54.541930 Y54.288120 Z-0.125000
G01 X54.761350 Y54.617400 Z-0.125000
G01 X54.866710 Y54.759640 Z-0.125000
G01 X54.972070 Y54.901880 Z-0.125000
G01 X55.239580 Y55.206680 Z-0.125000
G01 X55.507090 Y55.511480 Z-0.125000
G01 X55.869850 Y55.865740 Z-0.125000
G01 X56.232600 Y56.220010 Z-0.125000
G01 X56.517080 Y56.447950 Z-0.125000
G01 X56.801570 Y56.675880 Z-0.125000
G01 X57.207960 Y56.943670 Z-0.125000
G01 X57.614370 Y57.211470 Z-0.125000
G01 X58.065950 Y57.449040 Z-0.125000
G01 X58.517530 Y57.686620 Z-0.125000
G01 X58.917390 Y57.849320 Z-0.125000
G01 X59.317260 Y58.012020 Z-0.125000
G01 X59.867890 Y58.169790 Z-0.125000
G01 X60.418530 Y58.327560 Z-0.125000
G01 X60.967170 Y58.421060 Z-0.125000
G01 X61.515820 Y58.514460 Z-0.125000
G01 X62.491180 Y58.516460 Z-0.125000
G01 X63.466540 Y58.518460 Z-0.125000
G01 X63.913580 Y58.444460 Z-0.125000
G01 X64.360620 Y58.370460 Z-0.125000
G01 X64.767020 Y58.274860 Z-0.125000
G01 X65.173420 Y58.179260 Z-0.125000
G01 X65.640780 Y58.019710 Z-0.125000
G01 X66.108140 Y57.860160 Z-0.125000
G01 X66.453580 Y57.703510 Z-0.125000
G01 X66.799030 Y57.546860 Z-0.125000
G01 X67.185100 Y57.327020 Z-0.125000
G01 X67.571190 Y57.107190 Z-0.125000
G01 X67.855670 Y56.919620 Z-0.125000
G01 X68.140150 Y56.732050 Z-0.125000
G01 X68.535610 Y56.414270 Z-0.125000
G01 X68.931070 Y56.096500 Z-0.125000
G01 X69.318690 Y55.707620 Z-0.125000
G01 X69.706300 Y55.318750 Z-0.125000
G01 X69.953660 Y55.011270 Z-0.125000
G01 X70.201010 Y54.703790 Z-0.125000
G01 X70.474390 Y54.294940 Z-0.125000
G01 X70.747770 Y53.886100 Z-0.125000
G01 X70.902660 Y53.607620 Z-0.125000
G01 X71.057560 Y53.329140 Z-0.125000
G01 X71.004660 Y53.296440 Z-0.125000
G01 X70.951760 Y53.263740 Z-0.125000
G01 X70.906560 Y53.281140 Z-0.125000
G01 X70.861360 Y53.298540 Z-0.125000
G01 X70.806760 Y53.386040 Z-0.125000
G01 X70.752160 Y53.473440 Z-0.125000
G01 X70.649120 Y53.659530 Z-0.125000
G01 X70.546070 Y53.845610 Z-0.125000
G01 X70.371170 Y54.114930 Z-0.125000
G01 X70.196280 Y54.384260 Z-0.125000
G01 X69.992250 Y54.643260 Z-0.125000
G01 X69.788220 Y54.902250 Z-0.125000
G01 X69.533200 Y55.197330 Z-0.125000
G01 X69.278180 Y55.492410 Z-0.125000
G01 X68.932740 Y55.809470 Z-0.125000
G01 X68.587300 Y56.126520 Z-0.125000
G01 X68.351930 Y56.317110 Z-0.125000
G01 X68.116560 Y56.507710 Z-0.125000
G01 X67.762650 Y56.745500 Z-0.125000
G01 X67.408740 Y56.983290 Z-0.125000
G01 X67.042970 Y57.189040 Z-0.125000
G01 X66.677210 Y57.394780 Z-0.125000
G01 X66.311450 Y57.554610 Z-0.125000
G01 X65.945690 Y57.714440 Z-0.125000
G01 X65.578880 Y57.840620 Z-0.125000
G01 X65.212070 Y57.966790 Z-0.125000
G01 X64.805640 Y58.069540 Z-0.125000
G01 X64.399210 Y58.172280 Z-0.125000
G01 X63.831330 Y58.258080 Z-0.125000
G01 X63.263450 Y58.343880 Z-0.125000
G01 X62.531930 Y58.344880 Z-0.125000
G01 X61.800400 Y58.345790 Z-0.125000
G01 X61.312720 Y58.278290 Z-0.125000
G01 X60.825040 Y58.210790 Z-0.125000
G01 X60.398320 Y58.110020 Z-0.125000
G01 X59.971600 Y58.009260 Z-0.125000
G01 X59.527740 Y57.863890 Z-0.125000
G01 X59.083880 Y57.718530 Z-0.125000
G01 X58.755580 Y57.574190 Z-0.125000
G01 X58.427280 Y57.429840 Z-0.125000
G01 X58.163120 Y57.288490 Z-0.125000
G01 X57.898960 Y57.147140 Z-0.125000
G01 X57.655120 Y57.000240 Z-0.125000
G01 X57.411280 Y56.853350 Z-0.125000
G01 X57.126790 Y56.653500 Z-0.125000
G01 X56.842320 Y56.453650 Z-0.125000
G01 X56.538050 Y56.206100 Z-0.125000
G01 X56.233780 Y55.958550 Z-0.125000
G01 X55.863140 Y55.592790 Z-0.125000
G01 X55.492490 Y55.227030 Z-0.125000
G01 X55.168160 Y54.816660 Z-0.125000
G01 X54.843820 Y54.406290 Z-0.125000
G01 X54.613600 Y54.053100 Z-0.125000
G01 X54.383370 Y53.699900 Z-0.125000
G01 X54.283770 Y53.503340 Z-0.125000
G01 X54.184170 Y53.306770 Z-0.125000
G01 X54.127770 Y53.285170 Z-0.125000
G01 X54.071370 Y53.263570 Z-0.125000
G01 X54.023270 Y53.293270 Z-0.125000
G01 X54.023050 Y53.293290 Z-0.125000
G00 Z5.000000

(End cutting path id: path220320)


(Start cutting path id: path220320)
(Change tool to Default tool)

G00 Z5.000000
G00 X62.132910 Y51.744350

G01 Z-0.125000 F100.0(Penetrate)
G01 X62.023710 Y51.858340 Z-0.125000 F400.000000
G01 X62.023710 Y53.118510 Z-0.125000
G01 X62.023710 Y54.378690 Z-0.125000
G01 X61.901780 Y54.495500 Z-0.125000
G01 X61.779870 Y54.612300 Z-0.125000
G01 X61.779870 Y54.665700 Z-0.125000
G01 X61.779870 Y54.719100 Z-0.125000
G01 X61.831270 Y54.719100 Z-0.125000
G01 X61.882670 Y54.719100 Z-0.125000
G01 X62.105050 Y54.637800 Z-0.125000
G01 X62.327420 Y54.556500 Z-0.125000
G01 X62.338120 Y54.556500 Z-0.125000
G01 X62.348820 Y54.556500 Z-0.125000
G01 X62.348820 Y53.093450 Z-0.125000
G01 X62.348820 Y51.630410 Z-0.125000
G01 X62.295420 Y51.630410 Z-0.125000
G01 X62.242120 Y51.630410 Z-0.125000
G01 X62.132910 Y51.744350 Z-0.125000
G00 Z5.000000

(End cutting path id: path220320)


(Start cutting path id: path220320)
(Change tool to Default tool)

G00 Z5.000000
G00 X62.869020 Y51.882340

G01 Z-0.125000 F100.0(Penetrate)
G01 X62.917820 Y51.931140 Z-0.125000 F400.000000
G01 X62.917820 Y53.195040 Z-0.125000
G01 X62.917820 Y54.458950 Z-0.125000
G01 X62.968620 Y54.510850 Z-0.125000
G01 X63.019420 Y54.562750 Z-0.125000
G01 X62.911270 Y54.514150 Z-0.125000
G01 X62.803110 Y54.465550 Z-0.125000
G01 X62.777110 Y54.327190 Z-0.125000
G01 X62.751110 Y54.188820 Z-0.125000
G01 X62.758110 Y53.011260 Z-0.125000
G01 X62.765110 Y51.833710 Z-0.125000
G01 X62.793110 Y51.833710 Z-0.125000
G01 X62.821110 Y51.833710 Z-0.125000
G01 X62.869020 Y51.882340 Z-0.125000
G00 Z5.000000

(End cutting path id: path220320)


(Start cutting path id: path220320)
(Change tool to Default tool)

G00 Z5.000000
G00 X62.673940 Y53.087970

G01 Z-0.125000 F100.0(Penetrate)
G01 X62.673940 Y54.545560 Z-0.125000 F400.000000
G01 X62.911800 Y54.632260 Z-0.125000
G01 X63.149650 Y54.718960 Z-0.125000
G01 X63.196250 Y54.718960 Z-0.125000
G01 X63.242850 Y54.718960 Z-0.125000
G01 X63.242850 Y54.665560 Z-0.125000
G01 X63.242850 Y54.612160 Z-0.125000
G01 X63.120930 Y54.495360 Z-0.125000
G01 X62.999010 Y54.378550 Z-0.125000
G01 X62.999010 Y53.100560 Z-0.125000
G01 X62.999010 Y51.822570 Z-0.125000
G01 X62.887250 Y51.726470 Z-0.125000
G01 X62.775490 Y51.630370 Z-0.125000
G01 X62.724690 Y51.630330 Z-0.125000
G01 X62.673890 Y51.630290 Z-0.125000
G01 X62.673890 Y53.087890 Z-0.125000
G01 X62.673940 Y53.087970 Z-0.125000
G00 Z5.000000

(End cutting path id: path220320)


(Start cutting path id: path220320)
(Change tool to Default tool)

G00 Z5.000000
G00 X62.234830 Y54.418870

G01 Z-0.125000 F100.0(Penetrate)
G01 X62.222430 Y54.464170 Z-0.125000 F400.000000
G01 X62.112900 Y54.513370 Z-0.125000
G01 X62.003380 Y54.562670 Z-0.125000
G01 X62.054180 Y54.510770 Z-0.125000
G01 X62.104980 Y54.458870 Z-0.125000
G01 X62.104980 Y53.194960 Z-0.125000
G01 X62.104980 Y51.931060 Z-0.125000
G01 X62.155780 Y51.880160 Z-0.125000
G01 X62.206580 Y51.829260 Z-0.125000
G01 X62.226880 Y53.101340 Z-0.125000
G01 X62.247180 Y54.373420 Z-0.125000
G01 X62.234830 Y54.418870 Z-0.125000
G00 Z5.000000

(End cutting path id: path220320)


(Start cutting path id: path220320)
(Change tool to Default tool)

G00 Z5.000000
G00 X61.697960 Y47.843000

G01 Z-0.125000 F100.0(Penetrate)
G01 X61.697350 Y47.911700 Z-0.125000 F400.000000
G01 X61.657950 Y47.850700 Z-0.125000
G01 X61.618550 Y47.789700 Z-0.125000
G01 X61.617950 Y47.756800 Z-0.125000
G01 X61.617340 Y47.723900 Z-0.125000
G01 X61.657940 Y47.749000 Z-0.125000
G01 X61.698540 Y47.774100 Z-0.125000
G01 X61.697940 Y47.842800 Z-0.125000
G01 X61.697960 Y47.843000 Z-0.125000
G00 Z5.000000

(End cutting path id: path220320)


(Start cutting path id: path220320)
(Change tool to Default tool)

G00 Z5.000000
G00 X61.559710 Y47.109080

G01 Z-0.125000 F100.0(Penetrate)
G01 X61.532210 Y47.302120 Z-0.125000 F400.000000
G01 X61.510510 Y47.505320 Z-0.125000
G01 X61.488710 Y47.708520 Z-0.125000
G01 X61.618240 Y48.074280 Z-0.125000
G01 X61.747770 Y48.440040 Z-0.125000
G01 X61.774570 Y48.489040 Z-0.125000
G01 X61.801370 Y48.537940 Z-0.125000
G01 X61.846770 Y48.509340 Z-0.125000
G01 X61.892170 Y48.480740 Z-0.125000
G01 X61.835070 Y48.096800 Z-0.125000
G01 X61.777970 Y47.712860 Z-0.125000
G01 X61.712870 Y47.640960 Z-0.125000
G01 X61.647770 Y47.568960 Z-0.125000
G01 X61.716070 Y47.360050 Z-0.125000
G01 X61.784370 Y47.151140 Z-0.125000
G01 X61.758570 Y47.033620 Z-0.125000
G01 X61.732770 Y46.916090 Z-0.125000
G01 X61.659970 Y46.916090 Z-0.125000
G01 X61.587170 Y46.916090 Z-0.125000
G01 X61.559710 Y47.109080 Z-0.125000
G00 Z5.000000

(End cutting path id: path220320)


(Start cutting path id: path220320)
(Change tool to Default tool)

G00 Z5.000000
G00 X60.744950 Y46.618030

G01 Z-0.125000 F100.0(Penetrate)
G01 X60.716950 Y46.767070 Z-0.125000 F400.000000
G01 X60.613640 Y46.902510 Z-0.125000
G01 X60.510330 Y47.037960 Z-0.125000
G01 X60.391760 Y47.037960 Z-0.125000
G01 X60.273190 Y47.037960 Z-0.125000
G01 X60.508350 Y46.754450 Z-0.125000
G01 X60.743500 Y46.470950 Z-0.125000
G01 X60.758200 Y46.470040 Z-0.125000
G01 X60.772900 Y46.469130 Z-0.125000
G01 X60.744900 Y46.618170 Z-0.125000
G01 X60.744950 Y46.618030 Z-0.125000
G00 Z5.000000

(End cutting path id: path220320)


(Start cutting path id: path220320)
(Change tool to Default tool)

G00 Z5.000000
G00 X60.608240 Y46.458840

G01 Z-0.125000 F100.0(Penetrate)
G01 X60.407190 Y46.692520 Z-0.125000 F400.000000
G01 X60.145950 Y46.997320 Z-0.125000
G01 X59.884710 Y47.302120 Z-0.125000
G01 X59.787410 Y47.316220 Z-0.125000
G01 X59.690110 Y47.330320 Z-0.125000
G01 X59.525970 Y47.447320 Z-0.125000
G01 X59.361830 Y47.564310 Z-0.125000
G01 X59.279830 Y47.636410 Z-0.125000
G01 X59.197830 Y47.708510 Z-0.125000
G01 X59.142130 Y48.013310 Z-0.125000
G01 X59.086430 Y48.318110 Z-0.125000
G01 X59.056430 Y48.582270 Z-0.125000
G01 X59.026430 Y48.846430 Z-0.125000
G01 X58.980830 Y48.960840 Z-0.125000
G01 X58.935130 Y49.075240 Z-0.125000
G01 X58.935130 Y49.113240 Z-0.125000
G01 X58.935130 Y49.151240 Z-0.125000
G01 X59.009030 Y49.151240 Z-0.125000
G01 X59.082930 Y49.151240 Z-0.125000
G01 X59.283340 Y49.090840 Z-0.125000
G01 X59.483760 Y49.030440 Z-0.125000
G01 X59.738140 Y48.532050 Z-0.125000
G01 X59.992520 Y48.033670 Z-0.125000
G01 X60.053120 Y47.791450 Z-0.125000
G01 X60.113720 Y47.549230 Z-0.125000
G01 X60.113720 Y47.492530 Z-0.125000
G01 X60.113720 Y47.435830 Z-0.125000
G01 X60.220640 Y47.308050 Z-0.125000
G01 X60.327550 Y47.180260 Z-0.125000
G01 X60.450100 Y47.159960 Z-0.125000
G01 X60.572640 Y47.139660 Z-0.125000
G01 X60.692840 Y46.990840 Z-0.125000
G01 X60.813030 Y46.842010 Z-0.125000
G01 X60.869930 Y46.570630 Z-0.125000
G01 X60.926830 Y46.299240 Z-0.125000
G01 X60.903930 Y46.262240 Z-0.125000
G01 X60.881030 Y46.225240 Z-0.125000
G01 X60.845230 Y46.225240 Z-0.125000
G01 X60.809430 Y46.225240 Z-0.125000
G01 X60.608240 Y46.458840 Z-0.125000
G00 Z5.000000

(End cutting path id: path220320)


(Start cutting path id: path220320)
(Change tool to Default tool)

G00 Z5.000000
G00 X60.117880 Y47.256950

G01 Z-0.125000 F100.0(Penetrate)
G01 X60.026680 Y47.354050 Z-0.125000 F400.000000
G01 X59.965280 Y47.653220 Z-0.125000
G01 X59.903880 Y47.952390 Z-0.125000
G01 X59.853580 Y48.053990 Z-0.125000
G03 X59.833341 Y48.094407 Z-0.125000 I-35.784601 J-17.893954
G03 X59.817126 Y48.126688 Z-0.125000 I-23.298311 J-11.683149
G03 X59.800886 Y48.158895 Z-0.125000 I-19.367929 J-9.745841
G03 X59.787224 Y48.185870 Z-0.125000 I-14.636827 J-7.395719
G03 X59.773528 Y48.212786 Z-0.125000 I-13.430349 J-6.817220
G03 X59.760962 Y48.237362 Z-0.125000 I-12.998669 J-6.630916
G03 X59.748355 Y48.261907 Z-0.125000 I-13.912323 J-7.130186
G03 X59.735422 Y48.286991 Z-0.125000 I-19.418048 J-9.995235
G03 X59.722453 Y48.312079 Z-0.125000 I-26.189338 J-13.523522
G03 X59.707692 Y48.340582 Z-0.125000 I-73.746017 J-38.170148
G03 X59.692905 Y48.369122 Z-0.125000 I-268.515422 J-138.939533
G02 X59.674857 Y48.403962 Z-0.125000 I115.826500 J59.996605
G02 X59.656794 Y48.438861 Z-0.125000 I84.187580 J43.595613
G02 X59.634001 Y48.482956 Z-0.125000 I71.086895 J36.773483
G02 X59.611205 Y48.527122 Z-0.125000 I71.999742 J37.189363
G02 X59.582210 Y48.583390 Z-0.125000 I81.502930 J42.034755
G01 X59.410640 Y48.916620 Z-0.125000
G01 X59.270020 Y48.975420 Z-0.125000
G01 X59.129390 Y49.034220 Z-0.125000
G01 X59.109390 Y49.014220 Z-0.125000
G01 X59.089390 Y48.994220 Z-0.125000
G01 X59.134690 Y48.857030 Z-0.125000
G01 X59.179990 Y48.719840 Z-0.125000
G01 X59.174990 Y48.579980 Z-0.125000
G01 X59.169990 Y48.440130 Z-0.125000
G01 X59.230890 Y48.124660 Z-0.125000
G01 X59.291790 Y47.809190 Z-0.125000
G01 X59.347190 Y47.741990 Z-0.125000
G01 X59.402590 Y47.674790 Z-0.125000
G01 X59.561090 Y47.559640 Z-0.125000
G01 X59.719580 Y47.444500 Z-0.125000
G01 X59.816280 Y47.444500 Z-0.125000
G01 X59.912980 Y47.444500 Z-0.125000
G01 X60.037870 Y47.302260 Z-0.125000
G01 X60.162760 Y47.160020 Z-0.125000
G01 X60.185960 Y47.160020 Z-0.125000
G01 X60.209160 Y47.160020 Z-0.125000
G01 X60.117880 Y47.256950 Z-0.125000
G00 Z5.000000

(End cutting path id: path220320)


(Start cutting path id: path220320)
(Change tool to Default tool)

G00 Z5.000000
G00 X61.844420 Y45.605190

G01 Z-0.125000 F100.0(Penetrate)
G01 X61.820520 Y45.629090 Z-0.125000 F400.000000
G01 X61.799220 Y45.607790 Z-0.125000
G01 X61.777920 Y45.586490 Z-0.125000
G01 X61.808120 Y45.509590 Z-0.125000
G01 X61.838320 Y45.432690 Z-0.125000
G01 X61.853320 Y45.506990 Z-0.125000
G01 X61.868320 Y45.581290 Z-0.125000
G01 X61.844420 Y45.605190 Z-0.125000
G00 Z5.000000

(End cutting path id: path220320)


(Start cutting path id: path220320)
(Change tool to Default tool)

G00 Z5.000000
G00 X61.701800 Y45.436730

G01 Z-0.125000 F100.0(Penetrate)
G01 X61.654700 Y45.623670 Z-0.125000 F400.000000
G01 X61.701900 Y45.680570 Z-0.125000
G01 X61.749100 Y45.737470 Z-0.125000
G01 X61.817300 Y45.737470 Z-0.125000
G01 X61.885500 Y45.737470 Z-0.125000
G01 X61.934300 Y45.688670 Z-0.125000
G01 X61.983100 Y45.639870 Z-0.125000
G01 X61.983100 Y45.564670 Z-0.125000
G01 X61.983100 Y45.489470 Z-0.125000
G01 X61.921100 Y45.369570 Z-0.125000
G01 X61.859100 Y45.249660 Z-0.125000
G01 X61.804000 Y45.249660 Z-0.125000
G01 X61.748900 Y45.249660 Z-0.125000
G01 X61.701800 Y45.436730 Z-0.125000
G00 Z5.000000

(End cutting path id: path220320)


(Start cutting path id: path220320)
(Change tool to Default tool)

G00 Z5.000000
G00 X63.101710 Y45.369700

G01 Z-0.125000 F100.0(Penetrate)
G01 X63.039710 Y45.489600 Z-0.125000 F400.000000
G01 X63.039710 Y45.564800 Z-0.125000
G01 X63.039710 Y45.640000 Z-0.125000
G01 X63.088510 Y45.688800 Z-0.125000
G01 X63.137310 Y45.737600 Z-0.125000
G01 X63.205510 Y45.737600 Z-0.125000
G01 X63.273710 Y45.737600 Z-0.125000
G01 X63.320910 Y45.680700 Z-0.125000
G01 X63.368110 Y45.623800 Z-0.125000
G01 X63.321010 Y45.436860 Z-0.125000
G01 X63.273910 Y45.249920 Z-0.125000
G01 X63.218810 Y45.249920 Z-0.125000
G01 X63.163710 Y45.249920 Z-0.125000
G01 X63.101710 Y45.369700 Z-0.125000
G00 Z5.000000

(End cutting path id: path220320)


(Start cutting path id: path220320)
(Change tool to Default tool)

G00 Z5.000000
G00 X63.242290 Y45.585070

G01 Z-0.125000 F100.0(Penetrate)
G01 X63.242890 Y45.615570 Z-0.125000 F400.000000
G01 X63.202290 Y45.615570 Z-0.125000
G01 X63.161690 Y45.615570 Z-0.125000
G01 X63.162300 Y45.524170 Z-0.125000
G01 X63.162900 Y45.432670 Z-0.125000
G01 X63.202300 Y45.493670 Z-0.125000
G01 X63.241700 Y45.554670 Z-0.125000
G01 X63.242310 Y45.585170 Z-0.125000
G01 X63.242290 Y45.585070 Z-0.125000
G00 Z5.000000

(End cutting path id: path220320)


(Start cutting path id: path220320)
(Change tool to Default tool)

G00 Z5.000000
G00 X64.118930 Y46.262140

G01 Z-0.125000 F100.0(Penetrate)
G01 X64.096030 Y46.299140 Z-0.125000 F400.000000
G01 X64.152930 Y46.570530 Z-0.125000
G01 X64.209830 Y46.841920 Z-0.125000
G01 X64.330020 Y46.990740 Z-0.125000
G01 X64.450220 Y47.139570 Z-0.125000
G01 X64.572760 Y47.159870 Z-0.125000
G01 X64.695310 Y47.180170 Z-0.125000
G01 X64.802220 Y47.307960 Z-0.125000
G01 X64.909140 Y47.435750 Z-0.125000
G01 X64.909140 Y47.488250 Z-0.125000
G01 X64.909140 Y47.540750 Z-0.125000
G01 X64.975040 Y47.807510 Z-0.125000
G01 X65.040940 Y48.074270 Z-0.125000
G01 X65.287340 Y48.541620 Z-0.125000
G01 X65.533730 Y49.008990 Z-0.125000
G01 X65.570230 Y49.033790 Z-0.125000
G01 X65.606730 Y49.058590 Z-0.125000
G01 X65.827120 Y49.111490 Z-0.125000
G01 X66.047510 Y49.164390 Z-0.125000
G01 X66.072210 Y49.139690 Z-0.125000
G01 X66.096910 Y49.114990 Z-0.125000
G01 X66.031410 Y48.922660 Z-0.125000
G01 X65.965910 Y48.730340 Z-0.125000
G01 X65.965300 Y48.564860 Z-0.125000
G01 X65.964690 Y48.399380 Z-0.125000
G01 X65.904690 Y48.175860 Z-0.125000
G01 X65.844690 Y47.952340 Z-0.125000
G01 X65.844090 Y47.836930 Z-0.125000
G01 X65.843480 Y47.721530 Z-0.125000
G01 X65.752080 Y47.642930 Z-0.125000
G01 X65.660680 Y47.564330 Z-0.125000
G01 X65.490800 Y47.443380 Z-0.125000
G01 X65.320920 Y47.322440 Z-0.125000
G01 X65.241920 Y47.322440 Z-0.125000
G01 X65.163020 Y47.322440 Z-0.125000
G01 X65.005440 Y47.148490 Z-0.125000
G01 X64.847870 Y46.974540 Z-0.125000
G01 X64.531980 Y46.599850 Z-0.125000
G01 X64.216090 Y46.225160 Z-0.125000
G01 X64.178790 Y46.225160 Z-0.125000
G01 X64.141490 Y46.225160 Z-0.125000
G01 X64.118590 Y46.262160 Z-0.125000
G01 X64.118930 Y46.262140 Z-0.125000
G00 Z5.000000

(End cutting path id: path220320)


(Start cutting path id: path220320)
(Change tool to Default tool)

G00 Z5.000000
G00 X64.540310 Y46.783960

G01 Z-0.125000 F100.0(Penetrate)
G01 X64.749550 Y47.037960 Z-0.125000 F400.000000
G01 X64.630980 Y47.037960 Z-0.125000
G01 X64.512400 Y47.037960 Z-0.125000
G01 X64.409090 Y46.902510 Z-0.125000
G01 X64.305780 Y46.767070 Z-0.125000
G01 X64.277380 Y46.607870 Z-0.125000
G01 X64.248980 Y46.448680 Z-0.125000
G01 X64.289980 Y46.489280 Z-0.125000
G01 X64.330980 Y46.529880 Z-0.125000
G01 X64.540310 Y46.783960 Z-0.125000
G00 Z5.000000

(End cutting path id: path220320)


(Start cutting path id: path220320)
(Change tool to Default tool)

G00 Z5.000000
G00 X65.222400 Y47.444360

G01 Z-0.125000 F100.0(Penetrate)
G01 X65.308300 Y47.444360 Z-0.125000 F400.000000
G01 X65.514480 Y47.607330 Z-0.125000
G01 X65.720660 Y47.770310 Z-0.125000
G01 X65.738160 Y47.861310 Z-0.125000
G01 X65.755660 Y47.952310 Z-0.125000
G01 X65.805560 Y48.196150 Z-0.125000
G01 X65.855360 Y48.439990 Z-0.125000
G01 X65.849360 Y48.594220 Z-0.125000
G01 X65.843360 Y48.748460 Z-0.125000
G01 X65.902060 Y48.888860 Z-0.125000
G01 X65.960760 Y49.029270 Z-0.125000
G01 X65.920860 Y49.029270 Z-0.125000
G01 X65.880960 Y49.029270 Z-0.125000
G01 X65.750190 Y48.973670 Z-0.125000
G01 X65.619410 Y48.918070 Z-0.125000
G01 X65.538310 Y48.760320 Z-0.125000
G01 X65.457210 Y48.602560 Z-0.125000
G01 X65.320130 Y48.358720 Z-0.125000
G01 X65.183060 Y48.114880 Z-0.125000
G01 X65.106560 Y47.850850 Z-0.125000
G01 X65.030060 Y47.586820 Z-0.125000
G01 X65.030060 Y47.500720 Z-0.125000
G01 X65.030060 Y47.414620 Z-0.125000
G01 X64.941660 Y47.297380 Z-0.125000
G01 X64.853260 Y47.180140 Z-0.125000
G01 X64.994400 Y47.312220 Z-0.125000
G01 X65.135540 Y47.444300 Z-0.125000
G01 X65.222400 Y47.444360 Z-0.125000
G00 Z5.000000

(End cutting path id: path220320)


(Start cutting path id: path220320)
(Change tool to Default tool)

G00 Z5.000000
G00 X63.369790 Y47.837550

G01 Z-0.125000 F100.0(Penetrate)
G01 X63.326690 Y47.911750 Z-0.125000 F400.000000
G01 X63.325690 Y47.884650 Z-0.125000
G01 X63.324690 Y47.857450 Z-0.125000
G01 X63.349990 Y47.791450 Z-0.125000
G01 X63.375290 Y47.725450 Z-0.125000
G01 X63.394290 Y47.744450 Z-0.125000
G01 X63.413290 Y47.763450 Z-0.125000
G01 X63.370190 Y47.837650 Z-0.125000
G01 X63.369790 Y47.837550 Z-0.125000
G00 Z5.000000

(End cutting path id: path220320)


(Start cutting path id: path220320)
(Change tool to Default tool)

G00 Z5.000000
G00 X63.262660 Y47.048120

G01 Z-0.125000 F100.0(Penetrate)
G01 X63.238060 Y47.180200 Z-0.125000 F400.000000
G01 X63.301460 Y47.331290 Z-0.125000
G01 X63.364860 Y47.482390 Z-0.125000
G01 X63.364860 Y47.550290 Z-0.125000
G01 X63.364860 Y47.618190 Z-0.125000
G01 X63.305160 Y47.663290 Z-0.125000
G01 X63.245460 Y47.708390 Z-0.125000
G01 X63.202060 Y48.013190 Z-0.125000
G01 X63.158660 Y48.317990 Z-0.125000
G01 X63.139960 Y48.405790 Z-0.125000
G01 X63.121260 Y48.493590 Z-0.125000
G01 X63.191260 Y48.483290 Z-0.125000
G01 X63.261260 Y48.472990 Z-0.125000
G01 X63.397820 Y48.090640 Z-0.125000
G01 X63.534390 Y47.708290 Z-0.125000
G01 X63.512490 Y47.505090 Z-0.125000
G01 X63.490590 Y47.301890 Z-0.125000
G01 X63.463090 Y47.108850 Z-0.125000
G01 X63.435590 Y46.915810 Z-0.125000
G01 X63.361390 Y46.915810 Z-0.125000
G01 X63.287290 Y46.915810 Z-0.125000
G01 X63.262660 Y47.048120 Z-0.125000
G00 Z5.000000

(End cutting path id: path220320)


(Start cutting path id: path220320)
(Change tool to Default tool)

G00 Z5.000000
G00 X64.272940 Y41.085980

G01 Z-0.125000 F100.0(Penetrate)
G01 X64.248140 Y41.150680 Z-0.125000 F400.000000
G01 X64.284540 Y41.187180 Z-0.125000
G01 X64.320940 Y41.223680 Z-0.125000
G01 X64.680270 Y41.327810 Z-0.125000
G01 X65.039590 Y41.431930 Z-0.125000
G01 X65.392710 Y41.568310 Z-0.125000
G01 X65.745830 Y41.704680 Z-0.125000
G01 X66.008180 Y41.836740 Z-0.125000
G01 X66.270520 Y41.968790 Z-0.125000
G01 X66.615960 Y42.174560 Z-0.125000
G01 X66.961410 Y42.380340 Z-0.125000
G01 X67.286530 Y42.623810 Z-0.125000
G01 X67.611650 Y42.867280 Z-0.125000
G01 X68.103120 Y43.357590 Z-0.125000
G01 X68.594580 Y43.847880 Z-0.125000
G01 X68.878000 Y44.233970 Z-0.125000
G01 X69.161420 Y44.620050 Z-0.125000
G01 X69.306650 Y44.863890 Z-0.125000
G01 X69.451880 Y45.107730 Z-0.125000
G01 X69.613650 Y45.432850 Z-0.125000
G01 X69.775430 Y45.757970 Z-0.125000
G01 X69.941390 Y46.205010 Z-0.125000
G01 X70.107350 Y46.652050 Z-0.125000
G01 X70.188650 Y46.977170 Z-0.125000
G01 X70.269950 Y47.302290 Z-0.125000
G01 X70.336550 Y47.668050 Z-0.125000
G01 X70.403150 Y48.033810 Z-0.125000
G01 X70.425350 Y48.836450 Z-0.125000
G01 X70.447450 Y49.639100 Z-0.125000
G01 X70.519550 Y49.639100 Z-0.125000
G01 X70.591650 Y49.639100 Z-0.125000
G01 X70.621150 Y49.285180 Z-0.125000
G01 X70.650650 Y48.931280 Z-0.125000
G01 X70.602850 Y48.355900 Z-0.125000
G01 X70.555050 Y47.780530 Z-0.125000
G01 X70.455450 Y47.299990 Z-0.125000
G01 X70.355750 Y46.819450 Z-0.125000
G01 X70.230100 Y46.432920 Z-0.125000
G01 X70.104440 Y46.046390 Z-0.125000
G01 X69.908200 Y45.608010 Z-0.125000
G01 X69.711950 Y45.169640 Z-0.125000
G01 X69.445050 Y44.731730 Z-0.125000
G01 X69.178160 Y44.293830 Z-0.125000
G01 X68.905780 Y43.948940 Z-0.125000
G01 X68.633410 Y43.604040 Z-0.125000
G01 X68.203950 Y43.176090 Z-0.125000
G01 X67.774480 Y42.748130 Z-0.125000
G01 X67.388400 Y42.461930 Z-0.125000
G01 X67.002320 Y42.175740 Z-0.125000
G01 X66.677200 Y41.978570 Z-0.125000
G01 X66.352080 Y41.781400 Z-0.125000
G01 X65.966000 Y41.600250 Z-0.125000
G01 X65.579920 Y41.419110 Z-0.125000
G01 X65.051600 Y41.246800 Z-0.125000
G01 X64.523270 Y41.074490 Z-0.125000
G01 X64.410620 Y41.047990 Z-0.125000
G01 X64.297970 Y41.021490 Z-0.125000
G01 X64.272940 Y41.085980 Z-0.125000
G00 Z5.000000

(End cutting path id: path220320)


(Start cutting path id: path220320)
(Change tool to Default tool)

G00 Z5.000000
G00 X63.689950 Y39.489100

G01 Z-0.125000 F100.0(Penetrate)
G01 X63.689950 Y39.550300 Z-0.125000 F400.000000
G01 X63.740750 Y39.590800 Z-0.125000
G01 X63.791550 Y39.631300 Z-0.125000
G01 X63.994750 Y39.659100 Z-0.125000
G01 X64.197950 Y39.686900 Z-0.125000
G01 X64.780480 Y39.828790 Z-0.125000
G01 X65.363020 Y39.970690 Z-0.125000
G01 X65.834220 Y40.152800 Z-0.125000
G01 X66.305420 Y40.334920 Z-0.125000
G01 X66.735050 Y40.551130 Z-0.125000
G01 X67.164680 Y40.767350 Z-0.125000
G01 X67.449150 Y40.941100 Z-0.125000
G01 X67.733640 Y41.114850 Z-0.125000
G01 X68.191580 Y41.458070 Z-0.125000
G01 X68.649520 Y41.801300 Z-0.125000
G01 X69.126600 Y42.275900 Z-0.125000
G01 X69.603680 Y42.750500 Z-0.125000
G01 X69.871970 Y43.095940 Z-0.125000
G01 X70.140260 Y43.441380 Z-0.125000
G01 X70.406380 Y43.847780 Z-0.125000
G01 X70.672490 Y44.254180 Z-0.125000
G01 X70.896840 Y44.701220 Z-0.125000
G01 X71.121170 Y45.148270 Z-0.125000
G01 X71.260070 Y45.493710 Z-0.125000
G01 X71.398970 Y45.839150 Z-0.125000
G01 X71.524990 Y46.265870 Z-0.125000
G01 X71.651010 Y46.692590 Z-0.125000
G01 X71.733510 Y47.119310 Z-0.125000
G01 X71.816010 Y47.546030 Z-0.125000
G01 X71.858010 Y47.891470 Z-0.125000
G01 X71.900010 Y48.236910 Z-0.125000
G01 X71.900920 Y48.992060 Z-0.125000
G01 X71.901830 Y49.747210 Z-0.125000
G01 X71.878330 Y49.808510 Z-0.125000
G01 X71.854830 Y49.869810 Z-0.125000
G01 X71.919330 Y49.923410 Z-0.125000
G01 X71.983830 Y49.977010 Z-0.125000
G01 X72.032930 Y49.927910 Z-0.125000
G01 X72.082030 Y49.878810 Z-0.125000
G01 X72.081420 Y48.976600 Z-0.125000
G01 X72.080820 Y48.074390 Z-0.125000
G01 X72.027320 Y47.688310 Z-0.125000
G01 X71.973820 Y47.302230 Z-0.125000
G01 X71.874320 Y46.855190 Z-0.125000
G01 X71.774820 Y46.408150 Z-0.125000
G01 X71.628640 Y45.962910 Z-0.125000
G01 X71.482460 Y45.517670 Z-0.125000
G01 X71.342980 Y45.190750 Z-0.125000
G01 X71.203510 Y44.863820 Z-0.125000
G01 X70.986430 Y44.452740 Z-0.125000
G01 X70.769350 Y44.041660 Z-0.125000
G01 X70.504490 Y43.639940 Z-0.125000
G01 X70.239640 Y43.238220 Z-0.125000
G01 X69.968730 Y42.913530 Z-0.125000
G01 X69.697820 Y42.588840 Z-0.125000
G01 X69.377850 Y42.256370 Z-0.125000
G01 X69.057880 Y41.923900 Z-0.125000
G01 X68.660550 Y41.587900 Z-0.125000
G01 X68.263210 Y41.251910 Z-0.125000
G01 X67.774820 Y40.930750 Z-0.125000
G01 X67.286440 Y40.609590 Z-0.125000
G01 X66.717480 Y40.330140 Z-0.125000
G01 X66.148520 Y40.050690 Z-0.125000
G01 X65.538920 Y39.848180 Z-0.125000
G01 X64.929320 Y39.645670 Z-0.125000
G01 X64.522920 Y39.564370 Z-0.125000
G01 X64.116520 Y39.483070 Z-0.125000
G01 X63.903160 Y39.455470 Z-0.125000
G01 X63.689800 Y39.427870 Z-0.125000
G01 X63.689800 Y39.489070 Z-0.125000
G01 X63.689950 Y39.489100 Z-0.125000
G00 Z5.000000

(End cutting path id: path220320)


(Start cutting path id: path220320)
(Change tool to Default tool)

G00 Z5.000000
G00 X62.138260 Y38.945170

G01 Z-0.125000 F100.0(Penetrate)
G01 X62.191860 Y38.979170 Z-0.125000 F400.000000
G01 X62.167360 Y39.320480 Z-0.125000
G01 X62.142860 Y39.661790 Z-0.125000
G01 X62.120360 Y39.844670 Z-0.125000
G01 X62.097960 Y40.027550 Z-0.125000
G01 X62.013060 Y40.118950 Z-0.125000
G01 X61.928160 Y40.210350 Z-0.125000
G01 X61.841360 Y40.210350 Z-0.125000
G01 X61.754660 Y40.210350 Z-0.125000
G01 X61.689660 Y40.261150 Z-0.125000
G01 X61.624660 Y40.311950 Z-0.125000
G01 X61.581560 Y40.596440 Z-0.125000
G01 X61.538460 Y40.880920 Z-0.125000
G01 X61.513860 Y41.287320 Z-0.125000
G01 X61.489260 Y41.693720 Z-0.125000
G01 X61.433860 Y41.896920 Z-0.125000
G01 X61.378460 Y42.100120 Z-0.125000
G01 X61.350260 Y42.394840 Z-0.125000
G01 X61.322060 Y42.689560 Z-0.125000
G01 X61.374360 Y42.882520 Z-0.125000
G01 X61.426660 Y43.075480 Z-0.125000
G01 X61.496060 Y43.217720 Z-0.125000
G01 X61.565460 Y43.359960 Z-0.125000
G01 X61.616160 Y43.575420 Z-0.125000
G01 X61.666860 Y43.790880 Z-0.125000
G01 X61.732760 Y43.778180 Z-0.125000
G01 X61.798760 Y43.765480 Z-0.125000
G01 X61.826660 Y43.603350 Z-0.125000
G01 X61.854560 Y43.441230 Z-0.125000
G01 X61.793260 Y43.198130 Z-0.125000
G01 X61.731860 Y42.955030 Z-0.125000
G01 X61.781660 Y42.720610 Z-0.125000
G01 X61.831460 Y42.486190 Z-0.125000
G01 X61.861960 Y42.486190 Z-0.125000
G01 X61.892460 Y42.486190 Z-0.125000
G01 X61.915160 Y42.902750 Z-0.125000
G01 X61.937860 Y43.319310 Z-0.125000
G01 X61.955260 Y43.420910 Z-0.125000
G01 X61.972660 Y43.522510 Z-0.125000
G01 X61.983160 Y44.050830 Z-0.125000
G01 X61.993760 Y44.579150 Z-0.125000
G01 X62.023660 Y44.436910 Z-0.125000
G01 X62.053560 Y44.294670 Z-0.125000
G01 X62.063560 Y44.436910 Z-0.125000
G01 X62.073560 Y44.579150 Z-0.125000
G01 X62.110560 Y44.396270 Z-0.125000
G01 X62.147560 Y44.213390 Z-0.125000
G01 X62.152560 Y43.746030 Z-0.125000
G01 X62.157560 Y43.278670 Z-0.125000
G01 X62.152560 Y42.742990 Z-0.125000
G01 X62.147560 Y42.207300 Z-0.125000
G01 X62.207560 Y42.063570 Z-0.125000
G01 X62.267660 Y41.919840 Z-0.125000
G01 X62.269660 Y41.359730 Z-0.125000
G01 X62.272660 Y40.799620 Z-0.125000
G01 X62.313560 Y40.901220 Z-0.125000
G01 X62.354460 Y41.002820 Z-0.125000
G01 X62.343960 Y42.018830 Z-0.125000
G01 X62.333460 Y43.034830 Z-0.125000
G01 X62.403160 Y43.166910 Z-0.125000
G01 X62.472860 Y43.298990 Z-0.125000
G01 X62.511460 Y43.298990 Z-0.125000
G01 X62.549960 Y43.298990 Z-0.125000
G01 X62.619660 Y43.166910 Z-0.125000
G01 X62.689360 Y43.034830 Z-0.125000
G01 X62.678860 Y42.018830 Z-0.125000
G01 X62.668360 Y41.002820 Z-0.125000
G01 X62.709260 Y40.901220 Z-0.125000
G01 X62.750160 Y40.799620 Z-0.125000
G01 X62.753160 Y41.359730 Z-0.125000
G01 X62.756160 Y41.919840 Z-0.125000
G01 X62.819660 Y42.070930 Z-0.125000
G01 X62.883160 Y42.222030 Z-0.125000
G01 X62.874160 Y42.750350 Z-0.125000
G01 X62.865160 Y43.278670 Z-0.125000
G01 X62.872160 Y43.746030 Z-0.125000
G01 X62.879160 Y44.213390 Z-0.125000
G01 X62.914360 Y44.416590 Z-0.125000
G01 X62.949560 Y44.619790 Z-0.125000
G01 X62.959660 Y44.457230 Z-0.125000
G01 X62.969760 Y44.294670 Z-0.125000
G01 X62.999660 Y44.436910 Z-0.125000
G01 X63.029560 Y44.579150 Z-0.125000
G01 X63.040060 Y44.050830 Z-0.125000
G01 X63.050560 Y43.522510 Z-0.125000
G01 X63.067960 Y43.420910 Z-0.125000
G01 X63.085360 Y43.319310 Z-0.125000
G01 X63.108060 Y42.902750 Z-0.125000
G01 X63.130760 Y42.486190 Z-0.125000
G01 X63.161260 Y42.486190 Z-0.125000
G01 X63.191760 Y42.486190 Z-0.125000
G01 X63.240560 Y42.719870 Z-0.125000
G01 X63.289460 Y42.953550 Z-0.125000
G01 X63.231060 Y43.200490 Z-0.125000
G01 X63.172660 Y43.447440 Z-0.125000
G01 X63.198460 Y43.606450 Z-0.125000
G01 X63.224260 Y43.765480 Z-0.125000
G01 X63.290860 Y43.778280 Z-0.125000
G01 X63.357560 Y43.791080 Z-0.125000
G01 X63.401960 Y43.584290 Z-0.125000
G01 X63.446260 Y43.377510 Z-0.125000
G01 X63.521260 Y43.226450 Z-0.125000
G01 X63.596260 Y43.075400 Z-0.125000
G01 X63.648560 Y42.882440 Z-0.125000
G01 X63.700860 Y42.689480 Z-0.125000
G01 X63.672660 Y42.394760 Z-0.125000
G01 X63.644460 Y42.100040 Z-0.125000
G01 X63.589060 Y41.896830 Z-0.125000
G01 X63.533760 Y41.693640 Z-0.125000
G01 X63.508860 Y41.287230 Z-0.125000
G01 X63.483960 Y40.880830 Z-0.125000
G01 X63.438460 Y40.576030 Z-0.125000
G01 X63.392960 Y40.271230 Z-0.125000
G01 X63.348660 Y40.241330 Z-0.125000
G01 X63.304360 Y40.211530 Z-0.125000
G01 X63.199690 Y40.210920 Z-0.125000
G01 X63.095010 Y40.210320 Z-0.125000
G01 X63.002310 Y40.111620 Z-0.125000
G01 X62.909610 Y40.012920 Z-0.125000
G01 X62.869710 Y39.496520 Z-0.125000
G01 X62.829810 Y38.980120 Z-0.125000
G01 X62.884310 Y38.945620 Z-0.125000
G01 X62.938810 Y38.911120 Z-0.125000
G01 X62.964110 Y38.910520 Z-0.125000
G01 X62.989410 Y38.909910 Z-0.125000
G01 X63.353710 Y39.392950 Z-0.125000
G01 X63.718010 Y39.875990 Z-0.125000
G01 X63.808610 Y40.330970 Z-0.125000
G01 X63.899210 Y40.785930 Z-0.125000
G01 X64.039290 Y41.117930 Z-0.125000
G01 X64.179370 Y41.449920 Z-0.125000
G01 X64.280380 Y41.928080 Z-0.125000
G01 X64.381400 Y42.406250 Z-0.125000
G01 X64.383400 Y42.781520 Z-0.125000
G01 X64.385400 Y43.156800 Z-0.125000
G01 X64.495410 Y43.786720 Z-0.125000
G01 X64.605420 Y44.416640 Z-0.125000
G01 X64.981090 Y44.951440 Z-0.125000
G01 X65.356760 Y45.486240 Z-0.125000
G01 X65.356760 Y45.625390 Z-0.125000
G01 X65.356760 Y45.764540 Z-0.125000
G01 X65.233490 Y45.764540 Z-0.125000
G01 X65.110210 Y45.764540 Z-0.125000
G01 X65.073810 Y45.801840 Z-0.125000
G01 X65.037410 Y45.839140 Z-0.125000
G01 X65.072410 Y46.022010 Z-0.125000
G01 X65.107410 Y46.204890 Z-0.125000
G01 X65.339050 Y46.631620 Z-0.125000
G01 X65.570690 Y47.058340 Z-0.125000
G01 X65.802130 Y47.302180 Z-0.125000
G01 X66.033560 Y47.546020 Z-0.125000
G01 X66.098360 Y47.651530 Z-0.125000
G01 X66.163160 Y47.757030 Z-0.125000
G01 X66.224760 Y48.288370 Z-0.125000
G01 X66.286360 Y48.819710 Z-0.125000
G01 X66.371760 Y48.987090 Z-0.125000
G01 X66.457160 Y49.154480 Z-0.125000
G01 X66.378960 Y49.264650 Z-0.125000
G01 X66.300760 Y49.374820 Z-0.125000
G01 X66.158720 Y49.638980 Z-0.125000
G01 X66.016680 Y49.903140 Z-0.125000
G01 X65.993580 Y50.126660 Z-0.125000
G01 X65.970480 Y50.350180 Z-0.125000
G01 X65.992780 Y50.273180 Z-0.125000
G01 X66.015080 Y50.196180 Z-0.125000
G01 X66.047180 Y50.248080 Z-0.125000
G01 X66.079280 Y50.299980 Z-0.125000
G01 X66.143580 Y50.081250 Z-0.125000
G01 X66.207880 Y49.862520 Z-0.125000
G01 X66.392410 Y49.628840 Z-0.125000
G01 X66.576950 Y49.395160 Z-0.125000
G01 X66.610550 Y49.395160 Z-0.125000
G01 X66.644150 Y49.395160 Z-0.125000
G01 X66.692250 Y49.555680 Z-0.125000
G01 X66.740350 Y49.716200 Z-0.125000
G01 X66.857830 Y49.799900 Z-0.125000
G01 X66.975300 Y49.883500 Z-0.125000
G01 X66.837910 Y50.142400 Z-0.125000
G01 X66.700520 Y50.401300 Z-0.125000
G01 X66.578390 Y50.782560 Z-0.125000
G01 X66.456260 Y51.163820 Z-0.125000
G01 X66.415260 Y51.447890 Z-0.125000
G01 X66.374160 Y51.731970 Z-0.125000
G01 X66.373250 Y52.130920 Z-0.125000
G01 X66.372350 Y52.529870 Z-0.125000
G01 X66.477290 Y52.667460 Z-0.125000
G01 X66.582230 Y52.805040 Z-0.125000
G01 X66.436670 Y52.865840 Z-0.125000
G01 X66.291100 Y52.926640 Z-0.125000
G01 X66.151060 Y53.033450 Z-0.125000
G01 X66.011030 Y53.140260 Z-0.125000
G01 X65.821070 Y52.883130 Z-0.125000
G01 X65.631120 Y52.626000 Z-0.125000
G01 X65.508450 Y52.361840 Z-0.125000
G01 X65.385780 Y52.097680 Z-0.125000
G01 X65.356480 Y52.036680 Z-0.125000
G01 X65.327180 Y51.975780 Z-0.125000
G01 X65.270680 Y51.975780 Z-0.125000
G01 X65.214180 Y51.975780 Z-0.125000
G01 X65.222180 Y52.239940 Z-0.125000
G01 X65.230180 Y52.504100 Z-0.125000
G01 X65.311580 Y52.739480 Z-0.125000
G01 X65.392880 Y52.974860 Z-0.125000
G01 X65.225250 Y52.881760 Z-0.125000
G01 X65.057620 Y52.788660 Z-0.125000
G01 X64.916140 Y52.592690 Z-0.125000
G01 X64.774660 Y52.396730 Z-0.125000
G01 X64.689160 Y52.417830 Z-0.125000
G01 X64.603660 Y52.438930 Z-0.125000
G01 X64.362900 Y52.258230 Z-0.125000
G01 X64.122140 Y52.077530 Z-0.125000
G01 X64.029240 Y52.077530 Z-0.125000
G01 X63.936240 Y52.077530 Z-0.125000
G01 X63.895540 Y51.925130 Z-0.125000
G01 X63.854840 Y51.772730 Z-0.125000
G01 X63.710070 Y51.227600 Z-0.125000
G01 X63.565320 Y50.682470 Z-0.125000
G01 X63.454530 Y50.477180 Z-0.125000
G01 X63.343750 Y50.271890 Z-0.125000
G01 X63.242150 Y50.244090 Z-0.125000
G01 X63.140550 Y50.216290 Z-0.125000
G01 X62.530950 Y50.216890 Z-0.125000
G01 X61.921350 Y50.217500 Z-0.125000
G01 X61.799430 Y50.243200 Z-0.125000
G01 X61.677510 Y50.268900 Z-0.125000
G01 X61.550430 Y50.527060 Z-0.125000
G01 X61.423340 Y50.785230 Z-0.125000
G01 X61.296060 Y51.278910 Z-0.125000
G01 X61.168780 Y51.772580 Z-0.125000
G01 X61.126580 Y51.924990 Z-0.125000
G01 X61.084380 Y52.077390 Z-0.125000
G01 X60.988680 Y52.077390 Z-0.125000
G01 X60.892980 Y52.077390 Z-0.125000
G01 X60.652270 Y52.258330 Z-0.125000
G01 X60.411560 Y52.439280 Z-0.125000
G01 X60.329160 Y52.417780 Z-0.125000
G01 X60.246760 Y52.396280 Z-0.125000
G01 X60.105110 Y52.592470 Z-0.125000
G01 X59.963470 Y52.788660 Z-0.125000
G01 X59.800620 Y52.879060 Z-0.125000
G01 X59.637770 Y52.969560 Z-0.125000
G01 X59.732970 Y52.640830 Z-0.125000
G01 X59.828170 Y52.312090 Z-0.125000
G01 X59.828170 Y52.133820 Z-0.125000
G01 X59.828170 Y51.955540 Z-0.125000
G01 X59.769170 Y51.955540 Z-0.125000
G01 X59.710170 Y51.955540 Z-0.125000
G01 X59.551640 Y52.290820 Z-0.125000
G01 X59.393100 Y52.626100 Z-0.125000
G01 X59.203970 Y52.880590 Z-0.125000
G01 X59.014840 Y53.135070 Z-0.125000
G01 X58.807350 Y52.992350 Z-0.125000
G01 X58.599860 Y52.849620 Z-0.125000
G01 X58.545860 Y52.849620 Z-0.125000
G01 X58.491860 Y52.849620 Z-0.125000
G01 X58.468860 Y52.812420 Z-0.125000
G01 X58.445860 Y52.775220 Z-0.125000
G01 X58.553920 Y52.646800 Z-0.125000
G01 X58.661990 Y52.518370 Z-0.125000
G01 X58.637490 Y51.921570 Z-0.125000
G01 X58.612990 Y51.324780 Z-0.125000
G01 X58.466630 Y50.857990 Z-0.125000
G01 X58.320280 Y50.391200 Z-0.125000
G01 X58.181760 Y50.143500 Z-0.125000
G01 X58.043230 Y49.895790 Z-0.125000
G01 X58.161910 Y49.808090 Z-0.125000
G01 X58.280580 Y49.720390 Z-0.125000
G01 X58.329280 Y49.557840 Z-0.125000
G01 X58.377980 Y49.395290 Z-0.125000
G01 X58.411580 Y49.395290 Z-0.125000
G01 X58.445180 Y49.395290 Z-0.125000
G01 X58.629550 Y49.628970 Z-0.125000
G01 X58.813920 Y49.862660 Z-0.125000
G01 X58.890520 Y50.106500 Z-0.125000
G01 X58.967120 Y50.350330 Z-0.125000
G01 X58.974120 Y50.269030 Z-0.125000
G01 X58.981120 Y50.187730 Z-0.125000
G01 X59.019520 Y50.269030 Z-0.125000
G01 X59.057920 Y50.350330 Z-0.125000
G01 X59.034820 Y50.131230 Z-0.125000
G01 X59.011720 Y49.912130 Z-0.125000
G01 X58.866920 Y49.643550 Z-0.125000
G01 X58.722120 Y49.374970 Z-0.125000
G01 X58.643920 Y49.264800 Z-0.125000
G01 X58.565720 Y49.154630 Z-0.125000
G01 X58.651920 Y48.985740 Z-0.125000
G01 X58.738120 Y48.816840 Z-0.125000
G01 X58.792920 Y48.323740 Z-0.125000
G01 X58.847620 Y47.830650 Z-0.125000
G01 X58.892020 Y47.714090 Z-0.125000
G01 X58.936420 Y47.597530 Z-0.125000
G01 X59.195180 Y47.328010 Z-0.125000
G01 X59.453940 Y47.058490 Z-0.125000
G01 X59.697700 Y46.591130 Z-0.125000
G01 X59.941460 Y46.123770 Z-0.125000
G01 X59.964160 Y45.969500 Z-0.125000
G01 X59.986860 Y45.815240 Z-0.125000
G01 X59.887860 Y45.777640 Z-0.125000
G01 X59.788860 Y45.740040 Z-0.125000
G01 X59.727560 Y45.763540 Z-0.125000
G01 X59.666260 Y45.787040 Z-0.125000
G01 X59.666260 Y45.636760 Z-0.125000
G01 X59.666260 Y45.486490 Z-0.125000
G01 X60.041930 Y44.951700 Z-0.125000
G01 X60.417600 Y44.416900 Z-0.125000
G01 X60.527610 Y43.786970 Z-0.125000
G01 X60.637620 Y43.157050 Z-0.125000
G01 X60.639620 Y42.781280 Z-0.125000
G01 X60.641620 Y42.405510 Z-0.125000
G01 X60.741680 Y41.933080 Z-0.125000
G01 X60.841740 Y41.460640 Z-0.125000
G01 X60.985050 Y41.109970 Z-0.125000
G01 X61.128360 Y40.759290 Z-0.125000
G01 X61.225460 Y40.300830 Z-0.125000
G01 X61.322660 Y39.842380 Z-0.125000
G01 X61.678030 Y39.376270 Z-0.125000
G01 X62.033400 Y38.910160 Z-0.125000
G01 X62.058900 Y38.910770 Z-0.125000
G01 X62.084400 Y38.911380 Z-0.125000
G01 X62.138000 Y38.945380 Z-0.125000
G01 X62.138260 Y38.945170 Z-0.125000
G00 Z5.000000

(End cutting path id: path220320)


(Start cutting path id: path220320)
(Change tool to Default tool)

G00 Z5.000000
G00 X61.613560 Y39.266860

G01 Z-0.125000 F100.0(Penetrate)
G01 X61.223740 Y39.783700 Z-0.125000 F400.000000
G01 X61.114250 Y40.276460 Z-0.125000
G01 X61.004760 Y40.769220 Z-0.125000
G01 X60.865710 Y41.103920 Z-0.125000
G01 X60.726650 Y41.438630 Z-0.125000
G01 X60.623340 Y41.948620 Z-0.125000
G01 X60.520020 Y42.458610 Z-0.125000
G01 X60.520020 Y42.802190 Z-0.125000
G01 X60.520020 Y43.145770 Z-0.125000
G01 X60.416040 Y43.760190 Z-0.125000
G01 X60.312060 Y44.374610 Z-0.125000
G01 X60.202680 Y44.516710 Z-0.125000
G01 X60.093300 Y44.658810 Z-0.125000
G01 X59.951060 Y44.866990 Z-0.125000
G01 X59.808820 Y45.075160 Z-0.125000
G01 X59.699460 Y45.233590 Z-0.125000
G01 X59.590110 Y45.392040 Z-0.125000
G01 X59.561410 Y45.652180 Z-0.125000
G01 X59.532710 Y45.912320 Z-0.125000
G01 X59.704670 Y45.884820 Z-0.125000
G01 X59.876630 Y45.857320 Z-0.125000
G01 X59.848030 Y45.990430 Z-0.125000
G01 X59.819430 Y46.123540 Z-0.125000
G01 X59.574280 Y46.579720 Z-0.125000
G01 X59.329120 Y47.035900 Z-0.125000
G01 X59.110100 Y47.244940 Z-0.125000
G01 X58.891070 Y47.453980 Z-0.125000
G01 X58.816470 Y47.601560 Z-0.125000
G01 X58.741870 Y47.749150 Z-0.125000
G01 X58.692270 Y48.235850 Z-0.125000
G01 X58.642670 Y48.722550 Z-0.125000
G01 X58.569470 Y48.866080 Z-0.125000
G01 X58.496270 Y49.009610 Z-0.125000
G01 X58.482370 Y49.115410 Z-0.125000
G01 X58.468470 Y49.221210 Z-0.125000
G01 X58.526970 Y49.298010 Z-0.125000
G01 X58.585470 Y49.374810 Z-0.125000
G01 X58.528470 Y49.324010 Z-0.125000
G01 X58.471470 Y49.273210 Z-0.125000
G01 X58.384470 Y49.273210 Z-0.125000
G01 X58.297470 Y49.273210 Z-0.125000
G01 X58.247170 Y49.445930 Z-0.125000
G01 X58.196870 Y49.618650 Z-0.125000
G01 X58.055040 Y49.740570 Z-0.125000
G01 X57.913210 Y49.862490 Z-0.125000
G01 X58.075130 Y50.187610 Z-0.125000
G01 X58.237050 Y50.512730 Z-0.125000
G01 X58.358480 Y50.878490 Z-0.125000
G01 X58.479900 Y51.244250 Z-0.125000
G01 X58.511500 Y51.549050 Z-0.125000
G01 X58.543100 Y51.853850 Z-0.125000
G01 X58.534100 Y52.174330 Z-0.125000
G01 X58.525100 Y52.494800 Z-0.125000
G01 X58.425600 Y52.625210 Z-0.125000
G01 X58.326100 Y52.755610 Z-0.125000
G01 X58.326100 Y52.817910 Z-0.125000
G01 X58.326100 Y52.880210 Z-0.125000
G01 X58.519190 Y52.963310 Z-0.125000
G01 X58.712280 Y53.046410 Z-0.125000
G01 X58.810780 Y53.151230 Z-0.125000
G01 X58.909280 Y53.256050 Z-0.125000
G01 X58.973280 Y53.255050 Z-0.125000
G01 X59.037280 Y53.254050 Z-0.125000
G01 X59.100380 Y53.204550 Z-0.125000
G01 X59.163480 Y53.155050 Z-0.125000
G01 X59.302810 Y52.951850 Z-0.125000
G01 X59.442140 Y52.748650 Z-0.125000
G01 X59.577020 Y52.504810 Z-0.125000
G01 X59.711890 Y52.260970 Z-0.125000
G01 X59.686190 Y52.403210 Z-0.125000
G01 X59.660490 Y52.545450 Z-0.125000
G01 X59.582490 Y52.760330 Z-0.125000
G01 X59.504490 Y52.975220 Z-0.125000
G01 X59.504490 Y53.054520 Z-0.125000
G01 X59.504490 Y53.133820 Z-0.125000
G01 X59.606090 Y53.125820 Z-0.125000
G01 X59.707690 Y53.117820 Z-0.125000
G01 X59.758490 Y53.069320 Z-0.125000
G01 X59.890830 Y52.983620 Z-0.125000
G01 X60.058330 Y52.882790 Z-0.125000
G01 X60.168640 Y52.708430 Z-0.125000
G01 X60.278950 Y52.534080 Z-0.125000
G01 X60.356850 Y52.554480 Z-0.125000
G01 X60.434750 Y52.574880 Z-0.125000
G01 X60.677800 Y52.387860 Z-0.125000
G01 X60.920840 Y52.200840 Z-0.125000
G01 X61.044280 Y52.200840 Z-0.125000
G01 X61.167720 Y52.200840 Z-0.125000
G01 X61.212120 Y52.028120 Z-0.125000
G01 X61.256520 Y51.855400 Z-0.125000
G01 X61.319620 Y51.631880 Z-0.125000
G01 X61.382820 Y51.408360 Z-0.125000
G01 X61.462820 Y51.103560 Z-0.125000
G01 X61.542820 Y50.798760 Z-0.125000
G01 X61.644540 Y50.595970 Z-0.125000
G01 X61.746260 Y50.393170 Z-0.125000
G01 X61.793860 Y50.362870 Z-0.125000
G01 X61.841460 Y50.332570 Z-0.125000
G01 X62.471380 Y50.332490 Z-0.125000
G01 X63.101300 Y50.332410 Z-0.125000
G01 X63.197600 Y50.358210 Z-0.125000
G01 X63.293900 Y50.384010 Z-0.125000
G01 X63.388900 Y50.598900 Z-0.125000
G01 X63.483900 Y50.813810 Z-0.125000
G01 X63.610230 Y51.293930 Z-0.125000
G01 X63.736560 Y51.774040 Z-0.125000
G01 X63.797660 Y51.987410 Z-0.125000
G01 X63.858760 Y52.200770 Z-0.125000
G01 X63.988240 Y52.200770 Z-0.125000
G01 X64.117730 Y52.200770 Z-0.125000
G01 X64.340960 Y52.385460 Z-0.125000
G01 X64.564190 Y52.570160 Z-0.125000
G01 X64.649390 Y52.554860 Z-0.125000
G01 X64.734590 Y52.539560 Z-0.125000
G01 X64.828690 Y52.676850 Z-0.125000
G01 X64.922790 Y52.814140 Z-0.125000
G01 X65.048170 Y52.903740 Z-0.125000
G01 X65.173550 Y52.993340 Z-0.125000
G01 X65.305660 Y53.064440 Z-0.125000
G01 X65.437760 Y53.135540 Z-0.125000
G01 X65.478560 Y53.135540 Z-0.125000
G01 X65.519360 Y53.135540 Z-0.125000
G01 X65.518760 Y53.064440 Z-0.125000
G01 X65.518150 Y52.993340 Z-0.125000
G01 X65.417070 Y52.676830 Z-0.125000
G01 X65.315990 Y52.360320 Z-0.125000
G01 X65.317990 Y52.311120 Z-0.125000
G01 X65.319990 Y52.261820 Z-0.125000
G01 X65.457930 Y52.525980 Z-0.125000
G01 X65.595870 Y52.790150 Z-0.125000
G01 X65.750570 Y52.989650 Z-0.125000
G01 X65.905270 Y53.189150 Z-0.125000
G01 X65.972670 Y53.230950 Z-0.125000
G01 X66.040070 Y53.272750 Z-0.125000
G01 X66.196150 Y53.153430 Z-0.125000
G01 X66.352240 Y53.034110 Z-0.125000
G01 X66.545270 Y52.944510 Z-0.125000
G01 X66.738310 Y52.854910 Z-0.125000
G01 X66.738310 Y52.830310 Z-0.125000
G01 X66.738310 Y52.805710 Z-0.125000
G01 X66.615370 Y52.652710 Z-0.125000
G01 X66.492420 Y52.499720 Z-0.125000
G01 X66.490420 Y52.096290 Z-0.125000
G01 X66.488420 Y51.692870 Z-0.125000
G01 X66.532020 Y51.408390 Z-0.125000
G01 X66.575620 Y51.123910 Z-0.125000
G01 X66.679040 Y50.819110 Z-0.125000
G01 X66.782450 Y50.514310 Z-0.125000
G01 X66.923420 Y50.244210 Z-0.125000
G01 X67.064380 Y49.974100 Z-0.125000
G01 X67.064380 Y49.889800 Z-0.125000
G01 X67.064380 Y49.805500 Z-0.125000
G01 X66.947730 Y49.719300 Z-0.125000
G01 X66.831080 Y49.633000 Z-0.125000
G01 X66.778080 Y49.464030 Z-0.125000
G01 X66.725080 Y49.295060 Z-0.125000
G01 X66.693580 Y49.258560 Z-0.125000
G01 X66.662080 Y49.222060 Z-0.125000
G01 X66.552920 Y49.293560 Z-0.125000
G01 X66.443760 Y49.365060 Z-0.125000
G01 X66.506360 Y49.275660 Z-0.125000
G01 X66.568960 Y49.186360 Z-0.125000
G01 X66.533560 Y49.063000 Z-0.125000
G01 X66.498160 Y48.939630 Z-0.125000
G01 X66.442360 Y48.853130 Z-0.125000
G01 X66.386560 Y48.766730 Z-0.125000
G01 X66.334960 Y48.258720 Z-0.125000
G01 X66.283360 Y47.750720 Z-0.125000
G01 X66.196360 Y47.591410 Z-0.125000
G01 X66.109360 Y47.432100 Z-0.125000
G01 X65.915170 Y47.249490 Z-0.125000
G01 X65.720970 Y47.066880 Z-0.125000
G01 X65.524980 Y46.717920 Z-0.125000
G01 X65.328990 Y46.368960 Z-0.125000
G01 X65.265190 Y46.226720 Z-0.125000
G01 X65.201390 Y46.084480 Z-0.125000
G01 X65.176190 Y45.996480 Z-0.125000
G01 X65.150990 Y45.908480 Z-0.125000
G01 X65.192490 Y45.882880 Z-0.125000
G01 X65.233990 Y45.857280 Z-0.125000
G01 X65.308190 Y45.896980 Z-0.125000
G01 X65.382290 Y45.936680 Z-0.125000
G01 X65.436190 Y45.903380 Z-0.125000
G01 X65.490090 Y45.870080 Z-0.125000
G01 X65.460390 Y45.632690 Z-0.125000
G01 X65.430690 Y45.395290 Z-0.125000
G01 X65.124520 Y44.947450 Z-0.125000
G01 X64.818360 Y44.499600 Z-0.125000
G01 X64.765260 Y44.438100 Z-0.125000
G01 X64.712160 Y44.376600 Z-0.125000
G01 X64.608150 Y43.762010 Z-0.125000
G01 X64.504130 Y43.147410 Z-0.125000
G01 X64.504130 Y42.794750 Z-0.125000
G01 X64.504130 Y42.442100 Z-0.125000
G01 X64.402730 Y41.946840 Z-0.125000
G01 X64.301330 Y41.451590 Z-0.125000
G01 X64.236230 Y41.289030 Z-0.125000
G01 X64.171230 Y41.126470 Z-0.125000
G01 X64.098230 Y40.961620 Z-0.125000
G01 X64.025230 Y40.796780 Z-0.125000
G01 X63.913080 Y40.292520 Z-0.125000
G01 X63.800940 Y39.788270 Z-0.125000
G01 X63.411450 Y39.268650 Z-0.125000
G01 X63.021960 Y38.749050 Z-0.125000
G01 X62.980360 Y38.749050 Z-0.125000
G01 X62.938760 Y38.749050 Z-0.125000
G01 X62.825450 Y38.854120 Z-0.125000
G01 X62.712130 Y38.959190 Z-0.125000
G01 X62.732930 Y39.128440 Z-0.125000
G01 X62.753730 Y39.297690 Z-0.125000
G01 X62.778730 Y39.683770 Z-0.125000
G01 X62.803730 Y40.069850 Z-0.125000
G01 X62.930450 Y40.201930 Z-0.125000
G01 X63.057180 Y40.334010 Z-0.125000
G01 X63.167750 Y40.334010 Z-0.125000
G01 X63.278340 Y40.334010 Z-0.125000
G01 X63.323840 Y40.545990 Z-0.125000
G01 X63.369340 Y40.757970 Z-0.125000
G01 X63.390840 Y41.206390 Z-0.125000
G01 X63.412340 Y41.654810 Z-0.125000
G01 X63.495640 Y41.979620 Z-0.125000
G01 X63.578940 Y42.304430 Z-0.125000
G01 X63.560440 Y42.609540 Z-0.125000
G01 X63.541940 Y42.914660 Z-0.125000
G01 X63.448640 Y43.129250 Z-0.125000
G01 X63.355340 Y43.343850 Z-0.125000
G01 X63.338740 Y43.327250 Z-0.125000
G01 X63.322140 Y43.310650 Z-0.125000
G01 X63.369340 Y43.123240 Z-0.125000
G01 X63.416540 Y42.935830 Z-0.125000
G01 X63.330540 Y42.609240 Z-0.125000
G01 X63.244540 Y42.282640 Z-0.125000
G01 X63.244540 Y42.263340 Z-0.125000
G01 X63.244540 Y42.244040 Z-0.125000
G01 X63.183740 Y42.244040 Z-0.125000
G01 X63.122940 Y42.244040 Z-0.125000
G01 X63.065140 Y42.376120 Z-0.125000
G01 X63.007340 Y42.508200 Z-0.125000
G01 X63.004340 Y42.353130 Z-0.125000
G01 X63.001340 Y42.198060 Z-0.125000
G01 X62.952140 Y42.109260 Z-0.125000
G01 X62.902940 Y42.020460 Z-0.125000
G01 X62.874440 Y41.410860 Z-0.125000
G01 X62.845940 Y40.801260 Z-0.125000
G01 X62.817440 Y40.671780 Z-0.125000
G01 X62.788940 Y40.542290 Z-0.125000
G01 X62.737240 Y40.522490 Z-0.125000
G01 X62.685540 Y40.502690 Z-0.125000
G01 X62.615840 Y40.789510 Z-0.125000
G01 X62.546140 Y41.076340 Z-0.125000
G01 X62.560340 Y42.063150 Z-0.125000
G01 X62.574540 Y43.049970 Z-0.125000
G01 X62.544040 Y43.080470 Z-0.125000
G01 X62.513540 Y43.110970 Z-0.125000
G01 X62.483040 Y43.080470 Z-0.125000
G01 X62.452540 Y43.049970 Z-0.125000
G01 X62.466240 Y42.078180 Z-0.125000
G01 X62.479940 Y41.106390 Z-0.125000
G01 X62.408040 Y40.801410 Z-0.125000
G01 X62.336140 Y40.496420 Z-0.125000
G01 X62.289640 Y40.496420 Z-0.125000
G01 X62.243140 Y40.496420 Z-0.125000
G01 X62.195240 Y40.811390 Z-0.125000
G01 X62.147340 Y41.126350 Z-0.125000
G01 X62.147620 Y41.519940 Z-0.125000
G01 X62.147900 Y41.913540 Z-0.125000
G01 X62.103900 Y42.027940 Z-0.125000
G01 X62.059900 Y42.142350 Z-0.125000
G01 X62.029300 Y42.304910 Z-0.125000
G01 X61.998600 Y42.467470 Z-0.125000
G01 X61.944800 Y42.355710 Z-0.125000
G01 X61.891000 Y42.243950 Z-0.125000
G01 X61.842700 Y42.243950 Z-0.125000
G01 X61.794400 Y42.243950 Z-0.125000
G01 X61.704800 Y42.583120 Z-0.125000
G01 X61.615200 Y42.922290 Z-0.125000
G01 X61.663200 Y43.113000 Z-0.125000
G01 X61.711200 Y43.303700 Z-0.125000
G01 X61.691200 Y43.323700 Z-0.125000
G01 X61.671200 Y43.343700 Z-0.125000
G01 X61.578200 Y43.129100 Z-0.125000
G01 X61.485200 Y42.914510 Z-0.125000
G01 X61.465900 Y42.622430 Z-0.125000
G01 X61.446600 Y42.330340 Z-0.125000
G01 X61.530600 Y41.972190 Z-0.125000
G01 X61.614600 Y41.614030 Z-0.125000
G01 X61.636700 Y41.182470 Z-0.125000
G01 X61.658800 Y40.750910 Z-0.125000
G01 X61.703500 Y40.542390 Z-0.125000
G01 X61.748200 Y40.333870 Z-0.125000
G01 X61.858780 Y40.333870 Z-0.125000
G01 X61.969360 Y40.333870 Z-0.125000
G01 X62.095370 Y40.201780 Z-0.125000
G01 X62.221370 Y40.069700 Z-0.125000
G01 X62.262470 Y39.521060 Z-0.125000
G01 X62.303570 Y38.972420 Z-0.125000
G01 X62.197790 Y38.860660 Z-0.125000
G01 X62.092020 Y38.748900 Z-0.125000
G01 X62.048820 Y38.749900 Z-0.125000
G01 X62.005620 Y38.750900 Z-0.125000
G01 X61.615800 Y39.267740 Z-0.125000
G01 X61.613560 Y39.266860 Z-0.125000
G00 Z5.000000

(End cutting path id: path220320)


(Start cutting path id: path220320)
(Change tool to Default tool)

G00 Z5.000000
G00 X60.614940 Y39.540400

G01 Z-0.125000 F100.0(Penetrate)
G01 X60.161220 Y39.635300 Z-0.125000 F400.000000
G01 X59.842780 Y39.723900 Z-0.125000
G01 X59.524340 Y39.812500 Z-0.125000
G01 X59.031040 Y40.008810 Z-0.125000
G01 X58.537740 Y40.205130 Z-0.125000
G01 X58.157280 Y40.395950 Z-0.125000
G01 X57.776820 Y40.586780 Z-0.125000
G01 X57.268820 Y40.919770 Z-0.125000
G01 X56.760810 Y41.252770 Z-0.125000
G01 X56.456010 Y41.498980 Z-0.125000
G01 X56.151210 Y41.745190 Z-0.125000
G01 X55.750210 Y42.146250 Z-0.125000
G01 X55.349210 Y42.547310 Z-0.125000
G01 X55.037460 Y42.934210 Z-0.125000
G01 X54.725720 Y43.321100 Z-0.125000
G01 X54.445430 Y43.747010 Z-0.125000
G01 X54.165150 Y44.172910 Z-0.125000
G01 X53.872100 Y44.782510 Z-0.125000
G01 X53.579060 Y45.392120 Z-0.125000
G01 X53.433640 Y45.829200 Z-0.125000
G01 X53.288210 Y46.266280 Z-0.125000
G01 X53.225310 Y46.509050 Z-0.125000
G01 X53.162410 Y46.751810 Z-0.125000
G01 X53.119910 Y46.966050 Z-0.125000
G01 X53.077410 Y47.180280 Z-0.125000
G01 X53.017010 Y47.546040 Z-0.125000
G01 X52.956610 Y47.911800 Z-0.125000
G01 X52.932910 Y48.645840 Z-0.125000
G01 X52.909210 Y49.379870 Z-0.125000
G01 X52.938610 Y49.654050 Z-0.125000
G01 X52.968010 Y49.928230 Z-0.125000
G01 X53.050610 Y49.915630 Z-0.125000
G01 X53.133210 Y49.903130 Z-0.125000
G01 X53.127210 Y49.049690 Z-0.125000
G01 X53.121210 Y48.196250 Z-0.125000
G01 X53.186210 Y47.728890 Z-0.125000
G01 X53.251210 Y47.261530 Z-0.125000
G01 X53.313710 Y46.977040 Z-0.125000
G01 X53.376110 Y46.692570 Z-0.125000
G01 X53.479490 Y46.326810 Z-0.125000
G01 X53.582880 Y45.961040 Z-0.125000
G01 X53.780890 Y45.466140 Z-0.125000
G01 X53.978910 Y44.971240 Z-0.125000
G01 X54.166210 Y44.612700 Z-0.125000
G01 X54.353510 Y44.254160 Z-0.125000
G01 X54.660680 Y43.786800 Z-0.125000
G01 X54.967850 Y43.319440 Z-0.125000
G01 X55.252210 Y42.974000 Z-0.125000
G01 X55.536560 Y42.628560 Z-0.125000
G01 X55.869740 Y42.299600 Z-0.125000
G01 X56.202910 Y41.970650 Z-0.125000
G01 X56.543290 Y41.684430 Z-0.125000
G01 X56.883660 Y41.398210 Z-0.125000
G01 X57.391660 Y41.067300 Z-0.125000
G01 X57.899660 Y40.736390 Z-0.125000
G01 X58.346700 Y40.518420 Z-0.125000
G01 X58.793740 Y40.300450 Z-0.125000
G01 X59.184240 Y40.155350 Z-0.125000
G01 X59.574740 Y40.010250 Z-0.125000
G01 X59.936080 Y39.905270 Z-0.125000
G01 X60.297430 Y39.800290 Z-0.125000
G01 X60.744470 Y39.714390 Z-0.125000
G01 X61.191510 Y39.628590 Z-0.125000
G01 X61.247110 Y39.577990 Z-0.125000
G01 X61.302710 Y39.527390 Z-0.125000
G01 X61.275210 Y39.482890 Z-0.125000
G01 X61.247710 Y39.438390 Z-0.125000
G01 X61.158710 Y39.442390 Z-0.125000
G01 X61.069710 Y39.446390 Z-0.125000
G01 X60.615990 Y39.541290 Z-0.125000
G01 X60.614940 Y39.540400 Z-0.125000
G00 Z5.000000

(End cutting path id: path220320)


(Start cutting path id: path220320)
(Change tool to Default tool)

G00 Z5.000000
G00 X59.971380 Y41.242230

G01 Z-0.125000 F100.0(Penetrate)
G01 X59.443060 Y41.416200 Z-0.125000 F400.000000
G01 X59.090390 Y41.584510 Z-0.125000
G01 X58.737710 Y41.752820 Z-0.125000
G01 X58.379190 Y41.963290 Z-0.125000
G01 X58.020660 Y42.173770 Z-0.125000
G01 X57.634580 Y42.461850 Z-0.125000
G01 X57.248500 Y42.749930 Z-0.125000
G01 X56.779070 Y43.217570 Z-0.125000
G01 X56.309650 Y43.685200 Z-0.125000
G01 X56.025970 Y44.071290 Z-0.125000
G01 X55.742300 Y44.457370 Z-0.125000
G01 X55.566920 Y44.736890 Z-0.125000
G01 X55.391550 Y45.016400 Z-0.125000
G01 X55.188220 Y45.448090 Z-0.125000
G01 X54.984890 Y45.879770 Z-0.125000
G01 X54.869480 Y46.204890 Z-0.125000
G01 X54.754080 Y46.530010 Z-0.125000
G01 X54.652350 Y46.921650 Z-0.125000
G01 X54.550630 Y47.313300 Z-0.125000
G01 X54.489430 Y47.734460 Z-0.125000
G01 X54.428230 Y48.155610 Z-0.125000
G01 X54.400630 Y48.587690 Z-0.125000
G01 X54.373030 Y49.019770 Z-0.125000
G01 X54.402230 Y49.331720 Z-0.125000
G01 X54.431430 Y49.643660 Z-0.125000
G01 X54.513630 Y49.631160 Z-0.125000
G01 X54.595830 Y49.618660 Z-0.125000
G01 X54.589830 Y49.070020 Z-0.125000
G01 X54.583830 Y48.521380 Z-0.125000
G01 X54.628730 Y48.114980 Z-0.125000
G01 X54.673630 Y47.708570 Z-0.125000
G01 X54.755130 Y47.322500 Z-0.125000
G01 X54.836630 Y46.936410 Z-0.125000
G01 X54.933930 Y46.631610 Z-0.125000
G01 X55.031230 Y46.326810 Z-0.125000
G01 X55.095830 Y46.143930 Z-0.125000
G01 X55.160430 Y45.961050 Z-0.125000
G01 X55.377960 Y45.506460 Z-0.125000
G01 X55.595490 Y45.051870 Z-0.125000
G01 X55.787590 Y44.754620 Z-0.125000
G01 X55.979700 Y44.457370 Z-0.125000
G01 X56.207640 Y44.152570 Z-0.125000
G01 X56.435580 Y43.847770 Z-0.125000
G01 X56.781190 Y43.487400 Z-0.125000
G01 X57.126800 Y43.127030 Z-0.125000
G01 X57.431610 Y42.873800 Z-0.125000
G01 X57.736410 Y42.620570 Z-0.125000
G01 X58.069460 Y42.392220 Z-0.125000
G01 X58.402510 Y42.163860 Z-0.125000
G01 X58.861940 Y41.922580 Z-0.125000
G01 X59.321370 Y41.681290 Z-0.125000
G01 X59.768410 Y41.517880 Z-0.125000
G01 X60.215450 Y41.354470 Z-0.125000
G01 X60.449130 Y41.289370 Z-0.125000
G01 X60.682810 Y41.224270 Z-0.125000
G01 X60.682810 Y41.144170 Z-0.125000
G01 X60.682810 Y41.063970 Z-0.125000
G01 X60.591410 Y41.065970 Z-0.125000
G01 X60.500010 Y41.067970 Z-0.125000
G01 X59.971690 Y41.241940 Z-0.125000
G01 X59.971380 Y41.242230 Z-0.125000
G00 Z5.000000

(End cutting path id: path220320)


(Start cutting path id: path220320)
(Change tool to Default tool)

G00 Z5.000000
G00 X68.891880 Y49.969840

G01 Z-0.125000 F100.0(Penetrate)
G01 X68.383880 Y50.172300 Z-0.125000 F400.000000
G01 X68.349280 Y50.206500 Z-0.125000
G01 X68.314680 Y50.240700 Z-0.125000
G01 X67.949900 Y50.140700 Z-0.125000
G01 X67.585120 Y50.040700 Z-0.125000
G01 X67.460220 Y50.053200 Z-0.125000
G01 X67.335330 Y50.065700 Z-0.125000
G01 X67.260830 Y50.167300 Z-0.125000
G01 X67.186330 Y50.268910 Z-0.125000
G01 X67.001810 Y50.715940 Z-0.125000
G01 X66.817290 Y51.162980 Z-0.125000
G01 X66.757490 Y51.528750 Z-0.125000
G01 X66.697690 Y51.894510 Z-0.125000
G01 X66.697530 Y52.172150 Z-0.125000
G01 X66.697370 Y52.449790 Z-0.125000
G01 X66.840560 Y52.624530 Z-0.125000
G01 X66.983740 Y52.799280 Z-0.125000
G01 X67.456540 Y53.072980 Z-0.125000
G01 X67.929330 Y53.346680 Z-0.125000
G01 X68.075350 Y53.365980 Z-0.125000
G01 X68.221370 Y53.385280 Z-0.125000
G01 X68.910690 Y53.198690 Z-0.125000
G01 X69.600000 Y53.012090 Z-0.125000
G01 X69.682900 Y53.013090 Z-0.125000
G01 X69.765700 Y53.014090 Z-0.125000
G01 X69.844600 Y53.073790 Z-0.125000
G01 X69.923500 Y53.133490 Z-0.125000
G01 X71.371860 Y53.133490 Z-0.125000
G01 X72.820230 Y53.133490 Z-0.125000
G01 X74.639940 Y53.335490 Z-0.125000
G01 X76.459650 Y53.537500 Z-0.125000
G01 X76.575240 Y53.477700 Z-0.125000
G01 X76.690820 Y53.417900 Z-0.125000
G01 X76.713120 Y53.417900 Z-0.125000
G01 X76.735420 Y53.417900 Z-0.125000
G01 X76.735420 Y53.478900 Z-0.125000
G01 X76.735420 Y53.539900 Z-0.125000
G01 X76.769120 Y53.539900 Z-0.125000
G01 X76.802820 Y53.539900 Z-0.125000
G01 X76.997400 Y53.668790 Z-0.125000
G01 X77.191980 Y53.797670 Z-0.125000
G01 X77.362260 Y54.065030 Z-0.125000
G01 X77.532530 Y54.332390 Z-0.125000
G01 X77.629330 Y54.593510 Z-0.125000
G01 X77.726130 Y54.854640 Z-0.125000
G01 X77.725520 Y55.101520 Z-0.125000
G01 X77.724920 Y55.348390 Z-0.125000
G01 X77.651220 Y55.490630 Z-0.125000
G01 X77.577520 Y55.632870 Z-0.125000
G01 X77.380050 Y55.870100 Z-0.125000
G01 X77.182580 Y56.107340 Z-0.125000
G01 X77.182580 Y56.164740 Z-0.125000
G01 X77.182580 Y56.222140 Z-0.125000
G01 X77.234280 Y56.222140 Z-0.125000
G01 X77.285880 Y56.222140 Z-0.125000
G01 X77.610150 Y56.035190 Z-0.125000
G01 X77.934420 Y55.848240 Z-0.125000
G01 X78.046450 Y55.720230 Z-0.125000
G01 X78.158480 Y55.592220 Z-0.125000
G01 X78.317360 Y55.307740 Z-0.125000
G01 X78.476230 Y55.023260 Z-0.125000
G01 X78.520330 Y54.782110 Z-0.125000
G01 X78.564430 Y54.540970 Z-0.125000
G01 X78.564430 Y54.223050 Z-0.125000
G01 X78.564430 Y53.905120 Z-0.125000
G01 X78.502030 Y53.489670 Z-0.125000
G01 X78.439630 Y53.074230 Z-0.125000
G01 X78.299820 Y52.656420 Z-0.125000
G01 X78.160020 Y52.238620 Z-0.125000
G01 X78.016120 Y52.013670 Z-0.125000
G01 X77.872220 Y51.788730 Z-0.125000
G01 X77.726110 Y51.660440 Z-0.125000
G01 X77.579990 Y51.532150 Z-0.125000
G01 X77.490790 Y51.485850 Z-0.125000
G01 X77.401590 Y51.439550 Z-0.125000
G01 X77.119370 Y51.276020 Z-0.125000
G01 X76.837140 Y51.112480 Z-0.125000
G01 X76.613620 Y51.067880 Z-0.125000
G01 X76.390100 Y51.023280 Z-0.125000
G01 X75.719540 Y50.877890 Z-0.125000
G01 X75.048980 Y50.732500 Z-0.125000
G01 X74.317460 Y50.573020 Z-0.125000
G01 X73.585940 Y50.413550 Z-0.125000
G01 X72.549610 Y50.190330 Z-0.125000
G01 X71.513290 Y49.967120 Z-0.125000
G01 X71.032520 Y49.863720 Z-0.125000
G01 X70.551750 Y49.760320 Z-0.125000
G01 X69.975880 Y49.763320 Z-0.125000
G01 X69.400010 Y49.766320 Z-0.125000
G01 X68.892010 Y49.968780 Z-0.125000
G01 X68.891880 Y49.969840 Z-0.125000
G00 Z5.000000

(End cutting path id: path220320)


(Start cutting path id: path220320)
(Change tool to Default tool)

G00 Z5.000000
G00 X69.211610 Y53.225490

G01 Z-0.125000 F100.0(Penetrate)
G01 X69.150010 Y53.276290 Z-0.125000 F400.000000
G01 X68.909160 Y53.617880 Z-0.125000
G01 X68.668320 Y53.959460 Z-0.125000
G01 X68.261920 Y54.386950 Z-0.125000
G01 X67.855520 Y54.814430 Z-0.125000
G01 X67.449110 Y55.139020 Z-0.125000
G01 X67.042710 Y55.463610 Z-0.125000
G01 X66.851230 Y55.581520 Z-0.125000
G01 X66.659750 Y55.699430 Z-0.125000
G03 X66.636256 Y55.715910 Z-0.125000 I-4.715484 J-6.697586
G03 X66.618068 Y55.728575 Z-0.125000 I-3.801977 J-5.440489
G03 X66.599860 Y55.741160 Z-0.125000 I-3.489112 J-5.028469
G03 X66.585886 Y55.750751 Z-0.125000 I-3.226301 J-4.685800
G03 X66.571908 Y55.760285 Z-0.125000 I-3.381364 J-4.942468
G03 X66.561087 Y55.767634 Z-0.125000 I-6.094301 J-8.962143
G03 X66.550282 Y55.774961 Z-0.125000 I-72.870502 J-107.440418
G02 X66.541554 Y55.780899 Z-0.125000 I2.007638 J2.960705
G02 X66.532865 Y55.786861 Z-0.125000 I1.153342 J1.690098
G02 X66.525170 Y55.792221 Z-0.125000 I0.601103 J0.871181
G02 X66.517534 Y55.797652 Z-0.125000 I0.502554 J0.714723
G02 X66.509820 Y55.803275 Z-0.125000 I0.440923 J0.612994
G02 X66.502169 Y55.808999 Z-0.125000 I0.460290 J0.623147
G02 X66.493385 Y55.815736 Z-0.125000 I0.582543 J0.768634
G02 X66.484656 Y55.822578 Z-0.125000 I0.707625 J0.911741
G02 X66.473750 Y55.831280 Z-0.125000 I1.134199 J1.432720
G01 X65.945430 Y56.083390 Z-0.125000
G01 X65.417110 Y56.335510 Z-0.125000
G01 X65.047400 Y56.458560 Z-0.125000
G01 X64.677680 Y56.581620 Z-0.125000
G01 X64.214280 Y56.684680 Z-0.125000
G01 X63.750870 Y56.787740 Z-0.125000
G01 X63.303830 Y56.835540 Z-0.125000
G01 X62.856790 Y56.883340 Z-0.125000
G01 X62.226870 Y56.859840 Z-0.125000
G01 X61.596950 Y56.836340 Z-0.125000
G01 X61.231180 Y56.770940 Z-0.125000
G01 X60.865420 Y56.705540 Z-0.125000
G01 X60.540300 Y56.625440 Z-0.125000
G01 X60.215180 Y56.545340 Z-0.125000
G01 X59.971340 Y56.459340 Z-0.125000
G01 X59.727500 Y56.373340 Z-0.125000
G01 X59.382060 Y56.228250 Z-0.125000
G01 X59.036620 Y56.083170 Z-0.125000
G01 X58.711500 Y55.904680 Z-0.125000
G01 X58.386380 Y55.726200 Z-0.125000
G01 X58.142540 Y55.562650 Z-0.125000
G01 X57.898700 Y55.399100 Z-0.125000
G01 X57.527450 Y55.099550 Z-0.125000
G01 X57.156210 Y54.800000 Z-0.125000
G01 X56.795930 Y54.422850 Z-0.125000
G01 X56.435650 Y54.045700 Z-0.125000
G01 X56.128860 Y53.640660 Z-0.125000
G01 X55.822080 Y53.235620 Z-0.125000
G01 X55.732580 Y53.222620 Z-0.125000
G01 X55.643080 Y53.209620 Z-0.125000
G01 X55.643080 Y53.253020 Z-0.125000
G01 X55.643080 Y53.296420 Z-0.125000
G01 X55.794160 Y53.509880 Z-0.125000
G01 X55.945230 Y53.723340 Z-0.125000
G01 X56.165770 Y54.007810 Z-0.125000
G01 X56.386300 Y54.292290 Z-0.125000
G01 X56.654770 Y54.571220 Z-0.125000
G01 X56.923250 Y54.850150 Z-0.125000
G01 X57.289000 Y55.157800 Z-0.125000
G01 X57.654770 Y55.465460 Z-0.125000
G01 X58.110190 Y55.761390 Z-0.125000
G01 X58.565610 Y56.057330 Z-0.125000
G01 X58.858590 Y56.204870 Z-0.125000
G01 X59.151560 Y56.352410 Z-0.125000
G01 X59.520770 Y56.494960 Z-0.125000
G01 X59.889970 Y56.637520 Z-0.125000
G01 X60.289340 Y56.753240 Z-0.125000
G01 X60.688710 Y56.868970 Z-0.125000
G01 X61.183420 Y56.949570 Z-0.125000
G01 X61.678140 Y57.030170 Z-0.125000
G01 X62.104860 Y57.056870 Z-0.125000
G01 X62.531580 Y57.083570 Z-0.125000
G01 X63.100540 Y57.037970 Z-0.125000
G01 X63.669500 Y56.992370 Z-0.125000
G01 X64.157180 Y56.893870 Z-0.125000
G01 X64.644860 Y56.795370 Z-0.125000
G01 X65.119170 Y56.635550 Z-0.125000
G01 X65.593480 Y56.475730 Z-0.125000
G01 X66.135170 Y56.206480 Z-0.125000
G01 X66.676860 Y55.937230 Z-0.125000
G01 X67.183440 Y55.582220 Z-0.125000
G01 X67.690010 Y55.227200 Z-0.125000
G01 X68.161820 Y54.759840 Z-0.125000
G01 X68.633620 Y54.292480 Z-0.125000
G01 X68.811000 Y54.079020 Z-0.125000
G01 X68.988380 Y53.865560 Z-0.125000
G01 X69.183910 Y53.578020 Z-0.125000
G01 X69.379430 Y53.290490 Z-0.125000
G01 X69.379430 Y53.232690 Z-0.125000
G01 X69.379430 Y53.174890 Z-0.125000
G01 X69.326230 Y53.174890 Z-0.125000
G01 X69.273030 Y53.174890 Z-0.125000
G01 X69.211430 Y53.225690 Z-0.125000
G01 X69.211610 Y53.225490 Z-0.125000
G00 Z5.000000

(End cutting path id: path220320)


(Start cutting path id: path220320)
(Change tool to Default tool)

G00 Z5.000000
G00 X73.724130 Y50.560980

G01 Z-0.125000 F100.0(Penetrate)
G01 X76.829180 Y51.233800 Z-0.125000 F400.000000
G01 X77.224520 Y51.472620 Z-0.125000
G01 X77.619850 Y51.711440 Z-0.125000
G01 X77.765150 Y51.872270 Z-0.125000
G01 X77.910460 Y52.033110 Z-0.125000
G01 X77.999560 Y52.207660 Z-0.125000
G01 X78.088660 Y52.382210 Z-0.125000
G01 X78.202120 Y52.717890 Z-0.125000
G01 X78.315590 Y53.053560 Z-0.125000
G01 X78.383290 Y53.458530 Z-0.125000
G01 X78.450990 Y53.863490 Z-0.125000
G01 X78.436490 Y54.345150 Z-0.125000
G01 X78.421990 Y54.826820 Z-0.125000
G01 X78.251890 Y55.169160 Z-0.125000
G01 X78.081800 Y55.511500 Z-0.125000
G01 X77.947090 Y55.645620 Z-0.125000
G01 X77.812390 Y55.779750 Z-0.125000
G01 X77.629510 Y55.887210 Z-0.125000
G01 X77.446620 Y55.994670 Z-0.125000
G01 X77.560260 Y55.844780 Z-0.125000
G01 X77.673890 Y55.694890 Z-0.125000
G01 X77.752390 Y55.521920 Z-0.125000
G01 X77.830890 Y55.348940 Z-0.125000
G01 X77.830920 Y55.084780 Z-0.125000
G01 X77.830960 Y54.820620 Z-0.125000
G01 X77.731860 Y54.539840 Z-0.125000
G01 X77.632760 Y54.259060 Z-0.125000
G01 X77.445760 Y53.977840 Z-0.125000
G01 X77.258750 Y53.696600 Z-0.125000
G01 X77.058010 Y53.571810 Z-0.125000
G01 X76.857260 Y53.447020 Z-0.125000
G01 X76.857260 Y53.351520 Z-0.125000
G01 X76.857260 Y53.256020 Z-0.125000
G01 X76.794660 Y53.256020 Z-0.125000
G01 X76.732060 Y53.256020 Z-0.125000
G01 X76.570130 Y53.338620 Z-0.125000
G01 X76.408200 Y53.421220 Z-0.125000
G01 X74.549910 Y53.215290 Z-0.125000
G01 X72.691620 Y53.009360 Z-0.125000
G01 X71.317000 Y53.014360 Z-0.125000
G01 X69.942390 Y53.019360 Z-0.125000
G01 X69.871090 Y52.954860 Z-0.125000
G01 X69.799790 Y52.890360 Z-0.125000
G01 X69.701390 Y52.891270 Z-0.125000
G01 X69.602990 Y52.892180 Z-0.125000
G01 X68.871470 Y53.091810 Z-0.125000
G01 X68.139950 Y53.291440 Z-0.125000
G01 X67.973760 Y53.218040 Z-0.125000
G01 X67.807580 Y53.144640 Z-0.125000
G01 X67.425120 Y52.918310 Z-0.125000
G01 X67.042660 Y52.691980 Z-0.125000
G01 X66.924380 Y52.541380 Z-0.125000
G01 X66.806110 Y52.390770 Z-0.125000
G01 X66.808110 Y52.138860 Z-0.125000
G01 X66.810110 Y51.886940 Z-0.125000
G01 X66.858510 Y51.586050 Z-0.125000
G01 X66.906910 Y51.285160 Z-0.125000
G01 X67.011600 Y51.000680 Z-0.125000
G01 X67.116290 Y50.716200 Z-0.125000
G01 X67.250370 Y50.447030 Z-0.125000
G01 X67.384450 Y50.177850 Z-0.125000
G01 X67.439250 Y50.156850 Z-0.125000
G01 X67.494050 Y50.135850 Z-0.125000
G01 X67.835270 Y50.226150 Z-0.125000
G01 X68.176500 Y50.316450 Z-0.125000
G01 X68.192300 Y50.363950 Z-0.125000
G01 X68.208200 Y50.411450 Z-0.125000
G01 X68.253000 Y50.411450 Z-0.125000
G01 X68.297800 Y50.411450 Z-0.125000
G01 X68.381700 Y50.335650 Z-0.125000
G01 X68.465600 Y50.259850 Z-0.125000
G01 X68.973610 Y50.061350 Z-0.125000
G01 X69.481610 Y49.862850 Z-0.125000
G01 X70.050570 Y49.875650 Z-0.125000
G01 X70.619530 Y49.888450 Z-0.125000
G01 X73.724580 Y50.561270 Z-0.125000
G01 X73.724130 Y50.560980 Z-0.125000
G00 Z5.000000

(End cutting path id: path220320)


(Start cutting path id: path220320)
(Change tool to Default tool)

G00 Z5.000000
G00 X81.368390 Y48.358760

G01 Z-0.125000 F100.0(Penetrate)
G01 X81.368390 Y62.928230 Z-0.125000 F400.000000
G01 X62.511390 Y62.928230 Z-0.125000
G01 X43.654400 Y62.928230 Z-0.125000
G01 X43.654400 Y48.358760 Z-0.125000
G01 X43.654400 Y33.789290 Z-0.125000
G01 X62.511390 Y33.789290 Z-0.125000
G01 X81.368390 Y33.789290 Z-0.125000
G01 X81.368390 Y48.358760 Z-0.125000
G00 Z5.000000

(End cutting path id: path220320)


(Footer)
M5
G00 X0.0000 Y0.0000
M2
(Using default footer. To add your own footer create file "footer" in the output dir.)
(end)
%