(G-CODE GENERATED BY FLATCAM v8.994 - www.flatcam.org - Version Date: 2020/11/7)

(Name: CIRCUITO DE CONTROL LINEAL_copperBottom.gbl_iso_combined_cnc)
(Type: G-code from Geometry)
(Units: MM)

(Created on Wednesday, 16 October 2024 at 10:24)

(This preprocessor is the default preprocessor used by FlatCAM.)
(It is made to work with MACH3 compatible motion controllers.)

(TOOL DIAMETER: 0.1 mm)
(Feedrate_XY: 100.0 mm/min)
(Feedrate_Z: 60.0 mm/min)
(Feedrate rapids 1500.0 mm/min)

(Z_Cut: 0.0 mm)
(Z_Move: 5.0 mm)
(Z Start: None mm)
(Z End: 15.0 mm)
(X,Y End: None mm)
(Steps per circle: 64)
(Preprocessor Geometry: default)

(X range:    2.0580 ...   69.0366  mm)
(Y range:    2.0072 ...   77.4385  mm)

(Spindle Speed: 0.0 RPM)
G21
G90
G94

G01 F100.00

M5
G00 Z15.0000
G00 X0.0000 Y0.0000
T1
M6    
(MSG, Change to Tool Dia = 0.1000)
M0
G00 Z15.0000

M03
G01 F100.00
G00 X4.6004 Y2.4174
G01 F60.00
G01 Z0.0000
G01 F100.00
G01 X4.6068 Y2.3747
G01 X4.6177 Y2.3313
G01 X4.6328 Y2.2891
G01 X4.6508 Y2.2508
G01 X4.6547 Y2.2436
G01 X4.6750 Y2.2101
G01 X4.7001 Y2.1761
G01 X4.7045 Y2.1707
G01 X4.7300 Y2.1427
G01 X4.7358 Y2.1370
G01 X4.7674 Y2.1088
G01 X4.8036 Y2.0824
G01 X4.8422 Y2.0596
G01 X4.8828 Y2.0407
G01 X4.9251 Y2.0259
G01 X4.9687 Y2.0154
G01 X5.0130 Y2.0091
G01 X5.0546 Y2.0072
G01 X43.1800 Y2.0072
G01 X43.2248 Y2.0094
G01 X43.2691 Y2.0160
G01 X43.3125 Y2.0269
G01 X43.3524 Y2.0411
G01 X43.3585 Y2.0436
G01 X43.3930 Y2.0600
G01 X43.3988 Y2.0631
G01 X43.4350 Y2.0851
G01 X43.4697 Y2.1108
G01 X43.5029 Y2.1409
G01 X43.5314 Y2.1723
G01 X43.5355 Y2.1773
G01 X43.5582 Y2.2081
G01 X43.5619 Y2.2136
G01 X43.5834 Y2.2500
G01 X43.6018 Y2.2891
G01 X43.6169 Y2.3313
G01 X43.6273 Y2.3723
G01 X43.6286 Y2.3787
G01 X43.6341 Y2.4166
G01 X43.6347 Y2.4231
G01 X43.6366 Y2.4654
G01 X43.6127 Y9.1928
G01 X43.6293 Y9.2009
G01 X43.7136 Y9.2517
G01 X43.7906 Y9.3089
G01 X43.8635 Y9.3749
G01 X43.9295 Y9.4478
G01 X43.9867 Y9.5248
G01 X44.0398 Y9.6134
G01 X44.0808 Y9.7002
G01 X44.1139 Y9.7928
G01 X44.1378 Y9.8882
G01 X44.1520 Y9.9831
G01 X44.1570 Y10.0863
G01 X44.1523 Y10.1821
G01 X44.1378 Y10.2794
G01 X44.1139 Y10.3748
G01 X44.0808 Y10.4674
G01 X44.0387 Y10.5564
G01 X43.9895 Y10.6387
G01 X43.9279 Y10.7216
G01 X43.8635 Y10.7927
G01 X43.7906 Y10.8587
G01 X43.7116 Y10.9173
G01 X43.6293 Y10.9667
G01 X43.5359 Y11.0109
G01 X43.4456 Y11.0431
G01 X43.3502 Y11.0670
G01 X43.2529 Y11.0815
G01 X43.1546 Y11.0863
G01 X43.0563 Y11.0815
G01 X42.9614 Y11.0675
G01 X42.8636 Y11.0431
G01 X42.7687 Y11.0090
G01 X42.6820 Y10.9679
G01 X42.5997 Y10.9187
G01 X42.5168 Y10.8571
G01 X42.4457 Y10.7927
G01 X42.3813 Y10.7216
G01 X42.3211 Y10.6408
G01 X42.2711 Y10.5574
G01 X42.2629 Y10.5404
G01 X38.9523 Y10.5404
G01 X38.9463 Y10.5525
G01 X38.8962 Y10.6357
G01 X38.8397 Y10.7117
G01 X38.7745 Y10.7837
G01 X38.7006 Y10.8504
G01 X38.6245 Y10.9068
G01 X38.5412 Y10.9567
G01 X38.4511 Y10.9991
G01 X38.3619 Y11.0310
G01 X38.2677 Y11.0546
G01 X38.1716 Y11.0688
G01 X38.0771 Y11.0735
G01 X37.9764 Y11.0687
G01 X37.8815 Y11.0546
G01 X37.7896 Y11.0316
G01 X37.6936 Y10.9973
G01 X37.6080 Y10.9567
G01 X37.5247 Y10.9068
G01 X37.4467 Y10.8489
G01 X37.3765 Y10.7854
G01 X37.3080 Y10.7098
G01 X37.2516 Y10.6337
G01 X37.2017 Y10.5504
G01 X37.1593 Y10.4603
G01 X37.1274 Y10.3711
G01 X37.1038 Y10.2769
G01 X37.0896 Y10.1808
G01 X37.0848 Y10.0838
G01 X37.0896 Y9.9868
G01 X37.1038 Y9.8907
G01 X37.1274 Y9.7965
G01 X37.1601 Y9.7050
G01 X37.2017 Y9.6172
G01 X37.2516 Y9.5339
G01 X37.3095 Y9.4559
G01 X37.3747 Y9.3839
G01 X37.4467 Y9.3187
G01 X37.5247 Y9.2608
G01 X37.6080 Y9.2109
G01 X37.6958 Y9.1693
G01 X37.7873 Y9.1366
G01 X37.8815 Y9.1130
G01 X37.9776 Y9.0988
G01 X38.0721 Y9.0941
G01 X38.1741 Y9.0991
G01 X38.2677 Y9.1130
G01 X38.3619 Y9.1366
G01 X38.4534 Y9.1693
G01 X38.5390 Y9.2098
G01 X38.6265 Y9.2622
G01 X38.7025 Y9.3187
G01 X38.7745 Y9.3839
G01 X38.8397 Y9.4559
G01 X38.8962 Y9.5319
G01 X38.9463 Y9.6151
G01 X38.9523 Y9.6272
G01 X42.2629 Y9.6272
G01 X42.2711 Y9.6102
G01 X42.3225 Y9.5248
G01 X42.3797 Y9.4478
G01 X42.4457 Y9.3749
G01 X42.5186 Y9.3089
G01 X42.5956 Y9.2517
G01 X42.6810 Y9.2003
G01 X42.6995 Y9.1913
G01 X42.7218 Y2.9204
G01 X5.5080 Y2.9204
G01 X5.4635 Y9.2443
G01 X5.4785 Y9.2517
G01 X5.5628 Y9.3025
G01 X5.6398 Y9.3597
G01 X5.7127 Y9.4257
G01 X5.7787 Y9.4986
G01 X5.8359 Y9.5756
G01 X5.8879 Y9.6620
G01 X5.9309 Y9.7533
G01 X5.9631 Y9.8436
G01 X5.9870 Y9.9390
G01 X6.0017 Y10.0388
G01 X6.0063 Y10.1346
G01 X6.0016 Y10.2316
G01 X5.9870 Y10.3302
G01 X5.9631 Y10.4256
G01 X5.9300 Y10.5182
G01 X5.8879 Y10.6072
G01 X5.8373 Y10.6916
G01 X5.7787 Y10.7706
G01 X5.7127 Y10.8435
G01 X5.6378 Y10.9111
G01 X5.5608 Y10.9681
G01 X5.4742 Y11.0198
G01 X5.3851 Y11.0617
G01 X5.2948 Y11.0939
G01 X5.2018 Y11.1173
G01 X5.1021 Y11.1323
G01 X5.0038 Y11.1371
G01 X4.9055 Y11.1323
G01 X4.8082 Y11.1178
G01 X4.7128 Y11.0939
G01 X4.6225 Y11.0617
G01 X4.5291 Y11.0175
G01 X4.4468 Y10.9681
G01 X4.3678 Y10.9095
G01 X4.2949 Y10.8435
G01 X4.2289 Y10.7706
G01 X4.1703 Y10.6916
G01 X4.1209 Y10.6093
G01 X4.0767 Y10.5159
G01 X4.0445 Y10.4256
G01 X4.0206 Y10.3302
G01 X4.0061 Y10.2329
G01 X4.0013 Y10.1358
G01 X4.0064 Y10.0339
G01 X4.0206 Y9.9390
G01 X4.0445 Y9.8436
G01 X4.0786 Y9.7487
G01 X4.1197 Y9.6620
G01 X4.1689 Y9.5797
G01 X4.2305 Y9.4968
G01 X4.2949 Y9.4257
G01 X4.3660 Y9.3613
G01 X4.4479 Y9.3004
G01 X4.5302 Y9.2511
G01 X4.5503 Y9.2414
G01 X4.5980 Y2.4606
G01 X4.6004 Y2.4174
G00 Z5.0000
G00 X4.6109 Y15.0314
G01 F60.00
G01 Z0.0000
G01 F100.00
G01 X4.6110 Y14.9962
G01 X4.6116 Y14.9902
G01 X4.6131 Y14.9842
G01 X4.6168 Y14.9751
G01 X4.6223 Y14.9670
G01 X4.6292 Y14.9601
G01 X4.6363 Y14.9552
G01 X4.6364 Y14.9442
G01 X4.6378 Y14.9358
G01 X4.6406 Y14.9276
G01 X4.6447 Y14.9201
G01 X4.6484 Y14.9152
G01 X4.6536 Y14.9100
G01 X4.6596 Y14.9057
G01 X4.6660 Y14.9022
G01 X4.6688 Y14.8968
G01 X4.6715 Y14.8927
G01 X4.6781 Y14.8855
G01 X4.6839 Y14.8809
G01 X4.6914 Y14.8768
G01 X4.6962 Y14.8683
G01 X4.7026 Y14.8609
G01 X4.7093 Y14.8555
G01 X4.7168 Y14.8514
G01 X4.7216 Y14.8429
G01 X4.7280 Y14.8355
G01 X4.7347 Y14.8301
G01 X4.7422 Y14.8260
G01 X4.7470 Y14.8175
G01 X4.7534 Y14.8101
G01 X4.7601 Y14.8047
G01 X4.7676 Y14.8006
G01 X4.7704 Y14.7952
G01 X4.7739 Y14.7901
G01 X4.7779 Y14.7855
G01 X4.7816 Y14.7823
G01 X4.7897 Y14.7768
G01 X4.7988 Y14.7731
G01 X4.8084 Y14.7711
G01 X4.8206 Y14.7709
G01 X4.8247 Y14.7647
G01 X4.8305 Y14.7585
G01 X4.8374 Y14.7533
G01 X4.8450 Y14.7493
G01 X4.8508 Y14.7473
G01 X4.8568 Y14.7460
G01 X4.8629 Y14.7455
G01 X4.8722 Y14.7455
G01 X4.8810 Y14.7415
G01 X4.9082 Y14.7317
G01 X4.9157 Y14.7266
G01 X4.9246 Y14.7226
G01 X4.9306 Y14.7211
G01 X4.9354 Y14.7203
G01 X4.9488 Y14.7201
G01 X4.9667 Y14.7157
G01 X5.0111 Y14.7093
G01 X5.0546 Y14.7072
G01 X9.7034 Y14.7072
G01 X9.7034 Y4.9753
G01 X9.7056 Y4.9336
G01 X9.7118 Y4.8917
G01 X9.7131 Y4.8851
G01 X9.7224 Y4.8482
G01 X9.7244 Y4.8418
G01 X9.7389 Y4.8020
G01 X9.7573 Y4.7632
G01 X9.7804 Y4.7247
G01 X9.8055 Y4.6907
G01 X9.8098 Y4.6855
G01 X9.8354 Y4.6573
G01 X9.8402 Y4.6526
G01 X9.8717 Y4.6243
G01 X9.9063 Y4.5988
G01 X9.9448 Y4.5757
G01 X9.9830 Y4.5576
G01 X9.9892 Y4.5550
G01 X10.0292 Y4.5409
G01 X10.0709 Y4.5306
G01 X10.1128 Y4.5243
G01 X10.1195 Y4.5237
G01 X10.1600 Y4.5218
G01 X22.8609 Y4.5726
G01 X38.0250 Y4.5726
G01 X38.0576 Y4.5739
G01 X38.0698 Y4.5749
G01 X38.1009 Y4.5792
G01 X38.1141 Y4.5816
G01 X38.1446 Y4.5889
G01 X38.1587 Y4.5930
G01 X38.1872 Y4.6028
G01 X38.1985 Y4.6074
G01 X38.2282 Y4.6209
G01 X38.2390 Y4.6265
G01 X38.2683 Y4.6435
G01 X38.2785 Y4.6502
G01 X38.3039 Y4.6686
G01 X38.3144 Y4.6770
G01 X38.3370 Y4.6970
G01 X38.3475 Y4.7072
G01 X38.3689 Y4.7302
G01 X38.3768 Y4.7395
G01 X38.3972 Y4.7665
G01 X38.4041 Y4.7766
G01 X38.4212 Y4.8043
G01 X38.4271 Y4.8150
G01 X38.4403 Y4.8421
G01 X38.4461 Y4.8556
G01 X38.4570 Y4.8850
G01 X38.4607 Y4.8967
G01 X38.4694 Y4.9294
G01 X38.4719 Y4.9413
G01 X38.4766 Y4.9711
G01 X38.4783 Y4.9857
G01 X38.4803 Y5.0182
G01 X38.5198 Y6.6607
G01 X38.5423 Y6.6715
G01 X38.6255 Y6.7215
G01 X38.7025 Y6.7787
G01 X38.7736 Y6.8431
G01 X38.8412 Y6.9178
G01 X38.8976 Y6.9939
G01 X38.9469 Y7.0761
G01 X38.9899 Y7.1673
G01 X39.0218 Y7.2565
G01 X39.0454 Y7.3507
G01 X39.0596 Y7.4468
G01 X39.0643 Y7.5413
G01 X39.0596 Y7.6408
G01 X39.0454 Y7.7369
G01 X39.0218 Y7.8311
G01 X38.9891 Y7.9226
G01 X38.9486 Y8.0082
G01 X38.8976 Y8.0937
G01 X38.8412 Y8.1698
G01 X38.7727 Y8.2454
G01 X38.7025 Y8.3089
G01 X38.6245 Y8.3668
G01 X38.5412 Y8.4167
G01 X38.4534 Y8.4583
G01 X38.3619 Y8.4910
G01 X38.2677 Y8.5146
G01 X38.1716 Y8.5288
G01 X38.0771 Y8.5335
G01 X37.9776 Y8.5288
G01 X37.8839 Y8.5150
G01 X37.7849 Y8.4902
G01 X37.6958 Y8.4583
G01 X37.6080 Y8.4167
G01 X37.5247 Y8.3668
G01 X37.4467 Y8.3089
G01 X37.3747 Y8.2437
G01 X37.3095 Y8.1717
G01 X37.2516 Y8.0937
G01 X37.2029 Y8.0125
G01 X37.1593 Y7.9203
G01 X37.1274 Y7.8311
G01 X37.1036 Y7.7357
G01 X37.0896 Y7.6408
G01 X37.0849 Y7.5463
G01 X37.0896 Y7.4468
G01 X37.1038 Y7.3507
G01 X37.1268 Y7.2588
G01 X37.1611 Y7.1628
G01 X37.2017 Y7.0772
G01 X37.2516 Y6.9939
G01 X37.3095 Y6.9159
G01 X37.3730 Y6.8457
G01 X37.4486 Y6.7772
G01 X37.5247 Y6.7208
G01 X37.6066 Y6.6716
G01 X37.5781 Y5.4858
G01 X23.3166 Y5.4858
G01 X23.3166 Y10.0584
G01 X23.3150 Y10.0966
G01 X23.3141 Y10.1056
G01 X23.3088 Y10.1422
G01 X23.3076 Y10.1487
G01 X23.2991 Y10.1834
G01 X23.2966 Y10.1921
G01 X23.2839 Y10.2282
G01 X23.2814 Y10.2343
G01 X23.2663 Y10.2667
G01 X23.2627 Y10.2736
G01 X23.2433 Y10.3066
G01 X23.2382 Y10.3141
G01 X23.2163 Y10.3439
G01 X23.2122 Y10.3490
G01 X23.1883 Y10.3756
G01 X23.1820 Y10.3821
G01 X23.1538 Y10.4079
G01 X23.1477 Y10.4129
G01 X23.1181 Y10.4350
G01 X23.1126 Y10.4387
G01 X23.0821 Y10.4573
G01 X23.0752 Y10.4611
G01 X23.0408 Y10.4777
G01 X23.0336 Y10.4807
G01 X22.9977 Y10.4938
G01 X22.9914 Y10.4957
G01 X22.9567 Y10.5046
G01 X22.9479 Y10.5065
G01 X22.9113 Y10.5121
G01 X22.9035 Y10.5129
G01 X22.8654 Y10.5150
G01 X21.1749 Y10.5349
G01 X21.1669 Y10.5515
G01 X21.1176 Y10.6337
G01 X21.0581 Y10.7136
G01 X20.9945 Y10.7837
G01 X20.9244 Y10.8473
G01 X20.8424 Y10.9081
G01 X20.7612 Y10.9567
G01 X20.6756 Y10.9973
G01 X20.5819 Y11.0310
G01 X20.4853 Y11.0550
G01 X20.3916 Y11.0688
G01 X20.2958 Y11.0736
G01 X20.1951 Y11.0685
G01 X20.1015 Y11.0546
G01 X20.0073 Y11.0310
G01 X19.9158 Y10.9983
G01 X19.8302 Y10.9578
G01 X19.7427 Y10.9054
G01 X19.6667 Y10.8489
G01 X19.5947 Y10.7837
G01 X19.5295 Y10.7117
G01 X19.4730 Y10.6357
G01 X19.4206 Y10.5482
G01 X19.3801 Y10.4626
G01 X19.3474 Y10.3711
G01 X19.3238 Y10.2769
G01 X19.3099 Y10.1833
G01 X19.3048 Y10.0838
G01 X19.3096 Y9.9868
G01 X19.3234 Y9.8931
G01 X19.3482 Y9.7941
G01 X19.3801 Y9.7050
G01 X19.4217 Y9.6172
G01 X19.4716 Y9.5339
G01 X19.5280 Y9.4578
G01 X19.5965 Y9.3822
G01 X19.6667 Y9.3187
G01 X19.7437 Y9.2615
G01 X19.8280 Y9.2109
G01 X19.9158 Y9.1693
G01 X20.0073 Y9.1366
G01 X20.0991 Y9.1136
G01 X20.2000 Y9.0986
G01 X20.2946 Y9.0940
G01 X20.3928 Y9.0989
G01 X20.4901 Y9.1136
G01 X20.5819 Y9.1366
G01 X20.6711 Y9.1685
G01 X20.7612 Y9.2109
G01 X20.8445 Y9.2608
G01 X20.9244 Y9.3203
G01 X20.9945 Y9.3839
G01 X21.0581 Y9.4540
G01 X21.1176 Y9.5339
G01 X21.1663 Y9.6151
G01 X21.1697 Y9.6217
G01 X22.4034 Y9.6071
G01 X22.4034 Y5.4840
G01 X10.6166 Y5.4368
G01 X10.6166 Y15.1638
G01 X10.6144 Y15.2086
G01 X10.6073 Y15.2553
G01 X10.5969 Y15.2963
G01 X10.5827 Y15.3362
G01 X10.5633 Y15.3780
G01 X10.5382 Y15.4195
G01 X10.5130 Y15.4535
G01 X10.4846 Y15.4849
G01 X10.4497 Y15.5168
G01 X10.4116 Y15.5448
G01 X10.3752 Y15.5665
G01 X10.3370 Y15.5846
G01 X10.2925 Y15.6007
G01 X10.2467 Y15.6120
G01 X10.2048 Y15.6182
G01 X10.1625 Y15.6203
G01 X5.4983 Y15.6204
G01 X5.4983 Y29.5180
G01 X5.5039 Y29.5209
G01 X5.5862 Y29.5703
G01 X5.6670 Y29.6305
G01 X5.7381 Y29.6949
G01 X5.8025 Y29.7660
G01 X5.8641 Y29.8489
G01 X5.9133 Y29.9312
G01 X5.9544 Y30.0179
G01 X5.9885 Y30.1128
G01 X6.0124 Y30.2082
G01 X6.0266 Y30.3031
G01 X6.0317 Y30.4050
G01 X6.0269 Y30.5021
G01 X6.0124 Y30.5994
G01 X5.9885 Y30.6948
G01 X5.9554 Y30.7874
G01 X5.9133 Y30.8764
G01 X5.8627 Y30.9608
G01 X5.8041 Y31.0398
G01 X5.7381 Y31.1127
G01 X5.6652 Y31.1787
G01 X5.5862 Y31.2373
G01 X5.5018 Y31.2879
G01 X5.4128 Y31.3300
G01 X5.3202 Y31.3631
G01 X5.2248 Y31.3870
G01 X5.1275 Y31.4015
G01 X5.0304 Y31.4063
G01 X4.9309 Y31.4015
G01 X4.8336 Y31.3870
G01 X4.7382 Y31.3631
G01 X4.6456 Y31.3300
G01 X4.5566 Y31.2879
G01 X4.4722 Y31.2373
G01 X4.3932 Y31.1787
G01 X4.3203 Y31.1127
G01 X4.2543 Y31.0398
G01 X4.1957 Y30.9608
G01 X4.1451 Y30.8764
G01 X4.1030 Y30.7874
G01 X4.0699 Y30.6948
G01 X4.0460 Y30.5994
G01 X4.0315 Y30.5021
G01 X4.0267 Y30.4050
G01 X4.0318 Y30.3031
G01 X4.0460 Y30.2082
G01 X4.0699 Y30.1128
G01 X4.1040 Y30.0179
G01 X4.1451 Y29.9312
G01 X4.1950 Y29.8479
G01 X4.2559 Y29.7660
G01 X4.3203 Y29.6949
G01 X4.3923 Y29.6296
G01 X4.4733 Y29.5696
G01 X4.5556 Y29.5203
G01 X4.5855 Y29.5060
G01 X4.5855 Y15.0749
G01 X4.5859 Y15.0688
G01 X4.5873 Y15.0616
G01 X4.5893 Y15.0558
G01 X4.5926 Y15.0492
G01 X4.5969 Y15.0432
G01 X4.6010 Y15.0387
G01 X4.6057 Y15.0347
G01 X4.6109 Y15.0314
G00 Z5.0000
G00 X9.7034 Y30.4333
G01 F60.00
G01 Z0.0000
G01 F100.00
G01 X9.6800 Y26.2025
G01 X9.6659 Y26.1955
G01 X9.5827 Y26.1454
G01 X9.5067 Y26.0889
G01 X9.4347 Y26.0237
G01 X9.3680 Y25.9498
G01 X9.3116 Y25.8737
G01 X9.2617 Y25.7904
G01 X9.2193 Y25.7003
G01 X9.1874 Y25.6111
G01 X9.1638 Y25.5169
G01 X9.1496 Y25.4208
G01 X9.1449 Y25.3263
G01 X9.1496 Y25.2268
G01 X9.1638 Y25.1307
G01 X9.1874 Y25.0365
G01 X9.2201 Y24.9450
G01 X9.2617 Y24.8572
G01 X9.3116 Y24.7739
G01 X9.3695 Y24.6959
G01 X9.4347 Y24.6239
G01 X9.5067 Y24.5587
G01 X9.5847 Y24.5008
G01 X9.6680 Y24.4509
G01 X9.7558 Y24.4093
G01 X9.8473 Y24.3766
G01 X9.9415 Y24.3530
G01 X10.0376 Y24.3388
G01 X10.1346 Y24.3340
G01 X10.2316 Y24.3388
G01 X10.3277 Y24.3530
G01 X10.4219 Y24.3766
G01 X10.5134 Y24.4093
G01 X10.5990 Y24.4498
G01 X10.6865 Y24.5022
G01 X10.7625 Y24.5587
G01 X10.8345 Y24.6239
G01 X10.8997 Y24.6959
G01 X10.9576 Y24.7739
G01 X11.0075 Y24.8572
G01 X11.0481 Y24.9428
G01 X11.0824 Y25.0388
G01 X11.1054 Y25.1307
G01 X11.1197 Y25.2280
G01 X11.1244 Y25.3238
G01 X11.1198 Y25.4184
G01 X11.1054 Y25.5169
G01 X11.0818 Y25.6111
G01 X11.0499 Y25.7003
G01 X11.0075 Y25.7904
G01 X10.9576 Y25.8737
G01 X10.9012 Y25.9498
G01 X10.8345 Y26.0237
G01 X10.7625 Y26.0889
G01 X10.6865 Y26.1454
G01 X10.6033 Y26.1955
G01 X10.5932 Y26.2005
G01 X10.6141 Y29.9669
G01 X11.7549 Y29.9526
G01 X11.7657 Y29.9302
G01 X11.8163 Y29.8458
G01 X11.8743 Y29.7678
G01 X11.9395 Y29.6958
G01 X12.0132 Y29.6289
G01 X12.0902 Y29.5717
G01 X12.1777 Y29.5191
G01 X12.2656 Y29.4776
G01 X12.3559 Y29.4452
G01 X12.4560 Y29.4201
G01 X12.5509 Y29.4061
G01 X12.6492 Y29.4013
G01 X12.7475 Y29.4061
G01 X12.8436 Y29.4203
G01 X12.9402 Y29.4445
G01 X13.0328 Y29.4776
G01 X13.1218 Y29.5197
G01 X13.2041 Y29.5689
G01 X13.2870 Y29.6305
G01 X13.3581 Y29.6949
G01 X13.4257 Y29.7698
G01 X13.4827 Y29.8468
G01 X13.5333 Y29.9312
G01 X13.5754 Y30.0202
G01 X13.6085 Y30.1128
G01 X13.6324 Y30.2082
G01 X13.6469 Y30.3055
G01 X13.6517 Y30.4038
G01 X13.6469 Y30.5021
G01 X13.6324 Y30.5994
G01 X13.6085 Y30.6948
G01 X13.5754 Y30.7874
G01 X13.5333 Y30.8764
G01 X13.4827 Y30.9608
G01 X13.4241 Y31.0398
G01 X13.3581 Y31.1127
G01 X13.2870 Y31.1771
G01 X13.2062 Y31.2373
G01 X13.1239 Y31.2867
G01 X13.0305 Y31.3309
G01 X12.9402 Y31.3631
G01 X12.8448 Y31.3870
G01 X12.7475 Y31.4015
G01 X12.6480 Y31.4063
G01 X12.5509 Y31.4015
G01 X12.4560 Y31.3875
G01 X12.3582 Y31.3631
G01 X12.2633 Y31.3290
G01 X12.1766 Y31.2879
G01 X12.0943 Y31.2387
G01 X12.0114 Y31.1771
G01 X11.9403 Y31.1127
G01 X11.8759 Y31.0416
G01 X11.8157 Y30.9608
G01 X11.7663 Y30.8785
G01 X11.7600 Y30.8658
G01 X10.1625 Y30.8858
G01 X10.1209 Y30.8841
G01 X10.0789 Y30.8785
G01 X10.0710 Y30.8770
G01 X10.0287 Y30.8665
G01 X9.9906 Y30.8532
G01 X9.9520 Y30.8356
G01 X9.9459 Y30.8325
G01 X9.9132 Y30.8133
G01 X9.9064 Y30.8088
G01 X9.8723 Y30.7838
G01 X9.8412 Y30.7561
G01 X9.8107 Y30.7233
G01 X9.7850 Y30.6896
G01 X9.7811 Y30.6839
G01 X9.7613 Y30.6516
G01 X9.7574 Y30.6445
G01 X9.7391 Y30.6063
G01 X9.7248 Y30.5672
G01 X9.7139 Y30.5263
G01 X9.7122 Y30.5183
G01 X9.7059 Y30.4765
G01 X9.7034 Y30.4333
G00 Z5.0000
G00 X14.7963 Y33.1524
G01 F60.00
G01 Z0.0000
G01 F100.00
G01 X14.7882 Y33.1468
G01 X14.7847 Y33.1434
G01 X14.7807 Y33.1387
G01 X14.7780 Y33.1346
G01 X14.7752 Y33.1292
G01 X14.7734 Y33.1246
G01 X14.7719 Y33.1187
G01 X14.7709 Y33.1101
G01 X14.7709 Y33.0750
G01 X14.7665 Y33.0571
G01 X14.7603 Y33.0152
G01 X14.7580 Y32.9692
G01 X14.7603 Y32.9232
G01 X14.7665 Y32.8813
G01 X14.7709 Y32.8634
G01 X14.7709 Y23.2404
G01 X11.0123 Y23.2404
G01 X11.0063 Y23.2525
G01 X10.9562 Y23.3357
G01 X10.8997 Y23.4117
G01 X10.8327 Y23.4854
G01 X10.7625 Y23.5489
G01 X10.6845 Y23.6068
G01 X10.6012 Y23.6567
G01 X10.5134 Y23.6983
G01 X10.4219 Y23.7310
G01 X10.3301 Y23.7540
G01 X10.2292 Y23.7690
G01 X10.1346 Y23.7736
G01 X10.0376 Y23.7688
G01 X9.9415 Y23.7546
G01 X9.8485 Y23.7313
G01 X9.7536 Y23.6973
G01 X9.6680 Y23.6567
G01 X9.5847 Y23.6068
G01 X9.5067 Y23.5489
G01 X9.4365 Y23.4854
G01 X9.3695 Y23.4117
G01 X9.3116 Y23.3337
G01 X9.2629 Y23.2525
G01 X9.2201 Y23.1626
G01 X9.1874 Y23.0711
G01 X9.1644 Y22.9793
G01 X9.1494 Y22.8784
G01 X9.1448 Y22.7838
G01 X9.1496 Y22.6868
G01 X9.1638 Y22.5907
G01 X9.1868 Y22.4988
G01 X9.2211 Y22.4028
G01 X9.2617 Y22.3172
G01 X9.3103 Y22.2360
G01 X9.3711 Y22.1540
G01 X9.4347 Y22.0839
G01 X9.5067 Y22.0187
G01 X9.5868 Y21.9595
G01 X9.6680 Y21.9109
G01 X9.7547 Y21.8698
G01 X9.8473 Y21.8366
G01 X9.9415 Y21.8130
G01 X10.0376 Y21.7988
G01 X10.1346 Y21.7940
G01 X10.2316 Y21.7988
G01 X10.3277 Y21.8130
G01 X10.4219 Y21.8366
G01 X10.5111 Y21.8685
G01 X10.6012 Y21.9109
G01 X10.6845 Y21.9608
G01 X10.7625 Y22.0187
G01 X10.8327 Y22.0822
G01 X10.8997 Y22.1559
G01 X10.9562 Y22.2319
G01 X11.0063 Y22.3151
G01 X11.0123 Y22.3272
G01 X15.2171 Y22.3273
G01 X15.2606 Y22.3295
G01 X15.3025 Y22.3357
G01 X15.3204 Y22.3401
G01 X15.3314 Y22.3402
G01 X15.3387 Y22.3411
G01 X15.3446 Y22.3426
G01 X15.3503 Y22.3449
G01 X15.3556 Y22.3479
G01 X15.3610 Y22.3517
G01 X15.3882 Y22.3615
G01 X15.3970 Y22.3655
G01 X15.4076 Y22.3656
G01 X15.4136 Y22.3662
G01 X15.4208 Y22.3680
G01 X15.4276 Y22.3708
G01 X15.4349 Y22.3753
G01 X15.4405 Y22.3801
G01 X15.4453 Y22.3857
G01 X15.4497 Y22.3930
G01 X15.4683 Y22.4042
G01 X15.4849 Y22.4164
G01 X15.4923 Y22.4175
G01 X15.5004 Y22.4201
G01 X15.5080 Y22.4241
G01 X15.5140 Y22.4284
G01 X15.5183 Y22.4327
G01 X15.5215 Y22.4365
G01 X15.5242 Y22.4406
G01 X15.5270 Y22.4460
G01 X15.5345 Y22.4501
G01 X15.5412 Y22.4555
G01 X15.5476 Y22.4629
G01 X15.5524 Y22.4714
G01 X15.5599 Y22.4755
G01 X15.5666 Y22.4809
G01 X15.5730 Y22.4883
G01 X15.5778 Y22.4968
G01 X15.5853 Y22.5009
G01 X15.5911 Y22.5055
G01 X15.5961 Y22.5108
G01 X15.6010 Y22.5179
G01 X15.6041 Y22.5245
G01 X15.6065 Y22.5327
G01 X15.6074 Y22.5400
G01 X15.6075 Y22.5498
G01 X15.6127 Y22.5531
G01 X15.6174 Y22.5571
G01 X15.6223 Y22.5625
G01 X15.6258 Y22.5676
G01 X15.6295 Y22.5753
G01 X15.6317 Y22.5823
G01 X15.6328 Y22.5896
G01 X15.6329 Y22.6006
G01 X15.6400 Y22.6055
G01 X15.6470 Y22.6124
G01 X15.6518 Y22.6195
G01 X15.6558 Y22.6284
G01 X15.6573 Y22.6343
G01 X15.6582 Y22.6416
G01 X15.6583 Y22.6780
G01 X15.6627 Y22.6959
G01 X15.6685 Y22.7352
G01 X15.6724 Y22.7394
G01 X15.6753 Y22.7433
G01 X15.6799 Y22.7520
G01 X15.6827 Y22.7613
G01 X15.6837 Y22.7711
G01 X15.6837 Y32.5126
G01 X22.3526 Y32.5126
G01 X22.3526 Y30.3784
G01 X22.3548 Y30.3336
G01 X22.3619 Y30.2869
G01 X22.3723 Y30.2459
G01 X22.3865 Y30.2060
G01 X22.4065 Y30.1632
G01 X22.4296 Y30.1247
G01 X22.4562 Y30.0887
G01 X22.4881 Y30.0538
G01 X22.5195 Y30.0254
G01 X22.5535 Y30.0002
G01 X22.5918 Y29.9769
G01 X22.6345 Y29.9566
G01 X22.6790 Y29.9408
G01 X22.7201 Y29.9306
G01 X22.7620 Y29.9243
G01 X22.8080 Y29.9218
G01 X24.3529 Y29.9218
G01 X24.3726 Y29.8804
G01 X24.4273 Y29.7893
G01 X24.4935 Y29.7000
G01 X24.5657 Y29.6203
G01 X24.6444 Y29.5489
G01 X24.7347 Y29.4819
G01 X24.8269 Y29.4266
G01 X24.9229 Y29.3811
G01 X25.0276 Y29.3435
G01 X25.1330 Y29.3171
G01 X25.2382 Y29.3014
G01 X25.3504 Y29.2958
G01 X25.4578 Y29.3011
G01 X25.5629 Y29.3167
G01 X25.6732 Y29.3443
G01 X25.7732 Y29.3801
G01 X25.8715 Y29.4266
G01 X25.9648 Y29.4825
G01 X26.0502 Y29.5458
G01 X26.1344 Y29.6221
G01 X26.2057 Y29.7009
G01 X26.2705 Y29.7882
G01 X26.3264 Y29.8815
G01 X26.3719 Y29.9775
G01 X26.4098 Y30.0833
G01 X26.4359 Y30.1876
G01 X26.4519 Y30.2952
G01 X26.4572 Y30.4038
G01 X26.4519 Y30.5124
G01 X26.4359 Y30.6200
G01 X26.4095 Y30.7254
G01 X26.3729 Y30.8278
G01 X26.3252 Y30.9282
G01 X26.2705 Y31.0194
G01 X26.2072 Y31.1048
G01 X26.1344 Y31.1855
G01 X26.0521 Y31.2603
G01 X25.9668 Y31.3237
G01 X25.8715 Y31.3810
G01 X25.7732 Y31.4275
G01 X25.6708 Y31.4641
G01 X25.5678 Y31.4900
G01 X25.4554 Y31.5066
G01 X25.3492 Y31.5118
G01 X25.2382 Y31.5062
G01 X25.1330 Y31.4905
G01 X25.0276 Y31.4641
G01 X24.9252 Y31.4275
G01 X24.8269 Y31.3810
G01 X24.7336 Y31.3251
G01 X24.6482 Y31.2618
G01 X24.5640 Y31.1855
G01 X24.4927 Y31.1067
G01 X24.4279 Y31.0194
G01 X24.3720 Y30.9261
G01 X24.3289 Y30.8350
G01 X23.2658 Y30.8350
G01 X23.2658 Y32.9692
G01 X23.2635 Y33.0152
G01 X23.2570 Y33.0583
G01 X23.2468 Y33.0994
G01 X23.2310 Y33.1439
G01 X23.2107 Y33.1866
G01 X23.1888 Y33.2229
G01 X23.1622 Y33.2589
G01 X23.1303 Y33.2938
G01 X23.0989 Y33.3222
G01 X23.0629 Y33.3488
G01 X23.0244 Y33.3719
G01 X22.9862 Y33.3900
G01 X22.9406 Y33.4065
G01 X22.8983 Y33.4170
G01 X22.8564 Y33.4233
G01 X22.8092 Y33.4258
G01 X15.2134 Y33.4258
G01 X15.1686 Y33.4235
G01 X15.1267 Y33.4173
G01 X15.1088 Y33.4129
G01 X15.0966 Y33.4128
G01 X15.0893 Y33.4117
G01 X15.0835 Y33.4100
G01 X15.0778 Y33.4076
G01 X15.0725 Y33.4045
G01 X15.0682 Y33.4013
G01 X15.0410 Y33.3915
G01 X15.0322 Y33.3875
G01 X15.0204 Y33.3874
G01 X15.0131 Y33.3863
G01 X15.0038 Y33.3832
G01 X14.9963 Y33.3791
G01 X14.9914 Y33.3754
G01 X14.9871 Y33.3711
G01 X14.9832 Y33.3663
G01 X14.9795 Y33.3600
G01 X14.9609 Y33.3488
G01 X14.9443 Y33.3366
G01 X14.9369 Y33.3355
G01 X14.9299 Y33.3333
G01 X14.9222 Y33.3296
G01 X14.9162 Y33.3253
G01 X14.9117 Y33.3212
G01 X14.9085 Y33.3175
G01 X14.9050 Y33.3124
G01 X14.9022 Y33.3070
G01 X14.8968 Y33.3042
G01 X14.8927 Y33.3015
G01 X14.8855 Y33.2949
G01 X14.8809 Y33.2891
G01 X14.8768 Y33.2816
G01 X14.8714 Y33.2788
G01 X14.8673 Y33.2761
G01 X14.8626 Y33.2721
G01 X14.8592 Y33.2686
G01 X14.8549 Y33.2626
G01 X14.8509 Y33.2550
G01 X14.8483 Y33.2469
G01 X14.8472 Y33.2395
G01 X14.8350 Y33.2229
G01 X14.8238 Y33.2043
G01 X14.8165 Y33.1999
G01 X14.8109 Y33.1950
G01 X14.8061 Y33.1895
G01 X14.8022 Y33.1833
G01 X14.7992 Y33.1765
G01 X14.7973 Y33.1695
G01 X14.7964 Y33.1622
G01 X14.7963 Y33.1524
G00 Z5.0000
G00 X20.9291 Y26.0600
G01 F60.00
G01 Z0.0000
G01 F100.00
G01 X20.9291 Y29.6505
G01 X20.9781 Y29.6949
G01 X21.0434 Y29.7669
G01 X21.1034 Y29.8479
G01 X21.1533 Y29.9312
G01 X21.1944 Y30.0179
G01 X21.2282 Y30.1116
G01 X21.2524 Y30.2082
G01 X21.2671 Y30.3080
G01 X21.2717 Y30.4038
G01 X21.2671 Y30.4996
G01 X21.2529 Y30.5970
G01 X21.2285 Y30.6948
G01 X21.1954 Y30.7874
G01 X21.1533 Y30.8764
G01 X21.1027 Y30.9608
G01 X21.0441 Y31.0398
G01 X20.9781 Y31.1127
G01 X20.9052 Y31.1787
G01 X20.8262 Y31.2373
G01 X20.7418 Y31.2879
G01 X20.6528 Y31.3300
G01 X20.5602 Y31.3631
G01 X20.4648 Y31.3870
G01 X20.3675 Y31.4015
G01 X20.2692 Y31.4063
G01 X20.1709 Y31.4015
G01 X20.0760 Y31.3875
G01 X19.9759 Y31.3624
G01 X19.8856 Y31.3300
G01 X19.7966 Y31.2879
G01 X19.7122 Y31.2373
G01 X19.6352 Y31.1803
G01 X19.5586 Y31.1109
G01 X19.4943 Y31.0398
G01 X19.4357 Y30.9608
G01 X19.3851 Y30.8764
G01 X19.3440 Y30.7897
G01 X19.3092 Y30.6924
G01 X19.2860 Y30.5994
G01 X19.2714 Y30.5008
G01 X19.2668 Y30.4013
G01 X19.2715 Y30.3055
G01 X19.2855 Y30.2106
G01 X19.3099 Y30.1128
G01 X19.3426 Y30.0213
G01 X19.3851 Y29.9312
G01 X19.4363 Y29.8458
G01 X19.4959 Y29.7660
G01 X19.5603 Y29.6949
G01 X19.6093 Y29.6505
G01 X19.6093 Y26.0600
G01 X19.5685 Y26.0228
G01 X19.5049 Y25.9527
G01 X19.4469 Y25.8747
G01 X19.3963 Y25.7904
G01 X19.3543 Y25.7014
G01 X19.3214 Y25.6088
G01 X19.2984 Y25.5169
G01 X19.2845 Y25.4233
G01 X19.2794 Y25.3238
G01 X19.2841 Y25.2280
G01 X19.2984 Y25.1307
G01 X19.3220 Y25.0365
G01 X19.3547 Y24.9450
G01 X19.3963 Y24.8572
G01 X19.4462 Y24.7739
G01 X19.5041 Y24.6959
G01 X19.5693 Y24.6239
G01 X19.6403 Y24.5595
G01 X19.7193 Y24.5008
G01 X19.8026 Y24.4509
G01 X19.8904 Y24.4093
G01 X19.9819 Y24.3766
G01 X20.0761 Y24.3530
G01 X20.1722 Y24.3388
G01 X20.2692 Y24.3340
G01 X20.3662 Y24.3388
G01 X20.4623 Y24.3530
G01 X20.5565 Y24.3766
G01 X20.6480 Y24.4093
G01 X20.7358 Y24.4509
G01 X20.8191 Y24.5008
G01 X20.8971 Y24.5587
G01 X20.9691 Y24.6239
G01 X21.0335 Y24.6949
G01 X21.0922 Y24.7739
G01 X21.1421 Y24.8572
G01 X21.1837 Y24.9450
G01 X21.2164 Y25.0365
G01 X21.2400 Y25.1307
G01 X21.2542 Y25.2268
G01 X21.2590 Y25.3238
G01 X21.2543 Y25.4196
G01 X21.2400 Y25.5169
G01 X21.2164 Y25.6111
G01 X21.1837 Y25.7026
G01 X21.1427 Y25.7893
G01 X21.0922 Y25.8737
G01 X21.0351 Y25.9508
G01 X20.9699 Y26.0228
G01 X20.9291 Y26.0600
G00 Z5.0000
G00 X25.8000 Y24.3128
G01 F60.00
G01 Z0.0000
G01 F100.00
G01 X25.8715 Y24.3466
G01 X25.9648 Y24.4025
G01 X26.0521 Y24.4673
G01 X26.1335 Y24.5412
G01 X26.2057 Y24.6209
G01 X26.2705 Y24.7082
G01 X26.3264 Y24.8015
G01 X26.3733 Y24.9009
G01 X26.4095 Y25.0022
G01 X26.4359 Y25.1076
G01 X26.4519 Y25.2152
G01 X26.4572 Y25.3238
G01 X26.4519 Y25.4324
G01 X26.4359 Y25.5400
G01 X26.4095 Y25.6454
G01 X26.3733 Y25.7467
G01 X26.3264 Y25.8461
G01 X26.2705 Y25.9394
G01 X26.2057 Y26.0267
G01 X26.1344 Y26.1055
G01 X26.0521 Y26.1803
G01 X25.9668 Y26.2437
G01 X25.8693 Y26.3021
G01 X25.7732 Y26.3475
G01 X25.6708 Y26.3841
G01 X25.5654 Y26.4105
G01 X25.4578 Y26.4265
G01 X25.3492 Y26.4318
G01 X25.2406 Y26.4265
G01 X25.1330 Y26.4105
G01 X25.0287 Y26.3844
G01 X24.9229 Y26.3465
G01 X24.8269 Y26.3010
G01 X24.7336 Y26.2451
G01 X24.6463 Y26.1803
G01 X24.5675 Y26.1090
G01 X24.4927 Y26.0267
G01 X24.4279 Y25.9394
G01 X24.3732 Y25.8482
G01 X24.3255 Y25.7478
G01 X24.2889 Y25.6454
G01 X24.2630 Y25.5424
G01 X24.2464 Y25.4300
G01 X24.2412 Y25.3238
G01 X24.2464 Y25.2176
G01 X24.2625 Y25.1076
G01 X24.2889 Y25.0022
G01 X24.3247 Y24.9021
G01 X24.3726 Y24.8004
G01 X24.4279 Y24.7082
G01 X24.4912 Y24.6228
G01 X24.5666 Y24.5395
G01 X24.6463 Y24.4673
G01 X24.7326 Y24.4032
G01 X24.8258 Y24.3472
G01 X24.8868 Y24.3182
G01 X24.8730 Y23.2404
G01 X21.1469 Y23.2404
G01 X21.1409 Y23.2525
G01 X21.0908 Y23.3357
G01 X21.0343 Y23.4117
G01 X20.9691 Y23.4837
G01 X20.8952 Y23.5504
G01 X20.8191 Y23.6068
G01 X20.7358 Y23.6567
G01 X20.6480 Y23.6983
G01 X20.5589 Y23.7302
G01 X20.4623 Y23.7546
G01 X20.3662 Y23.7688
G01 X20.2717 Y23.7735
G01 X20.1710 Y23.7687
G01 X20.0761 Y23.7546
G01 X19.9795 Y23.7302
G01 X19.8904 Y23.6983
G01 X19.8048 Y23.6578
G01 X19.7214 Y23.6081
G01 X19.6413 Y23.5489
G01 X19.5693 Y23.4837
G01 X19.5041 Y23.4117
G01 X19.4462 Y23.3337
G01 X19.3963 Y23.2504
G01 X19.3547 Y23.1626
G01 X19.3220 Y23.0711
G01 X19.2980 Y22.9745
G01 X19.2842 Y22.8808
G01 X19.2795 Y22.7863
G01 X19.2840 Y22.6892
G01 X19.2984 Y22.5907
G01 X19.3217 Y22.4977
G01 X19.3557 Y22.4028
G01 X19.3963 Y22.3172
G01 X19.4462 Y22.2339
G01 X19.5041 Y22.1559
G01 X19.5676 Y22.0857
G01 X19.6432 Y22.0172
G01 X19.7193 Y21.9608
G01 X19.8026 Y21.9109
G01 X19.8904 Y21.8693
G01 X19.9795 Y21.8374
G01 X20.0785 Y21.8126
G01 X20.1722 Y21.7988
G01 X20.2680 Y21.7940
G01 X20.3687 Y21.7991
G01 X20.4623 Y21.8130
G01 X20.5565 Y21.8366
G01 X20.6502 Y21.8703
G01 X20.7358 Y21.9109
G01 X20.8170 Y21.9595
G01 X20.8990 Y22.0203
G01 X20.9691 Y22.0839
G01 X21.0327 Y22.1540
G01 X21.0922 Y22.2339
G01 X21.1409 Y22.3151
G01 X21.1469 Y22.3272
G01 X25.3238 Y22.3272
G01 X25.3615 Y22.3288
G01 X25.3710 Y22.3297
G01 X25.4059 Y22.3347
G01 X25.4129 Y22.3360
G01 X25.4507 Y22.3452
G01 X25.4575 Y22.3472
G01 X25.4908 Y22.3589
G01 X25.4997 Y22.3624
G01 X25.5328 Y22.3778
G01 X25.5390 Y22.3811
G01 X25.5726 Y22.4009
G01 X25.5785 Y22.4048
G01 X25.6070 Y22.4257
G01 X25.6144 Y22.4316
G01 X25.6425 Y22.4568
G01 X25.6475 Y22.4618
G01 X25.6714 Y22.4878
G01 X25.6775 Y22.4951
G01 X25.7002 Y22.5253
G01 X25.7041 Y22.5312
G01 X25.7225 Y22.5613
G01 X25.7276 Y22.5708
G01 X25.7429 Y22.6026
G01 X25.7456 Y22.6091
G01 X25.7586 Y22.6445
G01 X25.7611 Y22.6524
G01 X25.7699 Y22.6866
G01 X25.7719 Y22.6959
G01 X25.7774 Y22.7320
G01 X25.7782 Y22.7390
G01 X25.7804 Y22.7779
G01 X25.8000 Y24.3128
G00 Z5.0000
G00 X26.3636 Y27.4201
G01 F60.00
G01 Z0.0000
G01 F100.00
G01 X27.6806 Y27.4201
G01 X27.6847 Y27.4139
G01 X27.6905 Y27.4077
G01 X27.6963 Y27.4031
G01 X27.7038 Y27.3990
G01 X27.7086 Y27.3905
G01 X27.7150 Y27.3831
G01 X27.7217 Y27.3777
G01 X27.7292 Y27.3736
G01 X27.7340 Y27.3651
G01 X27.7404 Y27.3577
G01 X27.7471 Y27.3523
G01 X27.7546 Y27.3482
G01 X27.7594 Y27.3397
G01 X27.7649 Y27.3331
G01 X27.7715 Y27.3276
G01 X27.7800 Y27.3228
G01 X27.7848 Y27.3143
G01 X27.7903 Y27.3077
G01 X27.7969 Y27.3022
G01 X27.8054 Y27.2974
G01 X27.8102 Y27.2889
G01 X27.8157 Y27.2823
G01 X27.8223 Y27.2768
G01 X27.8308 Y27.2720
G01 X27.8336 Y27.2666
G01 X27.8363 Y27.2625
G01 X27.8395 Y27.2587
G01 X27.8438 Y27.2544
G01 X27.8519 Y27.2488
G01 X27.8562 Y27.2466
G01 X27.8620 Y27.2445
G01 X27.8716 Y27.2425
G01 X27.8838 Y27.2423
G01 X27.8879 Y27.2361
G01 X27.8937 Y27.2299
G01 X27.8995 Y27.2253
G01 X27.9070 Y27.2212
G01 X27.9118 Y27.2127
G01 X27.9173 Y27.2061
G01 X27.9239 Y27.2006
G01 X27.9324 Y27.1958
G01 X27.9372 Y27.1873
G01 X27.9427 Y27.1807
G01 X27.9493 Y27.1752
G01 X27.9578 Y27.1704
G01 X27.9626 Y27.1619
G01 X27.9681 Y27.1553
G01 X27.9747 Y27.1498
G01 X27.9832 Y27.1450
G01 X27.9880 Y27.1365
G01 X27.9935 Y27.1299
G01 X28.0001 Y27.1244
G01 X28.0086 Y27.1196
G01 X28.0134 Y27.1111
G01 X28.0189 Y27.1045
G01 X28.0255 Y27.0990
G01 X28.0340 Y27.0942
G01 X28.0388 Y27.0857
G01 X28.0443 Y27.0791
G01 X28.0509 Y27.0736
G01 X28.0594 Y27.0688
G01 X28.0642 Y27.0603
G01 X28.0697 Y27.0537
G01 X28.0763 Y27.0482
G01 X28.0848 Y27.0434
G01 X28.0896 Y27.0349
G01 X28.0951 Y27.0283
G01 X28.1017 Y27.0228
G01 X28.1102 Y27.0180
G01 X28.1150 Y27.0095
G01 X28.1205 Y27.0029
G01 X28.1271 Y26.9974
G01 X28.1356 Y26.9926
G01 X28.1404 Y26.9841
G01 X28.1459 Y26.9775
G01 X28.1525 Y26.9720
G01 X28.1610 Y26.9672
G01 X28.1658 Y26.9587
G01 X28.1713 Y26.9521
G01 X28.1779 Y26.9466
G01 X28.1864 Y26.9418
G01 X28.1912 Y26.9333
G01 X28.1967 Y26.9267
G01 X28.2033 Y26.9212
G01 X28.2118 Y26.9164
G01 X28.2166 Y26.9079
G01 X28.2221 Y26.9013
G01 X28.2287 Y26.8958
G01 X28.2372 Y26.8910
G01 X28.2420 Y26.8825
G01 X28.2475 Y26.8759
G01 X28.2541 Y26.8704
G01 X28.2626 Y26.8656
G01 X28.2674 Y26.8571
G01 X28.2729 Y26.8505
G01 X28.2795 Y26.8450
G01 X28.2880 Y26.8402
G01 X28.2928 Y26.8317
G01 X28.2983 Y26.8251
G01 X28.3049 Y26.8196
G01 X28.3134 Y26.8148
G01 X28.3182 Y26.8063
G01 X28.3237 Y26.7997
G01 X28.3303 Y26.7942
G01 X28.3388 Y26.7894
G01 X28.3436 Y26.7809
G01 X28.3491 Y26.7743
G01 X28.3557 Y26.7688
G01 X28.3642 Y26.7640
G01 X28.3690 Y26.7555
G01 X28.3745 Y26.7489
G01 X28.3811 Y26.7434
G01 X28.3896 Y26.7386
G01 X28.3944 Y26.7301
G01 X28.3999 Y26.7235
G01 X28.4065 Y26.7180
G01 X28.4150 Y26.7132
G01 X28.4198 Y26.7047
G01 X28.4253 Y26.6981
G01 X28.4319 Y26.6926
G01 X28.4404 Y26.6878
G01 X28.4452 Y26.6793
G01 X28.4507 Y26.6727
G01 X28.4573 Y26.6672
G01 X28.4658 Y26.6624
G01 X28.4706 Y26.6539
G01 X28.4761 Y26.6473
G01 X28.4827 Y26.6418
G01 X28.4912 Y26.6370
G01 X28.4960 Y26.6285
G01 X28.5015 Y26.6219
G01 X28.5081 Y26.6164
G01 X28.5166 Y26.6116
G01 X28.5214 Y26.6031
G01 X28.5269 Y26.5965
G01 X28.5335 Y26.5910
G01 X28.5420 Y26.5862
G01 X28.5468 Y26.5777
G01 X28.5523 Y26.5711
G01 X28.5589 Y26.5656
G01 X28.5674 Y26.5608
G01 X28.5722 Y26.5523
G01 X28.5777 Y26.5457
G01 X28.5843 Y26.5402
G01 X28.5928 Y26.5354
G01 X28.5976 Y26.5269
G01 X28.6031 Y26.5203
G01 X28.6097 Y26.5148
G01 X28.6182 Y26.5100
G01 X28.6230 Y26.5015
G01 X28.6285 Y26.4949
G01 X28.6351 Y26.4894
G01 X28.6436 Y26.4846
G01 X28.6484 Y26.4761
G01 X28.6539 Y26.4695
G01 X28.6605 Y26.4640
G01 X28.6690 Y26.4592
G01 X28.6738 Y26.4507
G01 X28.6793 Y26.4441
G01 X28.6859 Y26.4386
G01 X28.6944 Y26.4338
G01 X28.6992 Y26.4253
G01 X28.7047 Y26.4187
G01 X28.7113 Y26.4132
G01 X28.7198 Y26.4084
G01 X28.7246 Y26.3999
G01 X28.7301 Y26.3933
G01 X28.7367 Y26.3878
G01 X28.7452 Y26.3830
G01 X28.7500 Y26.3745
G01 X28.7555 Y26.3679
G01 X28.7621 Y26.3624
G01 X28.7706 Y26.3576
G01 X28.7754 Y26.3491
G01 X28.7809 Y26.3425
G01 X28.7875 Y26.3370
G01 X28.7960 Y26.3322
G01 X28.8008 Y26.3237
G01 X28.8063 Y26.3171
G01 X28.8129 Y26.3116
G01 X28.8214 Y26.3068
G01 X28.8262 Y26.2983
G01 X28.8317 Y26.2917
G01 X28.8383 Y26.2862
G01 X28.8468 Y26.2814
G01 X28.8516 Y26.2729
G01 X28.8571 Y26.2663
G01 X28.8637 Y26.2608
G01 X28.8722 Y26.2560
G01 X28.8770 Y26.2475
G01 X28.8825 Y26.2409
G01 X28.8891 Y26.2354
G01 X28.8976 Y26.2306
G01 X28.9024 Y26.2221
G01 X28.9079 Y26.2155
G01 X28.9145 Y26.2100
G01 X28.9230 Y26.2052
G01 X28.9278 Y26.1967
G01 X28.9333 Y26.1901
G01 X28.9399 Y26.1846
G01 X28.9484 Y26.1798
G01 X28.9532 Y26.1713
G01 X28.9587 Y26.1647
G01 X28.9653 Y26.1592
G01 X28.9738 Y26.1544
G01 X28.9786 Y26.1459
G01 X28.9841 Y26.1393
G01 X28.9907 Y26.1338
G01 X28.9992 Y26.1290
G01 X29.0040 Y26.1205
G01 X29.0095 Y26.1139
G01 X29.0161 Y26.1084
G01 X29.0246 Y26.1036
G01 X29.0294 Y26.0951
G01 X29.0349 Y26.0885
G01 X29.0415 Y26.0830
G01 X29.0500 Y26.0782
G01 X29.0548 Y26.0697
G01 X29.0603 Y26.0631
G01 X29.0669 Y26.0576
G01 X29.0754 Y26.0528
G01 X29.0802 Y26.0443
G01 X29.0857 Y26.0377
G01 X29.0923 Y26.0322
G01 X29.1008 Y26.0274
G01 X29.1056 Y26.0189
G01 X29.1111 Y26.0123
G01 X29.1177 Y26.0068
G01 X29.1262 Y26.0020
G01 X29.1310 Y25.9935
G01 X29.1365 Y25.9869
G01 X29.1431 Y25.9814
G01 X29.1516 Y25.9766
G01 X29.1564 Y25.9681
G01 X29.1619 Y25.9615
G01 X29.1685 Y25.9560
G01 X29.1770 Y25.9512
G01 X29.1818 Y25.9427
G01 X29.1873 Y25.9361
G01 X29.1939 Y25.9306
G01 X29.2024 Y25.9258
G01 X29.2072 Y25.9173
G01 X29.2127 Y25.9107
G01 X29.2193 Y25.9052
G01 X29.2278 Y25.9004
G01 X29.2326 Y25.8919
G01 X29.2381 Y25.8853
G01 X29.2447 Y25.8798
G01 X29.2532 Y25.8750
G01 X29.2580 Y25.8665
G01 X29.2635 Y25.8599
G01 X29.2701 Y25.8544
G01 X29.2786 Y25.8496
G01 X29.2834 Y25.8411
G01 X29.2889 Y25.8345
G01 X29.2955 Y25.8290
G01 X29.3040 Y25.8242
G01 X29.3088 Y25.8157
G01 X29.3143 Y25.8091
G01 X29.3209 Y25.8036
G01 X29.3294 Y25.7988
G01 X29.3342 Y25.7903
G01 X29.3397 Y25.7837
G01 X29.3463 Y25.7782
G01 X29.3548 Y25.7734
G01 X29.3596 Y25.7649
G01 X29.3651 Y25.7583
G01 X29.3717 Y25.7528
G01 X29.3802 Y25.7480
G01 X29.3850 Y25.7395
G01 X29.3905 Y25.7329
G01 X29.3971 Y25.7274
G01 X29.4056 Y25.7226
G01 X29.4104 Y25.7141
G01 X29.4159 Y25.7075
G01 X29.4225 Y25.7020
G01 X29.4310 Y25.6972
G01 X29.4358 Y25.6887
G01 X29.4413 Y25.6821
G01 X29.4479 Y25.6766
G01 X29.4564 Y25.6718
G01 X29.4612 Y25.6633
G01 X29.4667 Y25.6567
G01 X29.4733 Y25.6512
G01 X29.4818 Y25.6464
G01 X29.4866 Y25.6379
G01 X29.4921 Y25.6313
G01 X29.4987 Y25.6258
G01 X29.5072 Y25.6210
G01 X29.5120 Y25.6125
G01 X29.5175 Y25.6059
G01 X29.5241 Y25.6004
G01 X29.5326 Y25.5956
G01 X29.5374 Y25.5871
G01 X29.5429 Y25.5805
G01 X29.5495 Y25.5750
G01 X29.5580 Y25.5702
G01 X29.5628 Y25.5617
G01 X29.5683 Y25.5551
G01 X29.5749 Y25.5496
G01 X29.5834 Y25.5448
G01 X29.5882 Y25.5363
G01 X29.5937 Y25.5297
G01 X29.6003 Y25.5242
G01 X29.6088 Y25.5194
G01 X29.6136 Y25.5109
G01 X29.6191 Y25.5043
G01 X29.6257 Y25.4988
G01 X29.6342 Y25.4940
G01 X29.6390 Y25.4855
G01 X29.6445 Y25.4789
G01 X29.6511 Y25.4734
G01 X29.6596 Y25.4686
G01 X29.6644 Y25.4601
G01 X29.6699 Y25.4535
G01 X29.6765 Y25.4480
G01 X29.6850 Y25.4432
G01 X29.6898 Y25.4347
G01 X29.6953 Y25.4281
G01 X29.7019 Y25.4226
G01 X29.7104 Y25.4178
G01 X29.7152 Y25.4093
G01 X29.7207 Y25.4027
G01 X29.7273 Y25.3972
G01 X29.7358 Y25.3924
G01 X29.7406 Y25.3839
G01 X29.7461 Y25.3773
G01 X29.7527 Y25.3718
G01 X29.7612 Y25.3670
G01 X29.7660 Y25.3585
G01 X29.7715 Y25.3519
G01 X29.7781 Y25.3464
G01 X29.7866 Y25.3416
G01 X29.7914 Y25.3331
G01 X29.7969 Y25.3265
G01 X29.8035 Y25.3210
G01 X29.8120 Y25.3162
G01 X29.8168 Y25.3077
G01 X29.8223 Y25.3011
G01 X29.8289 Y25.2956
G01 X29.8374 Y25.2908
G01 X29.8415 Y25.2833
G01 X29.8469 Y25.2766
G01 X29.8543 Y25.2702
G01 X29.8628 Y25.2654
G01 X29.8669 Y25.2579
G01 X29.8723 Y25.2512
G01 X29.8797 Y25.2448
G01 X29.8882 Y25.2400
G01 X29.8923 Y25.2325
G01 X29.8977 Y25.2258
G01 X29.9051 Y25.2194
G01 X29.9136 Y25.2146
G01 X29.9177 Y25.2071
G01 X29.9231 Y25.2004
G01 X29.9305 Y25.1940
G01 X29.9390 Y25.1892
G01 X29.9431 Y25.1817
G01 X29.9477 Y25.1759
G01 X29.9549 Y25.1693
G01 X29.9590 Y25.1666
G01 X29.9644 Y25.1638
G01 X29.9679 Y25.1573
G01 X29.9722 Y25.1514
G01 X29.9756 Y25.1479
G01 X29.9803 Y25.1439
G01 X29.9844 Y25.1412
G01 X29.9898 Y25.1384
G01 X29.9933 Y25.1319
G01 X29.9980 Y25.1256
G01 X29.9980 Y18.5955
G01 X29.9810 Y18.5873
G01 X29.8976 Y18.5373
G01 X29.8168 Y18.4771
G01 X29.7457 Y18.4127
G01 X29.6813 Y18.3416
G01 X29.6197 Y18.2587
G01 X29.5705 Y18.1764
G01 X29.5294 Y18.0897
G01 X29.4953 Y17.9948
G01 X29.4714 Y17.8994
G01 X29.4572 Y17.8045
G01 X29.4521 Y17.7038
G01 X29.4569 Y17.6055
G01 X29.4709 Y17.5106
G01 X29.4953 Y17.4128
G01 X29.5294 Y17.3179
G01 X29.5705 Y17.2312
G01 X29.6197 Y17.1489
G01 X29.6813 Y17.0660
G01 X29.7457 Y16.9949
G01 X29.8168 Y16.9305
G01 X29.8976 Y16.8703
G01 X29.9810 Y16.8203
G01 X29.9980 Y16.8121
G01 X29.9980 Y13.1046
G01 X21.1717 Y13.0816
G01 X21.1663 Y13.0925
G01 X21.1162 Y13.1757
G01 X21.0597 Y13.2517
G01 X20.9945 Y13.3237
G01 X20.9206 Y13.3904
G01 X20.8445 Y13.4468
G01 X20.7612 Y13.4967
G01 X20.6734 Y13.5383
G01 X20.5843 Y13.5702
G01 X20.4877 Y13.5946
G01 X20.3916 Y13.6088
G01 X20.2971 Y13.6135
G01 X20.1951 Y13.6085
G01 X20.1015 Y13.5946
G01 X20.0073 Y13.5710
G01 X19.9158 Y13.5383
G01 X19.8302 Y13.4978
G01 X19.7427 Y13.4454
G01 X19.6667 Y13.3889
G01 X19.5947 Y13.3237
G01 X19.5295 Y13.2517
G01 X19.4730 Y13.1757
G01 X19.4206 Y13.0882
G01 X19.3801 Y13.0026
G01 X19.3474 Y12.9111
G01 X19.3238 Y12.8169
G01 X19.3099 Y12.7233
G01 X19.3049 Y12.6213
G01 X19.3096 Y12.5268
G01 X19.3238 Y12.4307
G01 X19.3474 Y12.3365
G01 X19.3793 Y12.2473
G01 X19.4229 Y12.1551
G01 X19.4716 Y12.0739
G01 X19.5295 Y11.9959
G01 X19.5947 Y11.9239
G01 X19.6648 Y11.8603
G01 X19.7468 Y11.7995
G01 X19.8280 Y11.7509
G01 X19.9147 Y11.7098
G01 X20.0073 Y11.6766
G01 X20.1015 Y11.6530
G01 X20.1976 Y11.6388
G01 X20.2946 Y11.6340
G01 X20.3916 Y11.6388
G01 X20.4877 Y11.6530
G01 X20.5819 Y11.6766
G01 X20.6711 Y11.7085
G01 X20.7612 Y11.7509
G01 X20.8445 Y11.8008
G01 X20.9225 Y11.8587
G01 X20.9927 Y11.9222
G01 X21.0597 Y11.9959
G01 X21.1162 Y12.0719
G01 X21.1663 Y12.1551
G01 X21.1729 Y12.1684
G01 X30.4558 Y12.1926
G01 X30.4969 Y12.1946
G01 X30.5030 Y12.1952
G01 X30.5448 Y12.2016
G01 X30.5860 Y12.2119
G01 X30.6270 Y12.2265
G01 X30.6327 Y12.2288
G01 X30.6709 Y12.2471
G01 X30.7083 Y12.2696
G01 X30.7423 Y12.2947
G01 X30.7470 Y12.2986
G01 X30.7783 Y12.3272
G01 X30.8076 Y12.3595
G01 X30.8328 Y12.3935
G01 X30.8362 Y12.3986
G01 X30.8578 Y12.4350
G01 X30.8764 Y12.4745
G01 X30.8908 Y12.5143
G01 X30.8925 Y12.5202
G01 X30.9027 Y12.5613
G01 X30.9089 Y12.6032
G01 X30.9112 Y12.6492
G01 X30.9112 Y14.7326
G01 X53.3416 Y14.7326
G01 X53.3848 Y14.7348
G01 X53.4267 Y14.7410
G01 X53.4330 Y14.7422
G01 X53.4725 Y14.7523
G01 X53.5124 Y14.7665
G01 X53.5184 Y14.7690
G01 X53.5566 Y14.7873
G01 X53.5937 Y14.8096
G01 X53.6277 Y14.8347
G01 X53.6327 Y14.8389
G01 X53.6640 Y14.8674
G01 X53.6930 Y14.8995
G01 X53.7182 Y14.9335
G01 X53.7218 Y14.9389
G01 X53.7434 Y14.9753
G01 X53.7614 Y15.0133
G01 X53.7769 Y15.0567
G01 X53.7878 Y15.1001
G01 X53.7944 Y15.1444
G01 X53.7966 Y15.1892
G01 X53.7473 Y29.5128
G01 X53.7628 Y29.5203
G01 X53.8462 Y29.5703
G01 X53.9270 Y29.6305
G01 X53.9981 Y29.6949
G01 X54.0625 Y29.7660
G01 X54.1241 Y29.8489
G01 X54.1733 Y29.9312
G01 X54.2144 Y30.0179
G01 X54.2485 Y30.1128
G01 X54.2729 Y30.2106
G01 X54.2869 Y30.3055
G01 X54.2917 Y30.4038
G01 X54.2866 Y30.5045
G01 X54.2724 Y30.5994
G01 X54.2485 Y30.6948
G01 X54.2154 Y30.7874
G01 X54.1744 Y30.8742
G01 X54.1227 Y30.9608
G01 X54.0641 Y31.0398
G01 X53.9998 Y31.1109
G01 X53.9252 Y31.1787
G01 X53.8441 Y31.2387
G01 X53.7618 Y31.2879
G01 X53.6740 Y31.3295
G01 X53.5802 Y31.3631
G01 X53.4824 Y31.3875
G01 X53.3875 Y31.4015
G01 X53.2917 Y31.4062
G01 X53.1909 Y31.4015
G01 X53.0936 Y31.3870
G01 X52.9959 Y31.3624
G01 X52.9056 Y31.3300
G01 X52.8188 Y31.2890
G01 X52.7343 Y31.2387
G01 X52.6532 Y31.1787
G01 X52.5803 Y31.1127
G01 X52.5143 Y31.0398
G01 X52.4543 Y30.9587
G01 X52.4051 Y30.8764
G01 X52.3640 Y30.7897
G01 X52.3306 Y30.6971
G01 X52.3060 Y30.5994
G01 X52.2913 Y30.4996
G01 X52.2867 Y30.4038
G01 X52.2913 Y30.3080
G01 X52.3060 Y30.2082
G01 X52.3299 Y30.1128
G01 X52.3621 Y30.0225
G01 X52.4051 Y29.9312
G01 X52.4571 Y29.8448
G01 X52.5143 Y29.7678
G01 X52.5803 Y29.6949
G01 X52.6532 Y29.6289
G01 X52.7302 Y29.5717
G01 X52.8156 Y29.5203
G01 X52.8341 Y29.5113
G01 X52.8818 Y15.6458
G01 X30.9112 Y15.6458
G01 X30.9112 Y16.8121
G01 X30.9282 Y16.8203
G01 X31.0116 Y16.8703
G01 X31.0924 Y16.9305
G01 X31.1635 Y16.9949
G01 X31.2279 Y17.0660
G01 X31.2895 Y17.1489
G01 X31.3387 Y17.2312
G01 X31.3798 Y17.3179
G01 X31.4139 Y17.4128
G01 X31.4383 Y17.5106
G01 X31.4523 Y17.6055
G01 X31.4571 Y17.7038
G01 X31.4520 Y17.8045
G01 X31.4378 Y17.8994
G01 X31.4139 Y17.9948
G01 X31.3798 Y18.0897
G01 X31.3387 Y18.1764
G01 X31.2895 Y18.2587
G01 X31.2279 Y18.3416
G01 X31.1635 Y18.4127
G01 X31.0924 Y18.4771
G01 X31.0116 Y18.5373
G01 X30.9282 Y18.5873
G01 X30.9112 Y18.5955
G01 X30.9112 Y24.8801
G01 X31.9548 Y24.8801
G01 X31.9920 Y24.8015
G01 X32.0479 Y24.7082
G01 X32.1127 Y24.6209
G01 X32.1840 Y24.5421
G01 X32.2682 Y24.4658
G01 X32.3536 Y24.4025
G01 X32.4469 Y24.3466
G01 X32.5452 Y24.3001
G01 X32.6476 Y24.2635
G01 X32.7530 Y24.2371
G01 X32.8582 Y24.2214
G01 X32.9717 Y24.2159
G01 X33.0778 Y24.2211
G01 X33.1854 Y24.2371
G01 X33.2908 Y24.2635
G01 X33.3932 Y24.3001
G01 X33.4915 Y24.3466
G01 X33.5848 Y24.4025
G01 X33.6721 Y24.4673
G01 X33.7527 Y24.5403
G01 X33.8257 Y24.6209
G01 X33.8905 Y24.7082
G01 X33.9464 Y24.8015
G01 X33.9929 Y24.8998
G01 X34.0295 Y25.0022
G01 X34.0559 Y25.1076
G01 X34.0719 Y25.2152
G01 X34.0772 Y25.3238
G01 X34.0719 Y25.4324
G01 X34.0559 Y25.5400
G01 X34.0295 Y25.6454
G01 X33.9937 Y25.7455
G01 X33.9452 Y25.8482
G01 X33.8905 Y25.9394
G01 X33.8257 Y26.0267
G01 X33.7527 Y26.1073
G01 X33.6740 Y26.1787
G01 X33.5827 Y26.2464
G01 X33.4915 Y26.3010
G01 X33.3932 Y26.3475
G01 X33.2908 Y26.3841
G01 X33.1878 Y26.4100
G01 X33.0766 Y26.4266
G01 X32.9692 Y26.4318
G01 X32.8630 Y26.4266
G01 X32.7530 Y26.4105
G01 X32.6476 Y26.3841
G01 X32.5475 Y26.3483
G01 X32.4458 Y26.3004
G01 X32.3536 Y26.2451
G01 X32.2682 Y26.1818
G01 X32.1849 Y26.1064
G01 X32.1127 Y26.0267
G01 X32.0486 Y25.9404
G01 X31.9926 Y25.8472
G01 X31.9668 Y25.7929
G01 X30.6378 Y25.7929
G01 X30.6337 Y25.7991
G01 X30.6279 Y25.8053
G01 X30.6221 Y25.8099
G01 X30.6146 Y25.8140
G01 X30.6098 Y25.8225
G01 X30.6034 Y25.8299
G01 X30.5967 Y25.8353
G01 X30.5892 Y25.8394
G01 X30.5844 Y25.8479
G01 X30.5780 Y25.8553
G01 X30.5713 Y25.8607
G01 X30.5638 Y25.8648
G01 X30.5590 Y25.8733
G01 X30.5535 Y25.8799
G01 X30.5469 Y25.8854
G01 X30.5384 Y25.8902
G01 X30.5336 Y25.8987
G01 X30.5281 Y25.9053
G01 X30.5215 Y25.9108
G01 X30.5130 Y25.9156
G01 X30.5082 Y25.9241
G01 X30.5027 Y25.9307
G01 X30.4961 Y25.9362
G01 X30.4876 Y25.9410
G01 X30.4828 Y25.9495
G01 X30.4773 Y25.9561
G01 X30.4707 Y25.9616
G01 X30.4622 Y25.9664
G01 X30.4574 Y25.9749
G01 X30.4519 Y25.9815
G01 X30.4453 Y25.9870
G01 X30.4368 Y25.9918
G01 X30.4320 Y26.0003
G01 X30.4265 Y26.0069
G01 X30.4199 Y26.0124
G01 X30.4114 Y26.0172
G01 X30.4066 Y26.0257
G01 X30.4011 Y26.0323
G01 X30.3945 Y26.0378
G01 X30.3860 Y26.0426
G01 X30.3812 Y26.0511
G01 X30.3757 Y26.0577
G01 X30.3691 Y26.0632
G01 X30.3606 Y26.0680
G01 X30.3558 Y26.0765
G01 X30.3503 Y26.0831
G01 X30.3437 Y26.0886
G01 X30.3352 Y26.0934
G01 X30.3304 Y26.1019
G01 X30.3249 Y26.1085
G01 X30.3183 Y26.1140
G01 X30.3098 Y26.1188
G01 X30.3050 Y26.1273
G01 X30.2995 Y26.1339
G01 X30.2929 Y26.1394
G01 X30.2844 Y26.1442
G01 X30.2796 Y26.1527
G01 X30.2741 Y26.1593
G01 X30.2675 Y26.1648
G01 X30.2590 Y26.1696
G01 X30.2542 Y26.1781
G01 X30.2487 Y26.1847
G01 X30.2421 Y26.1902
G01 X30.2336 Y26.1950
G01 X30.2288 Y26.2035
G01 X30.2233 Y26.2101
G01 X30.2167 Y26.2156
G01 X30.2082 Y26.2204
G01 X30.2034 Y26.2289
G01 X30.1979 Y26.2355
G01 X30.1913 Y26.2410
G01 X30.1828 Y26.2458
G01 X30.1780 Y26.2543
G01 X30.1725 Y26.2609
G01 X30.1659 Y26.2664
G01 X30.1574 Y26.2712
G01 X30.1526 Y26.2797
G01 X30.1471 Y26.2863
G01 X30.1405 Y26.2918
G01 X30.1320 Y26.2966
G01 X30.1272 Y26.3051
G01 X30.1217 Y26.3117
G01 X30.1151 Y26.3172
G01 X30.1066 Y26.3220
G01 X30.1018 Y26.3305
G01 X30.0963 Y26.3371
G01 X30.0897 Y26.3426
G01 X30.0812 Y26.3474
G01 X30.0764 Y26.3559
G01 X30.0709 Y26.3625
G01 X30.0643 Y26.3680
G01 X30.0558 Y26.3728
G01 X30.0510 Y26.3813
G01 X30.0455 Y26.3879
G01 X30.0389 Y26.3934
G01 X30.0304 Y26.3982
G01 X30.0256 Y26.4067
G01 X30.0201 Y26.4133
G01 X30.0135 Y26.4188
G01 X30.0050 Y26.4236
G01 X30.0002 Y26.4321
G01 X29.9947 Y26.4387
G01 X29.9881 Y26.4442
G01 X29.9796 Y26.4490
G01 X29.9748 Y26.4575
G01 X29.9693 Y26.4641
G01 X29.9627 Y26.4696
G01 X29.9542 Y26.4744
G01 X29.9494 Y26.4829
G01 X29.9439 Y26.4895
G01 X29.9373 Y26.4950
G01 X29.9288 Y26.4998
G01 X29.9240 Y26.5083
G01 X29.9185 Y26.5149
G01 X29.9119 Y26.5204
G01 X29.9034 Y26.5252
G01 X29.8986 Y26.5337
G01 X29.8931 Y26.5403
G01 X29.8865 Y26.5458
G01 X29.8780 Y26.5506
G01 X29.8732 Y26.5591
G01 X29.8677 Y26.5657
G01 X29.8611 Y26.5712
G01 X29.8526 Y26.5760
G01 X29.8478 Y26.5845
G01 X29.8423 Y26.5911
G01 X29.8357 Y26.5966
G01 X29.8272 Y26.6014
G01 X29.8224 Y26.6099
G01 X29.8169 Y26.6165
G01 X29.8103 Y26.6220
G01 X29.8018 Y26.6268
G01 X29.7970 Y26.6353
G01 X29.7915 Y26.6419
G01 X29.7849 Y26.6474
G01 X29.7764 Y26.6522
G01 X29.7716 Y26.6607
G01 X29.7661 Y26.6673
G01 X29.7595 Y26.6728
G01 X29.7510 Y26.6776
G01 X29.7462 Y26.6861
G01 X29.7407 Y26.6927
G01 X29.7341 Y26.6982
G01 X29.7256 Y26.7030
G01 X29.7208 Y26.7115
G01 X29.7153 Y26.7181
G01 X29.7087 Y26.7236
G01 X29.7002 Y26.7284
G01 X29.6954 Y26.7369
G01 X29.6899 Y26.7435
G01 X29.6833 Y26.7490
G01 X29.6748 Y26.7538
G01 X29.6700 Y26.7623
G01 X29.6645 Y26.7689
G01 X29.6579 Y26.7744
G01 X29.6494 Y26.7792
G01 X29.6446 Y26.7877
G01 X29.6391 Y26.7943
G01 X29.6325 Y26.7998
G01 X29.6240 Y26.8046
G01 X29.6192 Y26.8131
G01 X29.6137 Y26.8197
G01 X29.6071 Y26.8252
G01 X29.5986 Y26.8300
G01 X29.5938 Y26.8385
G01 X29.5883 Y26.8451
G01 X29.5817 Y26.8506
G01 X29.5732 Y26.8554
G01 X29.5684 Y26.8639
G01 X29.5629 Y26.8705
G01 X29.5563 Y26.8760
G01 X29.5478 Y26.8808
G01 X29.5430 Y26.8893
G01 X29.5375 Y26.8959
G01 X29.5309 Y26.9014
G01 X29.5224 Y26.9062
G01 X29.5176 Y26.9147
G01 X29.5121 Y26.9213
G01 X29.5055 Y26.9268
G01 X29.4970 Y26.9316
G01 X29.4922 Y26.9401
G01 X29.4867 Y26.9467
G01 X29.4801 Y26.9522
G01 X29.4716 Y26.9570
G01 X29.4668 Y26.9655
G01 X29.4613 Y26.9721
G01 X29.4547 Y26.9776
G01 X29.4462 Y26.9824
G01 X29.4414 Y26.9909
G01 X29.4359 Y26.9975
G01 X29.4293 Y27.0030
G01 X29.4208 Y27.0078
G01 X29.4160 Y27.0163
G01 X29.4105 Y27.0229
G01 X29.4039 Y27.0284
G01 X29.3954 Y27.0332
G01 X29.3906 Y27.0417
G01 X29.3851 Y27.0483
G01 X29.3785 Y27.0538
G01 X29.3700 Y27.0586
G01 X29.3652 Y27.0671
G01 X29.3597 Y27.0737
G01 X29.3531 Y27.0792
G01 X29.3446 Y27.0840
G01 X29.3398 Y27.0925
G01 X29.3343 Y27.0991
G01 X29.3277 Y27.1046
G01 X29.3192 Y27.1094
G01 X29.3144 Y27.1179
G01 X29.3089 Y27.1245
G01 X29.3023 Y27.1300
G01 X29.2938 Y27.1348
G01 X29.2890 Y27.1433
G01 X29.2835 Y27.1499
G01 X29.2769 Y27.1554
G01 X29.2684 Y27.1602
G01 X29.2636 Y27.1687
G01 X29.2581 Y27.1753
G01 X29.2515 Y27.1808
G01 X29.2430 Y27.1856
G01 X29.2382 Y27.1941
G01 X29.2327 Y27.2007
G01 X29.2261 Y27.2062
G01 X29.2176 Y27.2110
G01 X29.2128 Y27.2195
G01 X29.2073 Y27.2261
G01 X29.2007 Y27.2316
G01 X29.1922 Y27.2364
G01 X29.1874 Y27.2449
G01 X29.1819 Y27.2515
G01 X29.1753 Y27.2570
G01 X29.1668 Y27.2618
G01 X29.1620 Y27.2703
G01 X29.1565 Y27.2769
G01 X29.1499 Y27.2824
G01 X29.1414 Y27.2872
G01 X29.1366 Y27.2957
G01 X29.1311 Y27.3023
G01 X29.1245 Y27.3078
G01 X29.1160 Y27.3126
G01 X29.1112 Y27.3211
G01 X29.1057 Y27.3277
G01 X29.0991 Y27.3332
G01 X29.0906 Y27.3380
G01 X29.0858 Y27.3465
G01 X29.0803 Y27.3531
G01 X29.0737 Y27.3586
G01 X29.0652 Y27.3634
G01 X29.0604 Y27.3719
G01 X29.0549 Y27.3785
G01 X29.0483 Y27.3840
G01 X29.0398 Y27.3888
G01 X29.0350 Y27.3973
G01 X29.0295 Y27.4039
G01 X29.0229 Y27.4094
G01 X29.0144 Y27.4142
G01 X29.0096 Y27.4227
G01 X29.0041 Y27.4293
G01 X28.9975 Y27.4348
G01 X28.9890 Y27.4396
G01 X28.9842 Y27.4481
G01 X28.9787 Y27.4547
G01 X28.9721 Y27.4602
G01 X28.9636 Y27.4650
G01 X28.9588 Y27.4735
G01 X28.9533 Y27.4801
G01 X28.9467 Y27.4856
G01 X28.9382 Y27.4904
G01 X28.9334 Y27.4989
G01 X28.9279 Y27.5055
G01 X28.9213 Y27.5110
G01 X28.9128 Y27.5158
G01 X28.9080 Y27.5243
G01 X28.9025 Y27.5309
G01 X28.8959 Y27.5364
G01 X28.8874 Y27.5412
G01 X28.8826 Y27.5497
G01 X28.8771 Y27.5563
G01 X28.8705 Y27.5618
G01 X28.8620 Y27.5666
G01 X28.8572 Y27.5751
G01 X28.8517 Y27.5817
G01 X28.8451 Y27.5872
G01 X28.8366 Y27.5920
G01 X28.8318 Y27.6005
G01 X28.8263 Y27.6071
G01 X28.8197 Y27.6126
G01 X28.8112 Y27.6174
G01 X28.8064 Y27.6259
G01 X28.8009 Y27.6325
G01 X28.7943 Y27.6380
G01 X28.7858 Y27.6428
G01 X28.7810 Y27.6513
G01 X28.7755 Y27.6579
G01 X28.7689 Y27.6634
G01 X28.7604 Y27.6682
G01 X28.7556 Y27.6767
G01 X28.7501 Y27.6833
G01 X28.7435 Y27.6888
G01 X28.7350 Y27.6936
G01 X28.7302 Y27.7021
G01 X28.7247 Y27.7087
G01 X28.7181 Y27.7142
G01 X28.7096 Y27.7190
G01 X28.7048 Y27.7275
G01 X28.6993 Y27.7341
G01 X28.6927 Y27.7396
G01 X28.6842 Y27.7444
G01 X28.6794 Y27.7529
G01 X28.6739 Y27.7595
G01 X28.6673 Y27.7650
G01 X28.6588 Y27.7698
G01 X28.6540 Y27.7783
G01 X28.6485 Y27.7849
G01 X28.6419 Y27.7904
G01 X28.6334 Y27.7952
G01 X28.6286 Y27.8037
G01 X28.6231 Y27.8103
G01 X28.6165 Y27.8158
G01 X28.6080 Y27.8206
G01 X28.6032 Y27.8291
G01 X28.5977 Y27.8357
G01 X28.5911 Y27.8412
G01 X28.5826 Y27.8460
G01 X28.5798 Y27.8514
G01 X28.5771 Y27.8555
G01 X28.5731 Y27.8602
G01 X28.5693 Y27.8638
G01 X28.5731 Y27.8674
G01 X28.5771 Y27.8721
G01 X28.5798 Y27.8762
G01 X28.5826 Y27.8816
G01 X28.5880 Y27.8844
G01 X28.5921 Y27.8871
G01 X28.5993 Y27.8937
G01 X28.6039 Y27.8995
G01 X28.6080 Y27.9070
G01 X28.6165 Y27.9118
G01 X28.6239 Y27.9182
G01 X28.6293 Y27.9249
G01 X28.6334 Y27.9324
G01 X28.6419 Y27.9372
G01 X28.6493 Y27.9436
G01 X28.6547 Y27.9503
G01 X28.6588 Y27.9578
G01 X28.6673 Y27.9626
G01 X28.6747 Y27.9690
G01 X28.6801 Y27.9757
G01 X28.6842 Y27.9832
G01 X28.6927 Y27.9880
G01 X28.7001 Y27.9944
G01 X28.7055 Y28.0011
G01 X28.7096 Y28.0086
G01 X28.7181 Y28.0134
G01 X28.7255 Y28.0198
G01 X28.7309 Y28.0265
G01 X28.7350 Y28.0340
G01 X28.7435 Y28.0388
G01 X28.7501 Y28.0443
G01 X28.7556 Y28.0509
G01 X28.7604 Y28.0594
G01 X28.7689 Y28.0642
G01 X28.7755 Y28.0697
G01 X28.7810 Y28.0763
G01 X28.7858 Y28.0848
G01 X28.7943 Y28.0896
G01 X28.8009 Y28.0951
G01 X28.8064 Y28.1017
G01 X28.8112 Y28.1102
G01 X28.8197 Y28.1150
G01 X28.8263 Y28.1205
G01 X28.8318 Y28.1271
G01 X28.8366 Y28.1356
G01 X28.8451 Y28.1404
G01 X28.8517 Y28.1459
G01 X28.8572 Y28.1525
G01 X28.8620 Y28.1610
G01 X28.8705 Y28.1658
G01 X28.8771 Y28.1713
G01 X28.8826 Y28.1779
G01 X28.8874 Y28.1864
G01 X28.8959 Y28.1912
G01 X28.9025 Y28.1967
G01 X28.9080 Y28.2033
G01 X28.9128 Y28.2118
G01 X28.9213 Y28.2166
G01 X28.9279 Y28.2221
G01 X28.9334 Y28.2287
G01 X28.9382 Y28.2372
G01 X28.9467 Y28.2420
G01 X28.9533 Y28.2475
G01 X28.9588 Y28.2541
G01 X28.9636 Y28.2626
G01 X28.9721 Y28.2674
G01 X28.9787 Y28.2729
G01 X28.9842 Y28.2795
G01 X28.9890 Y28.2880
G01 X28.9975 Y28.2928
G01 X29.0041 Y28.2983
G01 X29.0096 Y28.3049
G01 X29.0144 Y28.3134
G01 X29.0229 Y28.3182
G01 X29.0295 Y28.3237
G01 X29.0350 Y28.3303
G01 X29.0398 Y28.3388
G01 X29.0483 Y28.3436
G01 X29.0549 Y28.3491
G01 X29.0604 Y28.3557
G01 X29.0652 Y28.3642
G01 X29.0737 Y28.3690
G01 X29.0803 Y28.3745
G01 X29.0858 Y28.3811
G01 X29.0906 Y28.3896
G01 X29.0991 Y28.3944
G01 X29.1057 Y28.3999
G01 X29.1112 Y28.4065
G01 X29.1160 Y28.4150
G01 X29.1245 Y28.4198
G01 X29.1311 Y28.4253
G01 X29.1366 Y28.4319
G01 X29.1414 Y28.4404
G01 X29.1499 Y28.4452
G01 X29.1565 Y28.4507
G01 X29.1620 Y28.4573
G01 X29.1668 Y28.4658
G01 X29.1753 Y28.4706
G01 X29.1819 Y28.4761
G01 X29.1874 Y28.4827
G01 X29.1922 Y28.4912
G01 X29.2007 Y28.4960
G01 X29.2073 Y28.5015
G01 X29.2128 Y28.5081
G01 X29.2176 Y28.5166
G01 X29.2261 Y28.5214
G01 X29.2327 Y28.5269
G01 X29.2382 Y28.5335
G01 X29.2430 Y28.5420
G01 X29.2505 Y28.5461
G01 X29.2563 Y28.5507
G01 X29.2621 Y28.5569
G01 X29.2662 Y28.5631
G01 X29.2784 Y28.5633
G01 X29.2833 Y28.5641
G01 X29.2892 Y28.5656
G01 X29.2938 Y28.5674
G01 X29.2992 Y28.5702
G01 X29.3033 Y28.5729
G01 X29.3080 Y28.5769
G01 X29.3144 Y28.5843
G01 X29.3192 Y28.5928
G01 X29.3267 Y28.5969
G01 X29.3334 Y28.6023
G01 X29.3398 Y28.6097
G01 X29.3446 Y28.6182
G01 X29.3521 Y28.6223
G01 X29.3588 Y28.6277
G01 X29.3652 Y28.6351
G01 X29.3700 Y28.6436
G01 X29.3775 Y28.6477
G01 X29.3842 Y28.6531
G01 X29.3906 Y28.6605
G01 X29.3954 Y28.6690
G01 X29.4029 Y28.6731
G01 X29.4096 Y28.6785
G01 X29.4160 Y28.6859
G01 X29.4208 Y28.6944
G01 X29.4283 Y28.6985
G01 X29.4341 Y28.7031
G01 X29.4407 Y28.7103
G01 X29.4434 Y28.7144
G01 X29.4462 Y28.7198
G01 X29.4547 Y28.7246
G01 X29.4621 Y28.7310
G01 X29.4675 Y28.7377
G01 X29.4716 Y28.7452
G01 X29.4801 Y28.7500
G01 X29.4867 Y28.7555
G01 X29.4922 Y28.7621
G01 X29.4970 Y28.7706
G01 X29.5055 Y28.7754
G01 X29.5121 Y28.7809
G01 X29.5176 Y28.7875
G01 X29.5224 Y28.7960
G01 X29.5309 Y28.8008
G01 X29.5375 Y28.8063
G01 X29.5430 Y28.8129
G01 X29.5478 Y28.8214
G01 X29.5563 Y28.8262
G01 X29.5629 Y28.8317
G01 X29.5684 Y28.8383
G01 X29.5732 Y28.8468
G01 X29.5817 Y28.8516
G01 X29.5883 Y28.8571
G01 X29.5938 Y28.8637
G01 X29.5986 Y28.8722
G01 X29.6071 Y28.8770
G01 X29.6137 Y28.8825
G01 X29.6192 Y28.8891
G01 X29.6240 Y28.8976
G01 X29.6325 Y28.9024
G01 X29.6391 Y28.9079
G01 X29.6446 Y28.9145
G01 X29.6494 Y28.9230
G01 X29.6579 Y28.9278
G01 X29.6645 Y28.9333
G01 X29.6700 Y28.9399
G01 X29.6748 Y28.9484
G01 X29.6833 Y28.9532
G01 X29.6899 Y28.9587
G01 X29.6954 Y28.9653
G01 X29.7002 Y28.9738
G01 X29.7087 Y28.9786
G01 X29.7153 Y28.9841
G01 X29.7208 Y28.9907
G01 X29.7256 Y28.9992
G01 X29.7341 Y29.0040
G01 X29.7407 Y29.0095
G01 X29.7462 Y29.0161
G01 X29.7510 Y29.0246
G01 X29.7595 Y29.0294
G01 X29.7661 Y29.0349
G01 X29.7716 Y29.0415
G01 X29.7764 Y29.0500
G01 X29.7849 Y29.0548
G01 X29.7915 Y29.0603
G01 X29.7970 Y29.0669
G01 X29.8018 Y29.0754
G01 X29.8103 Y29.0802
G01 X29.8169 Y29.0857
G01 X29.8224 Y29.0923
G01 X29.8272 Y29.1008
G01 X29.8357 Y29.1056
G01 X29.8423 Y29.1111
G01 X29.8478 Y29.1177
G01 X29.8526 Y29.1262
G01 X29.8611 Y29.1310
G01 X29.8677 Y29.1365
G01 X29.8732 Y29.1431
G01 X29.8780 Y29.1516
G01 X29.8865 Y29.1564
G01 X29.8931 Y29.1619
G01 X29.8986 Y29.1685
G01 X29.9034 Y29.1770
G01 X29.9119 Y29.1818
G01 X29.9185 Y29.1873
G01 X29.9240 Y29.1939
G01 X29.9288 Y29.2024
G01 X29.9373 Y29.2072
G01 X29.9439 Y29.2127
G01 X29.9494 Y29.2193
G01 X29.9542 Y29.2278
G01 X29.9627 Y29.2326
G01 X29.9693 Y29.2381
G01 X29.9748 Y29.2447
G01 X29.9796 Y29.2532
G01 X29.9871 Y29.2573
G01 X29.9929 Y29.2619
G01 X29.9987 Y29.2681
G01 X30.0028 Y29.2743
G01 X30.0150 Y29.2745
G01 X30.0199 Y29.2753
G01 X30.0258 Y29.2768
G01 X30.0304 Y29.2786
G01 X30.0358 Y29.2814
G01 X30.0409 Y29.2849
G01 X30.0446 Y29.2881
G01 X30.0510 Y29.2955
G01 X30.0558 Y29.3040
G01 X30.0633 Y29.3081
G01 X30.0700 Y29.3135
G01 X30.0764 Y29.3209
G01 X30.0812 Y29.3294
G01 X30.0887 Y29.3335
G01 X30.0954 Y29.3389
G01 X30.1018 Y29.3463
G01 X30.1066 Y29.3548
G01 X30.1141 Y29.3589
G01 X30.1208 Y29.3643
G01 X30.1272 Y29.3717
G01 X30.1320 Y29.3802
G01 X30.1395 Y29.3843
G01 X30.1462 Y29.3897
G01 X30.1526 Y29.3971
G01 X30.1574 Y29.4056
G01 X30.1649 Y29.4097
G01 X30.1707 Y29.4143
G01 X30.1773 Y29.4215
G01 X30.1800 Y29.4256
G01 X30.1828 Y29.4310
G01 X30.1913 Y29.4358
G01 X30.1987 Y29.4422
G01 X30.2041 Y29.4489
G01 X30.2082 Y29.4564
G01 X30.2167 Y29.4612
G01 X30.2233 Y29.4667
G01 X30.2288 Y29.4733
G01 X30.2336 Y29.4818
G01 X30.2421 Y29.4866
G01 X30.2487 Y29.4921
G01 X30.2542 Y29.4987
G01 X30.2590 Y29.5072
G01 X30.2675 Y29.5120
G01 X30.2741 Y29.5175
G01 X30.2796 Y29.5241
G01 X30.2844 Y29.5326
G01 X30.2929 Y29.5374
G01 X30.2995 Y29.5429
G01 X30.3050 Y29.5495
G01 X30.3098 Y29.5580
G01 X30.3183 Y29.5628
G01 X30.3249 Y29.5683
G01 X30.3304 Y29.5749
G01 X30.3352 Y29.5834
G01 X30.3437 Y29.5882
G01 X30.3503 Y29.5937
G01 X30.3558 Y29.6003
G01 X30.3606 Y29.6088
G01 X30.3691 Y29.6136
G01 X30.3757 Y29.6191
G01 X30.3812 Y29.6257
G01 X30.3860 Y29.6342
G01 X30.3945 Y29.6390
G01 X30.4011 Y29.6445
G01 X30.4066 Y29.6511
G01 X30.4114 Y29.6596
G01 X30.4199 Y29.6644
G01 X30.4265 Y29.6699
G01 X30.4320 Y29.6765
G01 X30.4368 Y29.6850
G01 X30.4453 Y29.6898
G01 X30.4519 Y29.6953
G01 X30.4574 Y29.7019
G01 X30.4622 Y29.7104
G01 X30.4707 Y29.7152
G01 X30.4773 Y29.7207
G01 X30.4828 Y29.7273
G01 X30.4876 Y29.7358
G01 X30.4961 Y29.7406
G01 X30.5027 Y29.7461
G01 X30.5082 Y29.7527
G01 X30.5130 Y29.7612
G01 X30.5215 Y29.7660
G01 X30.5281 Y29.7715
G01 X30.5336 Y29.7781
G01 X30.5384 Y29.7866
G01 X30.5469 Y29.7914
G01 X30.5535 Y29.7969
G01 X30.5590 Y29.8035
G01 X30.5638 Y29.8120
G01 X30.5723 Y29.8168
G01 X30.5789 Y29.8223
G01 X30.5844 Y29.8289
G01 X30.5892 Y29.8374
G01 X30.5977 Y29.8422
G01 X30.6043 Y29.8477
G01 X30.6098 Y29.8543
G01 X30.6146 Y29.8628
G01 X30.6231 Y29.8676
G01 X30.6297 Y29.8731
G01 X30.6352 Y29.8797
G01 X30.6400 Y29.8882
G01 X30.6485 Y29.8930
G01 X30.6555 Y29.8990
G01 X31.9756 Y29.9161
G01 X31.9926 Y29.8804
G01 X32.0473 Y29.7893
G01 X32.1119 Y29.7019
G01 X32.1857 Y29.6203
G01 X32.2654 Y29.5481
G01 X32.3536 Y29.4825
G01 X32.4469 Y29.4266
G01 X32.5452 Y29.3801
G01 X32.6464 Y29.3439
G01 X32.7530 Y29.3171
G01 X32.8606 Y29.3011
G01 X32.9692 Y29.2958
G01 X33.0778 Y29.3011
G01 X33.1854 Y29.3171
G01 X33.2908 Y29.3435
G01 X33.3932 Y29.3801
G01 X33.4915 Y29.4266
G01 X33.5848 Y29.4825
G01 X33.6721 Y29.5473
G01 X33.7527 Y29.6203
G01 X33.8257 Y29.7009
G01 X33.8905 Y29.7882
G01 X33.9464 Y29.8815
G01 X33.9929 Y29.9798
G01 X34.0287 Y30.0798
G01 X34.0559 Y30.1876
G01 X34.0716 Y30.2928
G01 X34.0771 Y30.4063
G01 X34.0719 Y30.5124
G01 X34.0559 Y30.6200
G01 X34.0295 Y30.7254
G01 X33.9924 Y30.8289
G01 X33.9464 Y30.9261
G01 X33.8918 Y31.0173
G01 X33.8257 Y31.1067
G01 X33.7509 Y31.1890
G01 X33.6721 Y31.2603
G01 X33.5848 Y31.3251
G01 X33.4893 Y31.3821
G01 X33.3932 Y31.4275
G01 X33.2908 Y31.4641
G01 X33.1854 Y31.4905
G01 X33.0802 Y31.5062
G01 X32.9692 Y31.5118
G01 X32.8582 Y31.5062
G01 X32.7530 Y31.4905
G01 X32.6476 Y31.4641
G01 X32.5452 Y31.4275
G01 X32.4491 Y31.3821
G01 X32.3536 Y31.3251
G01 X32.2663 Y31.2603
G01 X32.1875 Y31.1890
G01 X32.1127 Y31.1067
G01 X32.0466 Y31.0173
G01 X31.9920 Y30.9261
G01 X31.9461 Y30.8290
G01 X30.6496 Y30.8122
G01 X30.6454 Y30.8150
G01 X30.6400 Y30.8178
G01 X30.6372 Y30.8232
G01 X30.6345 Y30.8273
G01 X30.6279 Y30.8345
G01 X30.6221 Y30.8391
G01 X30.6146 Y30.8432
G01 X30.6098 Y30.8517
G01 X30.6034 Y30.8591
G01 X30.5967 Y30.8645
G01 X30.5892 Y30.8686
G01 X30.5844 Y30.8771
G01 X30.5780 Y30.8845
G01 X30.5713 Y30.8899
G01 X30.5638 Y30.8940
G01 X30.5590 Y30.9025
G01 X30.5526 Y30.9099
G01 X30.5459 Y30.9153
G01 X30.5384 Y30.9194
G01 X30.5336 Y30.9279
G01 X30.5272 Y30.9353
G01 X30.5205 Y30.9407
G01 X30.5130 Y30.9448
G01 X30.5082 Y30.9533
G01 X30.5018 Y30.9607
G01 X30.4951 Y30.9661
G01 X30.4876 Y30.9702
G01 X30.4828 Y30.9787
G01 X30.4773 Y30.9853
G01 X30.4707 Y30.9908
G01 X30.4622 Y30.9956
G01 X30.4574 Y31.0041
G01 X30.4519 Y31.0107
G01 X30.4453 Y31.0162
G01 X30.4368 Y31.0210
G01 X30.4320 Y31.0295
G01 X30.4265 Y31.0361
G01 X30.4199 Y31.0416
G01 X30.4114 Y31.0464
G01 X30.4066 Y31.0549
G01 X30.4011 Y31.0615
G01 X30.3945 Y31.0670
G01 X30.3860 Y31.0718
G01 X30.3812 Y31.0803
G01 X30.3757 Y31.0869
G01 X30.3691 Y31.0924
G01 X30.3606 Y31.0972
G01 X30.3558 Y31.1057
G01 X30.3503 Y31.1123
G01 X30.3437 Y31.1178
G01 X30.3352 Y31.1226
G01 X30.3304 Y31.1311
G01 X30.3249 Y31.1377
G01 X30.3183 Y31.1432
G01 X30.3098 Y31.1480
G01 X30.3050 Y31.1565
G01 X30.2995 Y31.1631
G01 X30.2929 Y31.1686
G01 X30.2844 Y31.1734
G01 X30.2796 Y31.1819
G01 X30.2741 Y31.1885
G01 X30.2675 Y31.1940
G01 X30.2590 Y31.1988
G01 X30.2542 Y31.2073
G01 X30.2487 Y31.2139
G01 X30.2421 Y31.2194
G01 X30.2336 Y31.2242
G01 X30.2288 Y31.2327
G01 X30.2233 Y31.2393
G01 X30.2167 Y31.2448
G01 X30.2082 Y31.2496
G01 X30.2034 Y31.2581
G01 X30.1979 Y31.2647
G01 X30.1913 Y31.2702
G01 X30.1828 Y31.2750
G01 X30.1780 Y31.2835
G01 X30.1725 Y31.2901
G01 X30.1659 Y31.2956
G01 X30.1574 Y31.3004
G01 X30.1526 Y31.3089
G01 X30.1471 Y31.3155
G01 X30.1405 Y31.3210
G01 X30.1320 Y31.3258
G01 X30.1272 Y31.3343
G01 X30.1217 Y31.3409
G01 X30.1151 Y31.3464
G01 X30.1066 Y31.3512
G01 X30.1018 Y31.3597
G01 X30.0963 Y31.3663
G01 X30.0897 Y31.3718
G01 X30.0812 Y31.3766
G01 X30.0764 Y31.3851
G01 X30.0709 Y31.3917
G01 X30.0643 Y31.3972
G01 X30.0558 Y31.4020
G01 X30.0510 Y31.4105
G01 X30.0455 Y31.4171
G01 X30.0389 Y31.4226
G01 X30.0304 Y31.4274
G01 X30.0256 Y31.4359
G01 X30.0201 Y31.4425
G01 X30.0135 Y31.4480
G01 X30.0050 Y31.4528
G01 X30.0002 Y31.4613
G01 X29.9947 Y31.4679
G01 X29.9881 Y31.4734
G01 X29.9796 Y31.4782
G01 X29.9748 Y31.4867
G01 X29.9693 Y31.4933
G01 X29.9627 Y31.4988
G01 X29.9542 Y31.5036
G01 X29.9494 Y31.5121
G01 X29.9439 Y31.5187
G01 X29.9373 Y31.5242
G01 X29.9288 Y31.5290
G01 X29.9240 Y31.5375
G01 X29.9185 Y31.5441
G01 X29.9119 Y31.5496
G01 X29.9034 Y31.5544
G01 X29.8986 Y31.5629
G01 X29.8931 Y31.5695
G01 X29.8865 Y31.5750
G01 X29.8780 Y31.5798
G01 X29.8732 Y31.5883
G01 X29.8677 Y31.5949
G01 X29.8611 Y31.6004
G01 X29.8526 Y31.6052
G01 X29.8478 Y31.6137
G01 X29.8423 Y31.6203
G01 X29.8357 Y31.6258
G01 X29.8272 Y31.6306
G01 X29.8224 Y31.6391
G01 X29.8169 Y31.6457
G01 X29.8103 Y31.6512
G01 X29.8018 Y31.6560
G01 X29.7970 Y31.6645
G01 X29.7915 Y31.6711
G01 X29.7849 Y31.6766
G01 X29.7764 Y31.6814
G01 X29.7716 Y31.6899
G01 X29.7661 Y31.6965
G01 X29.7595 Y31.7020
G01 X29.7510 Y31.7068
G01 X29.7462 Y31.7153
G01 X29.7407 Y31.7219
G01 X29.7341 Y31.7274
G01 X29.7256 Y31.7322
G01 X29.7208 Y31.7407
G01 X29.7153 Y31.7473
G01 X29.7087 Y31.7528
G01 X29.7002 Y31.7576
G01 X29.6954 Y31.7661
G01 X29.6899 Y31.7727
G01 X29.6833 Y31.7782
G01 X29.6748 Y31.7830
G01 X29.6700 Y31.7915
G01 X29.6645 Y31.7981
G01 X29.6579 Y31.8036
G01 X29.6494 Y31.8084
G01 X29.6446 Y31.8169
G01 X29.6391 Y31.8235
G01 X29.6325 Y31.8290
G01 X29.6240 Y31.8338
G01 X29.6192 Y31.8423
G01 X29.6137 Y31.8489
G01 X29.6071 Y31.8544
G01 X29.5986 Y31.8592
G01 X29.5938 Y31.8677
G01 X29.5883 Y31.8743
G01 X29.5817 Y31.8798
G01 X29.5732 Y31.8846
G01 X29.5684 Y31.8931
G01 X29.5629 Y31.8997
G01 X29.5563 Y31.9052
G01 X29.5478 Y31.9100
G01 X29.5430 Y31.9185
G01 X29.5375 Y31.9251
G01 X29.5309 Y31.9306
G01 X29.5224 Y31.9354
G01 X29.5176 Y31.9439
G01 X29.5121 Y31.9505
G01 X29.5055 Y31.9560
G01 X29.4970 Y31.9608
G01 X29.4922 Y31.9693
G01 X29.4867 Y31.9759
G01 X29.4801 Y31.9814
G01 X29.4716 Y31.9862
G01 X29.4668 Y31.9947
G01 X29.4613 Y32.0013
G01 X29.4547 Y32.0068
G01 X29.4462 Y32.0116
G01 X29.4414 Y32.0201
G01 X29.4359 Y32.0267
G01 X29.4293 Y32.0322
G01 X29.4208 Y32.0370
G01 X29.4160 Y32.0455
G01 X29.4105 Y32.0521
G01 X29.4039 Y32.0576
G01 X29.3954 Y32.0624
G01 X29.3906 Y32.0709
G01 X29.3851 Y32.0775
G01 X29.3785 Y32.0830
G01 X29.3700 Y32.0878
G01 X29.3652 Y32.0963
G01 X29.3597 Y32.1029
G01 X29.3531 Y32.1084
G01 X29.3446 Y32.1132
G01 X29.3398 Y32.1217
G01 X29.3343 Y32.1283
G01 X29.3277 Y32.1338
G01 X29.3192 Y32.1386
G01 X29.3144 Y32.1471
G01 X29.3089 Y32.1537
G01 X29.3023 Y32.1592
G01 X29.2938 Y32.1640
G01 X29.2890 Y32.1725
G01 X29.2835 Y32.1791
G01 X29.2769 Y32.1846
G01 X29.2684 Y32.1894
G01 X29.2636 Y32.1979
G01 X29.2581 Y32.2045
G01 X29.2515 Y32.2100
G01 X29.2430 Y32.2148
G01 X29.2382 Y32.2233
G01 X29.2327 Y32.2299
G01 X29.2261 Y32.2354
G01 X29.2176 Y32.2402
G01 X29.2128 Y32.2487
G01 X29.2073 Y32.2553
G01 X29.2007 Y32.2608
G01 X29.1922 Y32.2656
G01 X29.1874 Y32.2741
G01 X29.1819 Y32.2807
G01 X29.1753 Y32.2862
G01 X29.1668 Y32.2910
G01 X29.1620 Y32.2995
G01 X29.1565 Y32.3061
G01 X29.1499 Y32.3116
G01 X29.1414 Y32.3164
G01 X29.1366 Y32.3249
G01 X29.1311 Y32.3315
G01 X29.1245 Y32.3370
G01 X29.1160 Y32.3418
G01 X29.1112 Y32.3503
G01 X29.1057 Y32.3569
G01 X29.0991 Y32.3624
G01 X29.0906 Y32.3672
G01 X29.0858 Y32.3757
G01 X29.0803 Y32.3823
G01 X29.0737 Y32.3878
G01 X29.0652 Y32.3926
G01 X29.0604 Y32.4011
G01 X29.0549 Y32.4077
G01 X29.0483 Y32.4132
G01 X29.0398 Y32.4180
G01 X29.0350 Y32.4265
G01 X29.0295 Y32.4331
G01 X29.0229 Y32.4386
G01 X29.0144 Y32.4434
G01 X29.0096 Y32.4519
G01 X29.0041 Y32.4585
G01 X28.9975 Y32.4640
G01 X28.9890 Y32.4688
G01 X28.9842 Y32.4773
G01 X28.9787 Y32.4839
G01 X28.9721 Y32.4894
G01 X28.9636 Y32.4942
G01 X28.9588 Y32.5027
G01 X28.9533 Y32.5093
G01 X28.9467 Y32.5148
G01 X28.9382 Y32.5196
G01 X28.9334 Y32.5281
G01 X28.9279 Y32.5347
G01 X28.9213 Y32.5402
G01 X28.9128 Y32.5450
G01 X28.9080 Y32.5535
G01 X28.9025 Y32.5601
G01 X28.8959 Y32.5656
G01 X28.8874 Y32.5704
G01 X28.8833 Y32.5779
G01 X28.8787 Y32.5837
G01 X28.8725 Y32.5895
G01 X28.8663 Y32.5936
G01 X28.8661 Y32.6058
G01 X28.8653 Y32.6107
G01 X28.8638 Y32.6166
G01 X28.8620 Y32.6212
G01 X28.8592 Y32.6266
G01 X28.8565 Y32.6307
G01 X28.8525 Y32.6354
G01 X28.8451 Y32.6418
G01 X28.8366 Y32.6466
G01 X28.8325 Y32.6541
G01 X28.8271 Y32.6608
G01 X28.8197 Y32.6672
G01 X28.8112 Y32.6720
G01 X28.8071 Y32.6795
G01 X28.8017 Y32.6862
G01 X28.7943 Y32.6926
G01 X28.7858 Y32.6974
G01 X28.7817 Y32.7049
G01 X28.7763 Y32.7116
G01 X28.7689 Y32.7180
G01 X28.7604 Y32.7228
G01 X28.7563 Y32.7303
G01 X28.7509 Y32.7370
G01 X28.7435 Y32.7434
G01 X28.7350 Y32.7482
G01 X28.7309 Y32.7557
G01 X28.7263 Y32.7615
G01 X28.7191 Y32.7681
G01 X28.7150 Y32.7708
G01 X28.7096 Y32.7736
G01 X28.7048 Y32.7821
G01 X28.6984 Y32.7895
G01 X28.6917 Y32.7949
G01 X28.6842 Y32.7990
G01 X28.6794 Y32.8075
G01 X28.6739 Y32.8141
G01 X28.6673 Y32.8196
G01 X28.6588 Y32.8244
G01 X28.6540 Y32.8329
G01 X28.6485 Y32.8395
G01 X28.6419 Y32.8450
G01 X28.6334 Y32.8498
G01 X28.6286 Y32.8583
G01 X28.6231 Y32.8649
G01 X28.6165 Y32.8704
G01 X28.6080 Y32.8752
G01 X28.6032 Y32.8837
G01 X28.5977 Y32.8903
G01 X28.5911 Y32.8958
G01 X28.5826 Y32.9006
G01 X28.5778 Y32.9091
G01 X28.5723 Y32.9157
G01 X28.5657 Y32.9212
G01 X28.5572 Y32.9260
G01 X28.5524 Y32.9345
G01 X28.5469 Y32.9411
G01 X28.5403 Y32.9466
G01 X28.5318 Y32.9514
G01 X28.5270 Y32.9599
G01 X28.5215 Y32.9665
G01 X28.5149 Y32.9720
G01 X28.5064 Y32.9768
G01 X28.5016 Y32.9853
G01 X28.4961 Y32.9919
G01 X28.4895 Y32.9974
G01 X28.4810 Y33.0022
G01 X28.4762 Y33.0107
G01 X28.4707 Y33.0173
G01 X28.4641 Y33.0228
G01 X28.4556 Y33.0276
G01 X28.4508 Y33.0361
G01 X28.4453 Y33.0427
G01 X28.4387 Y33.0482
G01 X28.4302 Y33.0530
G01 X28.4254 Y33.0615
G01 X28.4199 Y33.0681
G01 X28.4133 Y33.0736
G01 X28.4048 Y33.0784
G01 X28.4000 Y33.0869
G01 X28.3945 Y33.0935
G01 X28.3879 Y33.0990
G01 X28.3794 Y33.1038
G01 X28.3746 Y33.1123
G01 X28.3691 Y33.1189
G01 X28.3625 Y33.1244
G01 X28.3540 Y33.1292
G01 X28.3492 Y33.1377
G01 X28.3437 Y33.1443
G01 X28.3371 Y33.1498
G01 X28.3286 Y33.1546
G01 X28.3238 Y33.1631
G01 X28.3183 Y33.1697
G01 X28.3117 Y33.1752
G01 X28.3032 Y33.1800
G01 X28.2984 Y33.1885
G01 X28.2929 Y33.1951
G01 X28.2863 Y33.2006
G01 X28.2778 Y33.2054
G01 X28.2730 Y33.2139
G01 X28.2675 Y33.2205
G01 X28.2609 Y33.2260
G01 X28.2524 Y33.2308
G01 X28.2476 Y33.2393
G01 X28.2421 Y33.2459
G01 X28.2375 Y33.2499
G01 X28.2324 Y33.2534
G01 X28.2270 Y33.2562
G01 X28.2224 Y33.2580
G01 X28.2165 Y33.2595
G01 X28.2116 Y33.2603
G01 X28.1994 Y33.2605
G01 X28.1961 Y33.2657
G01 X28.1913 Y33.2713
G01 X28.1847 Y33.2768
G01 X28.1762 Y33.2816
G01 X28.1721 Y33.2891
G01 X28.1667 Y33.2958
G01 X28.1593 Y33.3022
G01 X28.1508 Y33.3070
G01 X28.1467 Y33.3145
G01 X28.1421 Y33.3203
G01 X28.1368 Y33.3253
G01 X28.1297 Y33.3302
G01 X28.1219 Y33.3338
G01 X28.1149 Y33.3357
G01 X28.1076 Y33.3366
G01 X28.0978 Y33.3367
G01 X28.0922 Y33.3448
G01 X28.0888 Y33.3483
G01 X28.0841 Y33.3523
G01 X28.0800 Y33.3550
G01 X28.0746 Y33.3578
G01 X28.0688 Y33.3599
G01 X28.0641 Y33.3611
G01 X28.0543 Y33.3621
G01 X27.9708 Y33.3621
G01 X27.9675 Y33.3673
G01 X27.9635 Y33.3720
G01 X27.9590 Y33.3761
G01 X27.9530 Y33.3804
G01 X27.9464 Y33.3837
G01 X27.9406 Y33.3857
G01 X27.9346 Y33.3870
G01 X27.9285 Y33.3875
G01 X26.3636 Y33.3875
G01 X26.3264 Y33.4661
G01 X26.2705 Y33.5594
G01 X26.2057 Y33.6467
G01 X26.1327 Y33.7273
G01 X26.0521 Y33.8003
G01 X25.9648 Y33.8651
G01 X25.8715 Y33.9210
G01 X25.7732 Y33.9675
G01 X25.6708 Y34.0041
G01 X25.5654 Y34.0305
G01 X25.4578 Y34.0465
G01 X25.3492 Y34.0518
G01 X25.2406 Y34.0465
G01 X25.1330 Y34.0305
G01 X25.0276 Y34.0041
G01 X24.9241 Y33.9670
G01 X24.8269 Y33.9210
G01 X24.7357 Y33.8664
G01 X24.6463 Y33.8003
G01 X24.5640 Y33.7255
G01 X24.4927 Y33.6467
G01 X24.4293 Y33.5614
G01 X24.3720 Y33.4661
G01 X24.3247 Y33.3655
G01 X24.2889 Y33.2654
G01 X24.2630 Y33.1624
G01 X24.2465 Y33.0524
G01 X24.2413 Y32.9413
G01 X24.2465 Y32.8352
G01 X24.2621 Y32.7301
G01 X24.2889 Y32.6222
G01 X24.3265 Y32.5175
G01 X24.3720 Y32.4215
G01 X24.4266 Y32.3303
G01 X24.4927 Y32.2409
G01 X24.5675 Y32.1586
G01 X24.6463 Y32.0873
G01 X24.7316 Y32.0239
G01 X24.8269 Y31.9666
G01 X24.9252 Y31.9201
G01 X25.0276 Y31.8835
G01 X25.1330 Y31.8571
G01 X25.2406 Y31.8411
G01 X25.3492 Y31.8358
G01 X25.4578 Y31.8411
G01 X25.5629 Y31.8567
G01 X25.6708 Y31.8835
G01 X25.7755 Y31.9211
G01 X25.8715 Y31.9666
G01 X25.9627 Y32.0212
G01 X26.0511 Y32.0865
G01 X26.1327 Y32.1603
G01 X26.2065 Y32.2419
G01 X26.2711 Y32.3293
G01 X26.3258 Y32.4204
G01 X26.3516 Y32.4747
G01 X27.6806 Y32.4747
G01 X27.6847 Y32.4685
G01 X27.6905 Y32.4623
G01 X27.6963 Y32.4577
G01 X27.7038 Y32.4536
G01 X27.7086 Y32.4451
G01 X27.7150 Y32.4377
G01 X27.7217 Y32.4323
G01 X27.7292 Y32.4282
G01 X27.7340 Y32.4197
G01 X27.7404 Y32.4123
G01 X27.7471 Y32.4069
G01 X27.7546 Y32.4028
G01 X27.7594 Y32.3943
G01 X27.7649 Y32.3877
G01 X27.7715 Y32.3822
G01 X27.7800 Y32.3774
G01 X27.7848 Y32.3689
G01 X27.7903 Y32.3623
G01 X27.7969 Y32.3568
G01 X27.8054 Y32.3520
G01 X27.8102 Y32.3435
G01 X27.8157 Y32.3369
G01 X27.8223 Y32.3314
G01 X27.8308 Y32.3266
G01 X27.8356 Y32.3181
G01 X27.8411 Y32.3115
G01 X27.8477 Y32.3060
G01 X27.8562 Y32.3012
G01 X27.8610 Y32.2927
G01 X27.8665 Y32.2861
G01 X27.8731 Y32.2806
G01 X27.8816 Y32.2758
G01 X27.8864 Y32.2673
G01 X27.8919 Y32.2607
G01 X27.8985 Y32.2552
G01 X27.9070 Y32.2504
G01 X27.9118 Y32.2419
G01 X27.9173 Y32.2353
G01 X27.9239 Y32.2298
G01 X27.9324 Y32.2250
G01 X27.9372 Y32.2165
G01 X27.9427 Y32.2099
G01 X27.9493 Y32.2044
G01 X27.9578 Y32.1996
G01 X27.9626 Y32.1911
G01 X27.9681 Y32.1845
G01 X27.9747 Y32.1790
G01 X27.9832 Y32.1742
G01 X27.9880 Y32.1657
G01 X27.9935 Y32.1591
G01 X28.0001 Y32.1536
G01 X28.0086 Y32.1488
G01 X28.0134 Y32.1403
G01 X28.0189 Y32.1337
G01 X28.0255 Y32.1282
G01 X28.0340 Y32.1234
G01 X28.0388 Y32.1149
G01 X28.0443 Y32.1083
G01 X28.0509 Y32.1028
G01 X28.0594 Y32.0980
G01 X28.0642 Y32.0895
G01 X28.0697 Y32.0829
G01 X28.0763 Y32.0774
G01 X28.0848 Y32.0726
G01 X28.0896 Y32.0641
G01 X28.0951 Y32.0575
G01 X28.1017 Y32.0520
G01 X28.1102 Y32.0472
G01 X28.1150 Y32.0387
G01 X28.1205 Y32.0321
G01 X28.1271 Y32.0266
G01 X28.1356 Y32.0218
G01 X28.1404 Y32.0133
G01 X28.1459 Y32.0067
G01 X28.1525 Y32.0012
G01 X28.1610 Y31.9964
G01 X28.1658 Y31.9879
G01 X28.1713 Y31.9813
G01 X28.1779 Y31.9758
G01 X28.1864 Y31.9710
G01 X28.1912 Y31.9625
G01 X28.1967 Y31.9559
G01 X28.2033 Y31.9504
G01 X28.2118 Y31.9456
G01 X28.2166 Y31.9371
G01 X28.2221 Y31.9305
G01 X28.2287 Y31.9250
G01 X28.2372 Y31.9202
G01 X28.2420 Y31.9117
G01 X28.2475 Y31.9051
G01 X28.2541 Y31.8996
G01 X28.2626 Y31.8948
G01 X28.2674 Y31.8863
G01 X28.2729 Y31.8797
G01 X28.2795 Y31.8742
G01 X28.2880 Y31.8694
G01 X28.2928 Y31.8609
G01 X28.2983 Y31.8543
G01 X28.3049 Y31.8488
G01 X28.3134 Y31.8440
G01 X28.3182 Y31.8355
G01 X28.3237 Y31.8289
G01 X28.3303 Y31.8234
G01 X28.3388 Y31.8186
G01 X28.3436 Y31.8101
G01 X28.3491 Y31.8035
G01 X28.3557 Y31.7980
G01 X28.3642 Y31.7932
G01 X28.3690 Y31.7847
G01 X28.3745 Y31.7781
G01 X28.3811 Y31.7726
G01 X28.3896 Y31.7678
G01 X28.3944 Y31.7593
G01 X28.3999 Y31.7527
G01 X28.4065 Y31.7472
G01 X28.4150 Y31.7424
G01 X28.4198 Y31.7339
G01 X28.4253 Y31.7273
G01 X28.4319 Y31.7218
G01 X28.4404 Y31.7170
G01 X28.4452 Y31.7085
G01 X28.4507 Y31.7019
G01 X28.4573 Y31.6964
G01 X28.4658 Y31.6916
G01 X28.4706 Y31.6831
G01 X28.4761 Y31.6765
G01 X28.4827 Y31.6710
G01 X28.4912 Y31.6662
G01 X28.4960 Y31.6577
G01 X28.5015 Y31.6511
G01 X28.5081 Y31.6456
G01 X28.5166 Y31.6408
G01 X28.5214 Y31.6323
G01 X28.5269 Y31.6257
G01 X28.5335 Y31.6202
G01 X28.5420 Y31.6154
G01 X28.5468 Y31.6069
G01 X28.5523 Y31.6003
G01 X28.5589 Y31.5948
G01 X28.5674 Y31.5900
G01 X28.5722 Y31.5815
G01 X28.5777 Y31.5749
G01 X28.5843 Y31.5694
G01 X28.5928 Y31.5646
G01 X28.5976 Y31.5561
G01 X28.6031 Y31.5495
G01 X28.6097 Y31.5440
G01 X28.6182 Y31.5392
G01 X28.6230 Y31.5307
G01 X28.6285 Y31.5241
G01 X28.6351 Y31.5186
G01 X28.6436 Y31.5138
G01 X28.6484 Y31.5053
G01 X28.6539 Y31.4987
G01 X28.6605 Y31.4932
G01 X28.6690 Y31.4884
G01 X28.6738 Y31.4799
G01 X28.6793 Y31.4733
G01 X28.6859 Y31.4678
G01 X28.6944 Y31.4630
G01 X28.6992 Y31.4545
G01 X28.7047 Y31.4479
G01 X28.7113 Y31.4424
G01 X28.7198 Y31.4376
G01 X28.7246 Y31.4291
G01 X28.7301 Y31.4225
G01 X28.7367 Y31.4170
G01 X28.7452 Y31.4122
G01 X28.7500 Y31.4037
G01 X28.7555 Y31.3971
G01 X28.7621 Y31.3916
G01 X28.7706 Y31.3868
G01 X28.7754 Y31.3783
G01 X28.7809 Y31.3717
G01 X28.7875 Y31.3662
G01 X28.7960 Y31.3614
G01 X28.8008 Y31.3529
G01 X28.8063 Y31.3463
G01 X28.8129 Y31.3408
G01 X28.8214 Y31.3360
G01 X28.8262 Y31.3275
G01 X28.8317 Y31.3209
G01 X28.8383 Y31.3154
G01 X28.8468 Y31.3106
G01 X28.8516 Y31.3021
G01 X28.8571 Y31.2955
G01 X28.8637 Y31.2900
G01 X28.8722 Y31.2852
G01 X28.8770 Y31.2767
G01 X28.8825 Y31.2701
G01 X28.8891 Y31.2646
G01 X28.8976 Y31.2598
G01 X28.9024 Y31.2513
G01 X28.9079 Y31.2447
G01 X28.9145 Y31.2392
G01 X28.9230 Y31.2344
G01 X28.9278 Y31.2259
G01 X28.9333 Y31.2193
G01 X28.9399 Y31.2138
G01 X28.9484 Y31.2090
G01 X28.9532 Y31.2005
G01 X28.9587 Y31.1939
G01 X28.9653 Y31.1884
G01 X28.9738 Y31.1836
G01 X28.9786 Y31.1751
G01 X28.9841 Y31.1685
G01 X28.9907 Y31.1630
G01 X28.9992 Y31.1582
G01 X29.0040 Y31.1497
G01 X29.0095 Y31.1431
G01 X29.0161 Y31.1376
G01 X29.0246 Y31.1328
G01 X29.0294 Y31.1243
G01 X29.0349 Y31.1177
G01 X29.0415 Y31.1122
G01 X29.0500 Y31.1074
G01 X29.0548 Y31.0989
G01 X29.0603 Y31.0923
G01 X29.0669 Y31.0868
G01 X29.0754 Y31.0820
G01 X29.0802 Y31.0735
G01 X29.0857 Y31.0669
G01 X29.0923 Y31.0614
G01 X29.1008 Y31.0566
G01 X29.1056 Y31.0481
G01 X29.1111 Y31.0415
G01 X29.1177 Y31.0360
G01 X29.1262 Y31.0312
G01 X29.1310 Y31.0227
G01 X29.1365 Y31.0161
G01 X29.1431 Y31.0106
G01 X29.1516 Y31.0058
G01 X29.1564 Y30.9973
G01 X29.1619 Y30.9907
G01 X29.1685 Y30.9852
G01 X29.1770 Y30.9804
G01 X29.1818 Y30.9719
G01 X29.1873 Y30.9653
G01 X29.1939 Y30.9598
G01 X29.2024 Y30.9550
G01 X29.2072 Y30.9465
G01 X29.2127 Y30.9399
G01 X29.2193 Y30.9344
G01 X29.2278 Y30.9296
G01 X29.2326 Y30.9211
G01 X29.2381 Y30.9145
G01 X29.2447 Y30.9090
G01 X29.2532 Y30.9042
G01 X29.2580 Y30.8957
G01 X29.2635 Y30.8891
G01 X29.2701 Y30.8836
G01 X29.2786 Y30.8788
G01 X29.2834 Y30.8703
G01 X29.2889 Y30.8637
G01 X29.2955 Y30.8582
G01 X29.3040 Y30.8534
G01 X29.3088 Y30.8449
G01 X29.3143 Y30.8383
G01 X29.3209 Y30.8328
G01 X29.3294 Y30.8280
G01 X29.3342 Y30.8195
G01 X29.3397 Y30.8129
G01 X29.3463 Y30.8074
G01 X29.3548 Y30.8026
G01 X29.3596 Y30.7941
G01 X29.3651 Y30.7875
G01 X29.3717 Y30.7820
G01 X29.3802 Y30.7772
G01 X29.3850 Y30.7687
G01 X29.3905 Y30.7621
G01 X29.3971 Y30.7566
G01 X29.4056 Y30.7518
G01 X29.4104 Y30.7433
G01 X29.4159 Y30.7367
G01 X29.4225 Y30.7312
G01 X29.4310 Y30.7264
G01 X29.4358 Y30.7179
G01 X29.4413 Y30.7113
G01 X29.4479 Y30.7058
G01 X29.4564 Y30.7010
G01 X29.4612 Y30.6925
G01 X29.4667 Y30.6859
G01 X29.4733 Y30.6804
G01 X29.4818 Y30.6756
G01 X29.4866 Y30.6671
G01 X29.4921 Y30.6605
G01 X29.4987 Y30.6550
G01 X29.5072 Y30.6502
G01 X29.5120 Y30.6417
G01 X29.5175 Y30.6351
G01 X29.5241 Y30.6296
G01 X29.5326 Y30.6248
G01 X29.5374 Y30.6163
G01 X29.5429 Y30.6097
G01 X29.5495 Y30.6042
G01 X29.5580 Y30.5994
G01 X29.5628 Y30.5909
G01 X29.5683 Y30.5843
G01 X29.5749 Y30.5788
G01 X29.5834 Y30.5740
G01 X29.5882 Y30.5655
G01 X29.5937 Y30.5589
G01 X29.6003 Y30.5534
G01 X29.6088 Y30.5486
G01 X29.6136 Y30.5401
G01 X29.6191 Y30.5335
G01 X29.6257 Y30.5280
G01 X29.6342 Y30.5232
G01 X29.6390 Y30.5147
G01 X29.6445 Y30.5081
G01 X29.6511 Y30.5026
G01 X29.6596 Y30.4978
G01 X29.6644 Y30.4893
G01 X29.6699 Y30.4827
G01 X29.6765 Y30.4772
G01 X29.6850 Y30.4724
G01 X29.6898 Y30.4639
G01 X29.6953 Y30.4573
G01 X29.7019 Y30.4518
G01 X29.7104 Y30.4470
G01 X29.7152 Y30.4385
G01 X29.7207 Y30.4319
G01 X29.7273 Y30.4264
G01 X29.7358 Y30.4216
G01 X29.7406 Y30.4131
G01 X29.7461 Y30.4065
G01 X29.7527 Y30.4010
G01 X29.7612 Y30.3962
G01 X29.7660 Y30.3877
G01 X29.7715 Y30.3811
G01 X29.7781 Y30.3756
G01 X29.7866 Y30.3708
G01 X29.7894 Y30.3654
G01 X29.7921 Y30.3613
G01 X29.7961 Y30.3566
G01 X29.7999 Y30.3530
G01 X29.7961 Y30.3494
G01 X29.7921 Y30.3447
G01 X29.7894 Y30.3406
G01 X29.7866 Y30.3352
G01 X29.7781 Y30.3304
G01 X29.7715 Y30.3249
G01 X29.7660 Y30.3183
G01 X29.7612 Y30.3098
G01 X29.7527 Y30.3050
G01 X29.7461 Y30.2995
G01 X29.7406 Y30.2929
G01 X29.7358 Y30.2844
G01 X29.7273 Y30.2796
G01 X29.7207 Y30.2741
G01 X29.7152 Y30.2675
G01 X29.7104 Y30.2590
G01 X29.7019 Y30.2542
G01 X29.6953 Y30.2487
G01 X29.6898 Y30.2421
G01 X29.6850 Y30.2336
G01 X29.6765 Y30.2288
G01 X29.6699 Y30.2233
G01 X29.6644 Y30.2167
G01 X29.6596 Y30.2082
G01 X29.6521 Y30.2041
G01 X29.6454 Y30.1987
G01 X29.6390 Y30.1913
G01 X29.6342 Y30.1828
G01 X29.6267 Y30.1787
G01 X29.6200 Y30.1733
G01 X29.6136 Y30.1659
G01 X29.6088 Y30.1574
G01 X29.6013 Y30.1533
G01 X29.5955 Y30.1487
G01 X29.5897 Y30.1425
G01 X29.5856 Y30.1363
G01 X29.5734 Y30.1361
G01 X29.5685 Y30.1353
G01 X29.5626 Y30.1338
G01 X29.5580 Y30.1320
G01 X29.5526 Y30.1292
G01 X29.5475 Y30.1257
G01 X29.5438 Y30.1225
G01 X29.5374 Y30.1151
G01 X29.5326 Y30.1066
G01 X29.5251 Y30.1025
G01 X29.5184 Y30.0971
G01 X29.5120 Y30.0897
G01 X29.5072 Y30.0812
G01 X29.4997 Y30.0771
G01 X29.4930 Y30.0717
G01 X29.4866 Y30.0643
G01 X29.4818 Y30.0558
G01 X29.4743 Y30.0517
G01 X29.4676 Y30.0463
G01 X29.4612 Y30.0389
G01 X29.4564 Y30.0304
G01 X29.4489 Y30.0263
G01 X29.4422 Y30.0209
G01 X29.4358 Y30.0135
G01 X29.4310 Y30.0050
G01 X29.4235 Y30.0009
G01 X29.4177 Y29.9963
G01 X29.4111 Y29.9891
G01 X29.4084 Y29.9850
G01 X29.4056 Y29.9796
G01 X29.3971 Y29.9748
G01 X29.3897 Y29.9684
G01 X29.3843 Y29.9617
G01 X29.3802 Y29.9542
G01 X29.3717 Y29.9494
G01 X29.3651 Y29.9439
G01 X29.3596 Y29.9373
G01 X29.3548 Y29.9288
G01 X29.3463 Y29.9240
G01 X29.3397 Y29.9185
G01 X29.3342 Y29.9119
G01 X29.3294 Y29.9034
G01 X29.3209 Y29.8986
G01 X29.3143 Y29.8931
G01 X29.3088 Y29.8865
G01 X29.3040 Y29.8780
G01 X29.2955 Y29.8732
G01 X29.2889 Y29.8677
G01 X29.2834 Y29.8611
G01 X29.2786 Y29.8526
G01 X29.2701 Y29.8478
G01 X29.2635 Y29.8423
G01 X29.2580 Y29.8357
G01 X29.2532 Y29.8272
G01 X29.2447 Y29.8224
G01 X29.2381 Y29.8169
G01 X29.2326 Y29.8103
G01 X29.2278 Y29.8018
G01 X29.2193 Y29.7970
G01 X29.2127 Y29.7915
G01 X29.2072 Y29.7849
G01 X29.2024 Y29.7764
G01 X29.1939 Y29.7716
G01 X29.1873 Y29.7661
G01 X29.1818 Y29.7595
G01 X29.1770 Y29.7510
G01 X29.1685 Y29.7462
G01 X29.1619 Y29.7407
G01 X29.1564 Y29.7341
G01 X29.1516 Y29.7256
G01 X29.1431 Y29.7208
G01 X29.1365 Y29.7153
G01 X29.1310 Y29.7087
G01 X29.1262 Y29.7002
G01 X29.1177 Y29.6954
G01 X29.1111 Y29.6899
G01 X29.1056 Y29.6833
G01 X29.1008 Y29.6748
G01 X29.0923 Y29.6700
G01 X29.0857 Y29.6645
G01 X29.0802 Y29.6579
G01 X29.0754 Y29.6494
G01 X29.0669 Y29.6446
G01 X29.0603 Y29.6391
G01 X29.0548 Y29.6325
G01 X29.0500 Y29.6240
G01 X29.0415 Y29.6192
G01 X29.0349 Y29.6137
G01 X29.0294 Y29.6071
G01 X29.0246 Y29.5986
G01 X29.0161 Y29.5938
G01 X29.0095 Y29.5883
G01 X29.0040 Y29.5817
G01 X28.9992 Y29.5732
G01 X28.9907 Y29.5684
G01 X28.9841 Y29.5629
G01 X28.9786 Y29.5563
G01 X28.9738 Y29.5478
G01 X28.9653 Y29.5430
G01 X28.9587 Y29.5375
G01 X28.9532 Y29.5309
G01 X28.9484 Y29.5224
G01 X28.9399 Y29.5176
G01 X28.9333 Y29.5121
G01 X28.9278 Y29.5055
G01 X28.9230 Y29.4970
G01 X28.9145 Y29.4922
G01 X28.9079 Y29.4867
G01 X28.9024 Y29.4801
G01 X28.8976 Y29.4716
G01 X28.8891 Y29.4668
G01 X28.8825 Y29.4613
G01 X28.8770 Y29.4547
G01 X28.8722 Y29.4462
G01 X28.8647 Y29.4421
G01 X28.8589 Y29.4375
G01 X28.8531 Y29.4313
G01 X28.8490 Y29.4251
G01 X28.8368 Y29.4249
G01 X28.8319 Y29.4241
G01 X28.8260 Y29.4226
G01 X28.8214 Y29.4208
G01 X28.8160 Y29.4180
G01 X28.8109 Y29.4145
G01 X28.8072 Y29.4113
G01 X28.8008 Y29.4039
G01 X28.7960 Y29.3954
G01 X28.7885 Y29.3913
G01 X28.7818 Y29.3859
G01 X28.7754 Y29.3785
G01 X28.7706 Y29.3700
G01 X28.7631 Y29.3659
G01 X28.7564 Y29.3605
G01 X28.7500 Y29.3531
G01 X28.7452 Y29.3446
G01 X28.7377 Y29.3405
G01 X28.7310 Y29.3351
G01 X28.7246 Y29.3277
G01 X28.7198 Y29.3192
G01 X28.7123 Y29.3151
G01 X28.7056 Y29.3097
G01 X28.6992 Y29.3023
G01 X28.6944 Y29.2938
G01 X28.6869 Y29.2897
G01 X28.6811 Y29.2851
G01 X28.6745 Y29.2779
G01 X28.6718 Y29.2738
G01 X28.6690 Y29.2684
G01 X28.6605 Y29.2636
G01 X28.6531 Y29.2572
G01 X28.6477 Y29.2505
G01 X28.6436 Y29.2430
G01 X28.6351 Y29.2382
G01 X28.6285 Y29.2327
G01 X28.6230 Y29.2261
G01 X28.6182 Y29.2176
G01 X28.6097 Y29.2128
G01 X28.6031 Y29.2073
G01 X28.5976 Y29.2007
G01 X28.5928 Y29.1922
G01 X28.5843 Y29.1874
G01 X28.5777 Y29.1819
G01 X28.5722 Y29.1753
G01 X28.5674 Y29.1668
G01 X28.5589 Y29.1620
G01 X28.5523 Y29.1565
G01 X28.5468 Y29.1499
G01 X28.5420 Y29.1414
G01 X28.5335 Y29.1366
G01 X28.5269 Y29.1311
G01 X28.5214 Y29.1245
G01 X28.5166 Y29.1160
G01 X28.5081 Y29.1112
G01 X28.5015 Y29.1057
G01 X28.4960 Y29.0991
G01 X28.4912 Y29.0906
G01 X28.4827 Y29.0858
G01 X28.4761 Y29.0803
G01 X28.4706 Y29.0737
G01 X28.4658 Y29.0652
G01 X28.4573 Y29.0604
G01 X28.4507 Y29.0549
G01 X28.4452 Y29.0483
G01 X28.4404 Y29.0398
G01 X28.4319 Y29.0350
G01 X28.4253 Y29.0295
G01 X28.4198 Y29.0229
G01 X28.4150 Y29.0144
G01 X28.4065 Y29.0096
G01 X28.3999 Y29.0041
G01 X28.3944 Y28.9975
G01 X28.3896 Y28.9890
G01 X28.3811 Y28.9842
G01 X28.3745 Y28.9787
G01 X28.3690 Y28.9721
G01 X28.3642 Y28.9636
G01 X28.3557 Y28.9588
G01 X28.3491 Y28.9533
G01 X28.3436 Y28.9467
G01 X28.3388 Y28.9382
G01 X28.3303 Y28.9334
G01 X28.3237 Y28.9279
G01 X28.3182 Y28.9213
G01 X28.3134 Y28.9128
G01 X28.3049 Y28.9080
G01 X28.2983 Y28.9025
G01 X28.2928 Y28.8959
G01 X28.2880 Y28.8874
G01 X28.2795 Y28.8826
G01 X28.2729 Y28.8771
G01 X28.2674 Y28.8705
G01 X28.2626 Y28.8620
G01 X28.2541 Y28.8572
G01 X28.2475 Y28.8517
G01 X28.2420 Y28.8451
G01 X28.2372 Y28.8366
G01 X28.2287 Y28.8318
G01 X28.2221 Y28.8263
G01 X28.2166 Y28.8197
G01 X28.2118 Y28.8112
G01 X28.2033 Y28.8064
G01 X28.1967 Y28.8009
G01 X28.1912 Y28.7943
G01 X28.1864 Y28.7858
G01 X28.1779 Y28.7810
G01 X28.1713 Y28.7755
G01 X28.1658 Y28.7689
G01 X28.1610 Y28.7604
G01 X28.1525 Y28.7556
G01 X28.1459 Y28.7501
G01 X28.1404 Y28.7435
G01 X28.1356 Y28.7350
G01 X28.1271 Y28.7302
G01 X28.1205 Y28.7247
G01 X28.1150 Y28.7181
G01 X28.1102 Y28.7096
G01 X28.1027 Y28.7055
G01 X28.0969 Y28.7009
G01 X28.0911 Y28.6947
G01 X28.0870 Y28.6885
G01 X28.0748 Y28.6883
G01 X28.0699 Y28.6875
G01 X28.0640 Y28.6860
G01 X28.0583 Y28.6837
G01 X28.0540 Y28.6814
G01 X28.0499 Y28.6787
G01 X28.0452 Y28.6747
G01 X28.0388 Y28.6673
G01 X28.0340 Y28.6588
G01 X28.0255 Y28.6540
G01 X28.0189 Y28.6485
G01 X28.0134 Y28.6419
G01 X28.0086 Y28.6334
G01 X28.0001 Y28.6286
G01 X27.9935 Y28.6231
G01 X27.9880 Y28.6165
G01 X27.9832 Y28.6080
G01 X27.9747 Y28.6032
G01 X27.9681 Y28.5977
G01 X27.9626 Y28.5911
G01 X27.9578 Y28.5826
G01 X27.9493 Y28.5778
G01 X27.9427 Y28.5723
G01 X27.9372 Y28.5657
G01 X27.9324 Y28.5572
G01 X27.9239 Y28.5524
G01 X27.9173 Y28.5469
G01 X27.9118 Y28.5403
G01 X27.9070 Y28.5318
G01 X27.8985 Y28.5270
G01 X27.8919 Y28.5215
G01 X27.8864 Y28.5149
G01 X27.8816 Y28.5064
G01 X27.8731 Y28.5016
G01 X27.8665 Y28.4961
G01 X27.8610 Y28.4895
G01 X27.8562 Y28.4810
G01 X27.8477 Y28.4762
G01 X27.8411 Y28.4707
G01 X27.8356 Y28.4641
G01 X27.8308 Y28.4556
G01 X27.8223 Y28.4508
G01 X27.8157 Y28.4453
G01 X27.8102 Y28.4387
G01 X27.8054 Y28.4302
G01 X27.7969 Y28.4254
G01 X27.7903 Y28.4199
G01 X27.7848 Y28.4133
G01 X27.7800 Y28.4048
G01 X27.7725 Y28.4007
G01 X27.7658 Y28.3953
G01 X27.7594 Y28.3879
G01 X27.7546 Y28.3794
G01 X27.7471 Y28.3753
G01 X27.7404 Y28.3699
G01 X27.7340 Y28.3625
G01 X27.7292 Y28.3540
G01 X27.7217 Y28.3499
G01 X27.7159 Y28.3453
G01 X27.7101 Y28.3391
G01 X27.7060 Y28.3329
G01 X26.3516 Y28.3329
G01 X26.3258 Y28.3872
G01 X26.2711 Y28.4783
G01 X26.2049 Y28.5676
G01 X26.1327 Y28.6473
G01 X26.0540 Y28.7187
G01 X25.9637 Y28.7857
G01 X25.8715 Y28.8410
G01 X25.7755 Y28.8865
G01 X25.6708 Y28.9241
G01 X25.5654 Y28.9505
G01 X25.4602 Y28.9662
G01 X25.3480 Y28.9718
G01 X25.2406 Y28.9665
G01 X25.1355 Y28.9509
G01 X25.0276 Y28.9241
G01 X24.9252 Y28.8875
G01 X24.8291 Y28.8421
G01 X24.7336 Y28.7851
G01 X24.6463 Y28.7203
G01 X24.5675 Y28.6490
G01 X24.4927 Y28.5667
G01 X24.4266 Y28.4773
G01 X24.3720 Y28.3861
G01 X24.3255 Y28.2878
G01 X24.2889 Y28.1854
G01 X24.2625 Y28.0800
G01 X24.2465 Y27.9724
G01 X24.2412 Y27.8638
G01 X24.2465 Y27.7552
G01 X24.2625 Y27.6476
G01 X24.2889 Y27.5422
G01 X24.3255 Y27.4398
G01 X24.3720 Y27.3415
G01 X24.4279 Y27.2482
G01 X24.4927 Y27.1609
G01 X24.5657 Y27.0803
G01 X24.6463 Y27.0073
G01 X24.7336 Y26.9425
G01 X24.8269 Y26.8866
G01 X24.9252 Y26.8401
G01 X25.0276 Y26.8035
G01 X25.1330 Y26.7771
G01 X25.2406 Y26.7611
G01 X25.3492 Y26.7558
G01 X25.4578 Y26.7611
G01 X25.5654 Y26.7771
G01 X25.6708 Y26.8035
G01 X25.7732 Y26.8401
G01 X25.8715 Y26.8866
G01 X25.9648 Y26.9425
G01 X26.0521 Y27.0073
G01 X26.1327 Y27.0803
G01 X26.2057 Y27.1609
G01 X26.2705 Y27.2482
G01 X26.3264 Y27.3415
G01 X26.3636 Y27.4201
G00 Z5.0000
G00 X24.3409 Y37.5672
G01 F60.00
G01 Z0.0000
G01 F100.00
G01 X24.3720 Y37.5015
G01 X24.4286 Y37.4072
G01 X24.4927 Y37.3209
G01 X24.5666 Y37.2395
G01 X24.6463 Y37.1673
G01 X24.7336 Y37.1025
G01 X24.8269 Y37.0466
G01 X24.9263 Y36.9997
G01 X25.0276 Y36.9635
G01 X25.1330 Y36.9371
G01 X25.2406 Y36.9211
G01 X25.3492 Y36.9158
G01 X25.4578 Y36.9211
G01 X25.5654 Y36.9371
G01 X25.6708 Y36.9635
G01 X25.7743 Y37.0006
G01 X25.8715 Y37.0466
G01 X25.9648 Y37.1025
G01 X26.0521 Y37.1673
G01 X26.1327 Y37.2403
G01 X26.2057 Y37.3209
G01 X26.2705 Y37.4082
G01 X26.3264 Y37.5015
G01 X26.3729 Y37.5998
G01 X26.4095 Y37.7022
G01 X26.4359 Y37.8076
G01 X26.4519 Y37.9152
G01 X26.4572 Y38.0238
G01 X26.4519 Y38.1324
G01 X26.4359 Y38.2400
G01 X26.4095 Y38.3454
G01 X26.3729 Y38.4478
G01 X26.3264 Y38.5461
G01 X26.2718 Y38.6373
G01 X26.2057 Y38.7267
G01 X26.1309 Y38.8090
G01 X26.0521 Y38.8803
G01 X25.9648 Y38.9451
G01 X25.8715 Y39.0010
G01 X25.7755 Y39.0465
G01 X25.6708 Y39.0841
G01 X25.5654 Y39.1105
G01 X25.4602 Y39.1262
G01 X25.3492 Y39.1318
G01 X25.2382 Y39.1262
G01 X25.1330 Y39.1105
G01 X25.0276 Y39.0841
G01 X24.9229 Y39.0465
G01 X24.8269 Y39.0010
G01 X24.7347 Y38.9457
G01 X24.6444 Y38.8787
G01 X24.5657 Y38.8073
G01 X24.4935 Y38.7276
G01 X24.4273 Y38.6383
G01 X24.3720 Y38.5461
G01 X24.3409 Y38.4804
G01 X23.2658 Y38.4804
G01 X23.2658 Y43.0784
G01 X23.2633 Y43.1256
G01 X23.2570 Y43.1675
G01 X23.2461 Y43.2109
G01 X23.2310 Y43.2531
G01 X23.2130 Y43.2914
G01 X23.1888 Y43.3321
G01 X23.1622 Y43.3681
G01 X23.1338 Y43.3995
G01 X23.0989 Y43.4314
G01 X23.0608 Y43.4594
G01 X23.0244 Y43.4811
G01 X22.9839 Y43.5002
G01 X22.9394 Y43.5160
G01 X22.8983 Y43.5262
G01 X22.8552 Y43.5327
G01 X22.8092 Y43.5350
G01 X20.7258 Y43.5350
G01 X20.7258 Y44.7521
G01 X20.7428 Y44.7603
G01 X20.8262 Y44.8103
G01 X20.9070 Y44.8705
G01 X20.9781 Y44.9349
G01 X21.0425 Y45.0060
G01 X21.1041 Y45.0889
G01 X21.1533 Y45.1712
G01 X21.1944 Y45.2579
G01 X21.2285 Y45.3528
G01 X21.2524 Y45.4482
G01 X21.2666 Y45.5431
G01 X21.2717 Y45.6438
G01 X21.2666 Y45.7445
G01 X21.2524 Y45.8394
G01 X21.2292 Y45.9324
G01 X21.1954 Y46.0274
G01 X21.1521 Y46.1185
G01 X21.1027 Y46.2008
G01 X21.0457 Y46.2778
G01 X20.9781 Y46.3527
G01 X20.9032 Y46.4203
G01 X20.8262 Y46.4773
G01 X20.7428 Y46.5273
G01 X20.6528 Y46.5700
G01 X20.5602 Y46.6031
G01 X20.4648 Y46.6270
G01 X20.3650 Y46.6417
G01 X20.2692 Y46.6463
G01 X20.1734 Y46.6417
G01 X20.0760 Y46.6275
G01 X19.9782 Y46.6031
G01 X19.8856 Y46.5700
G01 X19.7966 Y46.5279
G01 X19.7102 Y46.4759
G01 X19.6314 Y46.4171
G01 X19.5603 Y46.3527
G01 X19.4959 Y46.2816
G01 X19.4357 Y46.2008
G01 X19.3851 Y46.1164
G01 X19.3430 Y46.0274
G01 X19.3099 Y45.9348
G01 X19.2860 Y45.8394
G01 X19.2718 Y45.7445
G01 X19.2668 Y45.6413
G01 X19.2715 Y45.5455
G01 X19.2860 Y45.4482
G01 X19.3099 Y45.3528
G01 X19.3430 Y45.2602
G01 X19.3851 Y45.1712
G01 X19.4357 Y45.0868
G01 X19.4943 Y45.0078
G01 X19.5586 Y44.9367
G01 X19.6332 Y44.8689
G01 X19.7102 Y44.8117
G01 X19.7956 Y44.7603
G01 X19.8126 Y44.7521
G01 X19.8126 Y43.5350
G01 X10.5658 Y43.5350
G01 X10.5658 Y44.7521
G01 X10.5828 Y44.7603
G01 X10.6662 Y44.8103
G01 X10.7452 Y44.8689
G01 X10.8181 Y44.9349
G01 X10.8857 Y45.0098
G01 X10.9427 Y45.0868
G01 X10.9921 Y45.1691
G01 X11.0344 Y45.2579
G01 X11.0685 Y45.3528
G01 X11.0927 Y45.4494
G01 X11.1069 Y45.5455
G01 X11.1117 Y45.6438
G01 X11.1069 Y45.7421
G01 X11.0929 Y45.8370
G01 X11.0678 Y45.9371
G01 X11.0354 Y46.0274
G01 X10.9933 Y46.1164
G01 X10.9413 Y46.2028
G01 X10.8841 Y46.2798
G01 X10.8181 Y46.3527
G01 X10.7432 Y46.4203
G01 X10.6662 Y46.4773
G01 X10.5839 Y46.5267
G01 X10.4928 Y46.5700
G01 X10.3978 Y46.6038
G01 X10.3048 Y46.6270
G01 X10.2099 Y46.6412
G01 X10.1092 Y46.6463
G01 X10.0085 Y46.6412
G01 X9.9136 Y46.6270
G01 X9.8206 Y46.6038
G01 X9.7256 Y46.5700
G01 X9.6345 Y46.5267
G01 X9.5522 Y46.4773
G01 X9.4752 Y46.4203
G01 X9.4003 Y46.3527
G01 X9.3327 Y46.2778
G01 X9.2757 Y46.2008
G01 X9.2257 Y46.1174
G01 X9.1830 Y46.0274
G01 X9.1506 Y45.9371
G01 X9.1255 Y45.8370
G01 X9.1115 Y45.7421
G01 X9.1067 Y45.6438
G01 X9.1115 Y45.5455
G01 X9.1262 Y45.4470
G01 X9.1499 Y45.3528
G01 X9.1840 Y45.2579
G01 X9.2251 Y45.1712
G01 X9.2743 Y45.0889
G01 X9.3327 Y45.0098
G01 X9.4003 Y44.9349
G01 X9.4732 Y44.8689
G01 X9.5522 Y44.8103
G01 X9.6356 Y44.7603
G01 X9.6526 Y44.7521
G01 X9.6526 Y43.0784
G01 X9.6548 Y43.0336
G01 X9.6610 Y42.9917
G01 X9.6723 Y42.9459
G01 X9.6884 Y42.9014
G01 X9.7065 Y42.8632
G01 X9.7282 Y42.8268
G01 X9.7578 Y42.7869
G01 X9.7863 Y42.7555
G01 X9.8177 Y42.7270
G01 X9.8555 Y42.6988
G01 X9.8940 Y42.6757
G01 X9.9322 Y42.6576
G01 X9.9778 Y42.6411
G01 X10.0201 Y42.6306
G01 X10.0620 Y42.6243
G01 X10.1092 Y42.6218
G01 X22.3526 Y42.6218
G01 X22.3526 Y38.0238
G01 X22.3548 Y37.9790
G01 X22.3614 Y37.9347
G01 X22.3723 Y37.8913
G01 X22.3869 Y37.8502
G01 X22.4077 Y37.8064
G01 X22.4296 Y37.7701
G01 X22.4547 Y37.7361
G01 X22.4863 Y37.7009
G01 X22.5215 Y37.6693
G01 X22.5555 Y37.6442
G01 X22.5918 Y37.6223
G01 X22.6345 Y37.6020
G01 X22.6790 Y37.5862
G01 X22.7201 Y37.5760
G01 X22.7620 Y37.5697
G01 X22.8092 Y37.5672
G01 X24.3409 Y37.5672
G00 Z5.0000
G00 X25.3653 Y48.6639
G01 F60.00
G01 Z0.0000
G01 F100.00
G01 X25.3227 Y48.6658
G01 X15.2135 Y48.6404
G01 X15.1765 Y48.6388
G01 X15.1663 Y48.6378
G01 X15.1321 Y48.6329
G01 X15.1244 Y48.6314
G01 X15.0873 Y48.6223
G01 X15.0798 Y48.6200
G01 X15.0473 Y48.6086
G01 X15.0377 Y48.6047
G01 X15.0042 Y48.5890
G01 X14.9973 Y48.5853
G01 X14.9676 Y48.5678
G01 X14.9590 Y48.5621
G01 X14.9292 Y48.5402
G01 X14.9231 Y48.5352
G01 X14.8974 Y48.5122
G01 X14.8909 Y48.5059
G01 X14.8660 Y48.4786
G01 X14.8594 Y48.4706
G01 X14.8387 Y48.4430
G01 X14.8343 Y48.4365
G01 X14.8151 Y48.4049
G01 X14.8108 Y48.3969
G01 X14.7949 Y48.3636
G01 X14.7919 Y48.3563
G01 X14.7801 Y48.3239
G01 X14.7770 Y48.3141
G01 X14.7679 Y48.2783
G01 X14.7663 Y48.2705
G01 X14.7611 Y48.2365
G01 X14.7600 Y48.2262
G01 X14.7580 Y48.1893
G01 X14.7381 Y46.5382
G01 X14.7156 Y46.5273
G01 X14.6312 Y46.4767
G01 X14.5532 Y46.4187
G01 X14.4795 Y46.3518
G01 X14.4143 Y46.2798
G01 X14.3557 Y46.2008
G01 X14.3051 Y46.1164
G01 X14.2635 Y46.0286
G01 X14.2299 Y45.9348
G01 X14.2065 Y45.8418
G01 X14.1913 Y45.7396
G01 X14.1867 Y45.6438
G01 X14.1915 Y45.5455
G01 X14.2060 Y45.4482
G01 X14.2299 Y45.3528
G01 X14.2640 Y45.2579
G01 X14.3051 Y45.1712
G01 X14.3557 Y45.0868
G01 X14.4159 Y45.0060
G01 X14.4803 Y44.9349
G01 X14.5532 Y44.8689
G01 X14.6322 Y44.8103
G01 X14.7145 Y44.7609
G01 X14.8056 Y44.7176
G01 X14.9006 Y44.6838
G01 X14.9936 Y44.6606
G01 X15.0885 Y44.6464
G01 X15.1917 Y44.6414
G01 X15.2875 Y44.6461
G01 X15.3848 Y44.6606
G01 X15.4825 Y44.6852
G01 X15.5728 Y44.7176
G01 X15.6596 Y44.7586
G01 X15.7462 Y44.8103
G01 X15.8270 Y44.8705
G01 X15.8981 Y44.9349
G01 X15.9625 Y45.0060
G01 X16.0241 Y45.0889
G01 X16.0733 Y45.1712
G01 X16.1154 Y45.2602
G01 X16.1485 Y45.3528
G01 X16.1719 Y45.4458
G01 X16.1871 Y45.5480
G01 X16.1917 Y45.6438
G01 X16.1867 Y45.7433
G01 X16.1719 Y45.8418
G01 X16.1485 Y45.9348
G01 X16.1163 Y46.0251
G01 X16.0733 Y46.1164
G01 X16.0227 Y46.2008
G01 X15.9625 Y46.2816
G01 X15.8981 Y46.3527
G01 X15.8270 Y46.4171
G01 X15.7462 Y46.4773
G01 X15.6639 Y46.5267
G01 X15.6513 Y46.5329
G01 X15.6657 Y47.7283
G01 X24.8726 Y47.7515
G01 X24.8871 Y46.5330
G01 X24.8745 Y46.5267
G01 X24.7922 Y46.4773
G01 X24.7114 Y46.4171
G01 X24.6403 Y46.3527
G01 X24.5759 Y46.2816
G01 X24.5143 Y46.1987
G01 X24.4651 Y46.1164
G01 X24.4240 Y46.0297
G01 X24.3899 Y45.9348
G01 X24.3660 Y45.8394
G01 X24.3518 Y45.7445
G01 X24.3467 Y45.6438
G01 X24.3515 Y45.5455
G01 X24.3655 Y45.4506
G01 X24.3899 Y45.3528
G01 X24.4240 Y45.2579
G01 X24.4651 Y45.1712
G01 X24.5143 Y45.0889
G01 X24.5759 Y45.0060
G01 X24.6403 Y44.9349
G01 X24.7114 Y44.8705
G01 X24.7922 Y44.8103
G01 X24.8756 Y44.7603
G01 X24.8926 Y44.7521
G01 X24.8926 Y41.5721
G01 X24.8269 Y41.5410
G01 X24.7326 Y41.4844
G01 X24.6463 Y41.4203
G01 X24.5666 Y41.3481
G01 X24.4912 Y41.2648
G01 X24.4279 Y41.1794
G01 X24.3726 Y41.0872
G01 X24.3247 Y40.9855
G01 X24.2889 Y40.8854
G01 X24.2625 Y40.7800
G01 X24.2465 Y40.6724
G01 X24.2413 Y40.5663
G01 X24.2465 Y40.4552
G01 X24.2625 Y40.3476
G01 X24.2897 Y40.2398
G01 X24.3265 Y40.1375
G01 X24.3720 Y40.0415
G01 X24.4266 Y39.9503
G01 X24.4927 Y39.8609
G01 X24.5657 Y39.7803
G01 X24.6463 Y39.7073
G01 X24.7336 Y39.6425
G01 X24.8269 Y39.5866
G01 X24.9275 Y39.5393
G01 X25.0299 Y39.5029
G01 X25.1330 Y39.4771
G01 X25.2382 Y39.4614
G01 X25.3492 Y39.4558
G01 X25.4578 Y39.4611
G01 X25.5654 Y39.4771
G01 X25.6708 Y39.5035
G01 X25.7755 Y39.5411
G01 X25.8715 Y39.5866
G01 X25.9648 Y39.6425
G01 X26.0521 Y39.7073
G01 X26.1309 Y39.7786
G01 X26.2057 Y39.8609
G01 X26.2705 Y39.9482
G01 X26.3252 Y40.0394
G01 X26.3729 Y40.1398
G01 X26.4101 Y40.2445
G01 X26.4359 Y40.3476
G01 X26.4519 Y40.4552
G01 X26.4572 Y40.5638
G01 X26.4520 Y40.6700
G01 X26.4359 Y40.7800
G01 X26.4095 Y40.8854
G01 X26.3737 Y40.9855
G01 X26.3258 Y41.0872
G01 X26.2705 Y41.1794
G01 X26.2072 Y41.2648
G01 X26.1318 Y41.3481
G01 X26.0521 Y41.4203
G01 X25.9658 Y41.4844
G01 X25.8715 Y41.5410
G01 X25.8058 Y41.5721
G01 X25.8058 Y44.7521
G01 X25.8228 Y44.7603
G01 X25.9062 Y44.8103
G01 X25.9870 Y44.8705
G01 X26.0581 Y44.9349
G01 X26.1225 Y45.0060
G01 X26.1841 Y45.0889
G01 X26.2333 Y45.1712
G01 X26.2744 Y45.2579
G01 X26.3085 Y45.3528
G01 X26.3324 Y45.4482
G01 X26.3466 Y45.5431
G01 X26.3517 Y45.6450
G01 X26.3469 Y45.7421
G01 X26.3329 Y45.8370
G01 X26.3085 Y45.9348
G01 X26.2744 Y46.0297
G01 X26.2333 Y46.1164
G01 X26.1834 Y46.1997
G01 X26.1225 Y46.2816
G01 X26.0581 Y46.3527
G01 X25.9861 Y46.4180
G01 X25.9051 Y46.4780
G01 X25.8228 Y46.5273
G01 X25.8003 Y46.5381
G01 X25.7804 Y48.2146
G01 X25.7781 Y48.2551
G01 X25.7718 Y48.2970
G01 X25.7700 Y48.3060
G01 X25.7591 Y48.3469
G01 X25.7452 Y48.3850
G01 X25.7271 Y48.4233
G01 X25.7227 Y48.4313
G01 X25.7004 Y48.4674
G01 X25.6760 Y48.4998
G01 X25.6475 Y48.5311
G01 X25.6410 Y48.5376
G01 X25.6092 Y48.5656
G01 X25.5765 Y48.5895
G01 X25.5402 Y48.6112
G01 X25.5320 Y48.6155
G01 X25.4935 Y48.6331
G01 X25.4552 Y48.6465
G01 X25.4141 Y48.6567
G01 X25.4051 Y48.6584
G01 X25.3653 Y48.6639
G00 Z5.0000
G00 X32.5126 Y48.2098
G01 F60.00
G01 Z0.0000
G01 F100.00
G01 X32.5126 Y46.5355
G01 X32.4956 Y46.5273
G01 X32.4122 Y46.4773
G01 X32.3314 Y46.4171
G01 X32.2603 Y46.3527
G01 X32.1959 Y46.2816
G01 X32.1343 Y46.1987
G01 X32.0851 Y46.1164
G01 X32.0440 Y46.0297
G01 X32.0099 Y45.9348
G01 X31.9860 Y45.8394
G01 X31.9718 Y45.7445
G01 X31.9667 Y45.6438
G01 X31.9715 Y45.5455
G01 X31.9855 Y45.4506
G01 X32.0099 Y45.3528
G01 X32.0440 Y45.2579
G01 X32.0851 Y45.1712
G01 X32.1343 Y45.0889
G01 X32.1959 Y45.0060
G01 X32.2603 Y44.9349
G01 X32.3314 Y44.8705
G01 X32.4122 Y44.8103
G01 X32.4956 Y44.7603
G01 X32.5126 Y44.7521
G01 X32.5126 Y41.6718
G01 X31.9088 Y41.6717
G01 X31.9002 Y41.6706
G01 X31.8932 Y41.6684
G01 X31.8866 Y41.6653
G01 X31.8804 Y41.6612
G01 X31.8750 Y41.6563
G01 X31.8696 Y41.6496
G01 X31.8660 Y41.6432
G01 X31.8630 Y41.6351
G01 X31.8617 Y41.6291
G01 X31.8612 Y41.6218
G01 X31.8612 Y39.5046
G01 X31.8622 Y39.4960
G01 X31.8646 Y39.4878
G01 X31.8677 Y39.4812
G01 X31.8726 Y39.4741
G01 X31.8785 Y39.4679
G01 X31.8845 Y39.4636
G01 X31.8909 Y39.4601
G01 X31.8991 Y39.4573
G01 X31.9051 Y39.4562
G01 X31.9112 Y39.4558
G01 X34.0284 Y39.4558
G01 X34.0370 Y39.4568
G01 X34.0452 Y39.4592
G01 X34.0529 Y39.4629
G01 X34.0599 Y39.4679
G01 X34.0658 Y39.4741
G01 X34.0707 Y39.4812
G01 X34.0743 Y39.4890
G01 X34.0765 Y39.4973
G01 X34.0772 Y39.5058
G01 X34.0772 Y41.6218
G01 X34.0767 Y41.6291
G01 X34.0750 Y41.6363
G01 X34.0719 Y41.6443
G01 X34.0681 Y41.6506
G01 X34.0634 Y41.6563
G01 X34.0580 Y41.6612
G01 X34.0518 Y41.6653
G01 X34.0440 Y41.6689
G01 X34.0370 Y41.6708
G01 X34.0296 Y41.6717
G01 X33.4258 Y41.6718
G01 X33.4258 Y44.7521
G01 X33.4428 Y44.7603
G01 X33.5262 Y44.8103
G01 X33.6070 Y44.8705
G01 X33.6781 Y44.9349
G01 X33.7425 Y45.0060
G01 X33.8041 Y45.0889
G01 X33.8533 Y45.1712
G01 X33.8944 Y45.2579
G01 X33.9285 Y45.3528
G01 X33.9529 Y45.4506
G01 X33.9669 Y45.5455
G01 X33.9717 Y45.6438
G01 X33.9666 Y45.7445
G01 X33.9524 Y45.8394
G01 X33.9285 Y45.9348
G01 X33.8944 Y46.0297
G01 X33.8533 Y46.1164
G01 X33.8041 Y46.1987
G01 X33.7425 Y46.2816
G01 X33.6781 Y46.3527
G01 X33.6070 Y46.4171
G01 X33.5262 Y46.4773
G01 X33.4428 Y46.5273
G01 X33.4258 Y46.5355
G01 X33.4258 Y47.7515
G01 X42.6726 Y47.7283
G01 X42.6726 Y46.5355
G01 X42.6556 Y46.5273
G01 X42.5722 Y46.4773
G01 X42.4914 Y46.4171
G01 X42.4203 Y46.3527
G01 X42.3559 Y46.2816
G01 X42.2957 Y46.2008
G01 X42.2451 Y46.1164
G01 X42.2021 Y46.0251
G01 X42.1699 Y45.9348
G01 X42.1465 Y45.8418
G01 X42.1318 Y45.7445
G01 X42.1268 Y45.6413
G01 X42.1315 Y45.5455
G01 X42.1465 Y45.4458
G01 X42.1699 Y45.3528
G01 X42.2030 Y45.2602
G01 X42.2451 Y45.1712
G01 X42.2950 Y45.0879
G01 X42.3559 Y45.0060
G01 X42.4203 Y44.9349
G01 X42.4932 Y44.8689
G01 X42.5743 Y44.8089
G01 X42.6566 Y44.7597
G01 X42.7456 Y44.7176
G01 X42.8382 Y44.6845
G01 X42.9312 Y44.6611
G01 X43.0309 Y44.6461
G01 X43.1317 Y44.6414
G01 X43.2275 Y44.6461
G01 X43.3248 Y44.6606
G01 X43.4225 Y44.6852
G01 X43.5128 Y44.7176
G01 X43.6018 Y44.7597
G01 X43.6862 Y44.8103
G01 X43.7632 Y44.8673
G01 X43.8381 Y44.9349
G01 X43.9041 Y45.0078
G01 X43.9613 Y45.0848
G01 X44.0133 Y45.1712
G01 X44.0563 Y45.2625
G01 X44.0885 Y45.3528
G01 X44.1119 Y45.4458
G01 X44.1271 Y45.5480
G01 X44.1317 Y45.6438
G01 X44.1266 Y45.7445
G01 X44.1124 Y45.8394
G01 X44.0885 Y45.9348
G01 X44.0554 Y46.0274
G01 X44.0144 Y46.1142
G01 X43.9613 Y46.2028
G01 X43.9041 Y46.2798
G01 X43.8381 Y46.3527
G01 X43.7652 Y46.4187
G01 X43.6882 Y46.4759
G01 X43.6028 Y46.5273
G01 X43.5858 Y46.5355
G01 X43.5858 Y48.1838
G01 X43.5839 Y48.2250
G01 X43.5833 Y48.2310
G01 X43.5770 Y48.2729
G01 X43.5668 Y48.3141
G01 X43.5524 Y48.3552
G01 X43.5500 Y48.3608
G01 X43.5324 Y48.3980
G01 X43.5108 Y48.4344
G01 X43.5074 Y48.4395
G01 X43.4829 Y48.4726
G01 X43.4546 Y48.5041
G01 X43.4503 Y48.5084
G01 X43.4197 Y48.5360
G01 X43.3858 Y48.5614
G01 X43.3808 Y48.5648
G01 X43.3444 Y48.5865
G01 X43.3072 Y48.6042
G01 X43.3016 Y48.6065
G01 X43.2617 Y48.6207
G01 X43.2206 Y48.6311
G01 X43.1751 Y48.6381
G01 X43.1303 Y48.6404
G01 X32.9667 Y48.6657
G01 X32.9244 Y48.6636
G01 X32.8801 Y48.6570
G01 X32.8367 Y48.6461
G01 X32.7945 Y48.6310
G01 X32.7540 Y48.6119
G01 X32.7155 Y48.5888
G01 X32.6795 Y48.5622
G01 X32.6463 Y48.5321
G01 X32.6162 Y48.4989
G01 X32.5896 Y48.4629
G01 X32.5665 Y48.4244
G01 X32.5474 Y48.3839
G01 X32.5323 Y48.3417
G01 X32.5214 Y48.2983
G01 X32.5148 Y48.2540
G01 X32.5126 Y48.2098
G00 Z5.0000
G00 X38.5565 Y58.3465
G01 F60.00
G01 Z0.0000
G01 F100.00
G01 X38.5349 Y60.1697
G01 X38.5489 Y60.1784
G01 X38.6158 Y60.2283
G01 X38.6757 Y60.2827
G01 X38.7317 Y60.3445
G01 X38.7814 Y60.4115
G01 X38.8231 Y60.4809
G01 X38.8600 Y60.5585
G01 X38.8887 Y60.6394
G01 X38.9084 Y60.7180
G01 X38.9206 Y60.8005
G01 X38.9247 Y60.8838
G01 X38.9208 Y60.9647
G01 X38.9084 Y61.0496
G01 X38.8881 Y61.1306
G01 X38.8600 Y61.2091
G01 X38.8243 Y61.2845
G01 X38.7814 Y61.3561
G01 X38.7317 Y61.4231
G01 X38.6757 Y61.4849
G01 X38.6139 Y61.5409
G01 X38.5469 Y61.5906
G01 X38.4753 Y61.6335
G01 X38.3999 Y61.6692
G01 X38.3214 Y61.6973
G01 X38.2404 Y61.7176
G01 X38.1579 Y61.7298
G01 X38.0746 Y61.7339
G01 X37.9913 Y61.7298
G01 X37.9088 Y61.7176
G01 X37.8278 Y61.6973
G01 X37.7516 Y61.6701
G01 X37.6717 Y61.6323
G01 X37.6023 Y61.5906
G01 X37.5353 Y61.5409
G01 X37.4735 Y61.4849
G01 X37.4191 Y61.4250
G01 X37.3665 Y61.3540
G01 X37.3249 Y61.2845
G01 X37.2892 Y61.2091
G01 X37.2605 Y61.1282
G01 X37.2408 Y61.0496
G01 X37.2286 Y60.9671
G01 X37.2246 Y60.8813
G01 X37.2286 Y60.8005
G01 X37.2408 Y60.7180
G01 X37.2619 Y60.6347
G01 X37.2892 Y60.5585
