(G-CODE GENERATED BY FLATCAM v8.994 - www.flatcam.org - Version Date: 2020/11/7)

(Name: NE555_v2_copperBottom.gbl_iso_combined_cnc)
(Type: G-code from Geometry)
(Units: MM)

(Created on Wednesday, 16 October 2024 at 21:21)

(This preprocessor is the default preprocessor used by FlatCAM.)
(It is made to work with MACH3 compatible motion controllers.)

(TOOL DIAMETER: 1.0 mm)
(Feedrate_XY: 120.0 mm/min)
(Feedrate_Z: 60.0 mm/min)
(Feedrate rapids 1500.0 mm/min)

(Z_Cut: -0.05 mm)
(Z_Move: 2.0 mm)
(Z Start: None mm)
(Z End: 15.0 mm)
(X,Y End: None mm)
(Steps per circle: 64)
(Preprocessor Geometry: default)

(X range:    1.4301 ...   31.5899  mm)
(Y range:    1.3539 ...   36.5683  mm)

(Spindle Speed: 0.0 RPM)
G21
G90
G94

G01 F120.00

M5
G00 Z15.0000
G00 X0.0000 Y0.0000
T1
M6    
(MSG, Change to Tool Dia = 1.0000)
M0
G00 Z15.0000

M03
G01 F120.00
G00 X19.2101 Y5.9149
G01 F60.00
G01 Z-0.0500
G01 F120.00
G01 X19.2102 Y7.5307
G01 X19.2144 Y7.6150
G01 X19.2168 Y7.6394
G01 X19.2184 Y7.6515
G01 X19.2272 Y7.7108
G01 X19.2314 Y7.7349
G01 X19.2368 Y7.7589
G01 X19.2513 Y7.8169
G01 X19.2545 Y7.8288
G01 X19.2616 Y7.8523
G01 X19.2900 Y7.9317
G01 X19.2994 Y7.9544
G01 X19.3045 Y7.9656
G01 X19.3301 Y8.0197
G01 X19.3412 Y8.0416
G01 X19.3532 Y8.0630
G01 X19.3840 Y8.1143
G01 X19.3971 Y8.1350
G01 X19.4113 Y8.1551
G01 X19.4469 Y8.2032
G01 X19.4620 Y8.2225
G01 X19.4699 Y8.2319
G01 X19.5183 Y8.2854
G01 X19.5266 Y8.2944
G01 X19.5440 Y8.3118
G01 X19.6065 Y8.3685
G01 X19.6159 Y8.3764
G01 X19.6352 Y8.3915
G01 X19.6833 Y8.4271
G01 X19.7034 Y8.4413
G01 X19.7241 Y8.4544
G01 X19.7754 Y8.4852
G01 X19.7968 Y8.4972
G01 X19.8077 Y8.5029
G01 X19.8840 Y8.5390
G01 X19.8953 Y8.5438
G01 X19.9182 Y8.5526
G01 X19.9745 Y8.5728
G01 X19.9978 Y8.5805
G01 X20.0215 Y8.5871
G01 X20.0795 Y8.6016
G01 X20.1035 Y8.6070
G01 X20.1276 Y8.6112
G01 X20.1869 Y8.6200
G01 X20.2112 Y8.6230
G01 X20.2357 Y8.6248
G01 X20.3077 Y8.6282
G01 X27.0483 Y8.6283
G01 X27.0713 Y8.6465
G01 X27.1454 Y8.7014
G01 X27.1655 Y8.7155
G01 X27.1862 Y8.7287
G01 X27.2653 Y8.7761
G01 X27.2871 Y8.7884
G01 X27.2653 Y8.8007
G01 X27.1862 Y8.8481
G01 X27.1655 Y8.8613
G01 X27.1454 Y8.8754
G01 X27.0713 Y8.9303
G01 X27.0616 Y8.9378
G01 X27.0426 Y8.9533
G01 X26.9651 Y9.0234
G01 X26.9473 Y9.0403
G01 X26.9304 Y9.0581
G01 X26.8685 Y9.1264
G01 X26.8524 Y9.1450
G01 X26.8373 Y9.1643
G01 X26.7824 Y9.2384
G01 X26.7683 Y9.2585
G01 X26.7551 Y9.2792
G01 X26.7077 Y9.3583
G01 X26.6956 Y9.3797
G01 X26.6846 Y9.4016
G01 X26.6451 Y9.4850
G01 X26.6352 Y9.5074
G01 X26.6264 Y9.5303
G01 X26.5913 Y9.6288
G01 X26.5876 Y9.6404
G01 X26.5811 Y9.6641
G01 X26.5586 Y9.7536
G01 X26.5533 Y9.7775
G01 X26.5491 Y9.8017
G01 X26.5355 Y9.8929
G01 X26.5325 Y9.9173
G01 X26.5307 Y9.9417
G01 X26.5262 Y10.0339
G01 X26.5256 Y10.0584
G01 X26.5262 Y10.0829
G01 X26.5307 Y10.1751
G01 X26.5325 Y10.1995
G01 X26.5355 Y10.2239
G01 X26.5491 Y10.3151
G01 X26.5510 Y10.3272
G01 X26.5558 Y10.3513
G01 X26.5811 Y10.4527
G01 X26.5876 Y10.4764
G01 X26.5953 Y10.4997
G01 X26.6264 Y10.5865
G01 X26.6352 Y10.6094
G01 X26.6451 Y10.6318
G01 X26.6846 Y10.7152
G01 X26.6956 Y10.7371
G01 X26.7077 Y10.7585
G01 X26.7551 Y10.8376
G01 X26.7683 Y10.8583
G01 X26.7824 Y10.8784
G01 X26.8373 Y10.9525
G01 X26.8524 Y10.9718
G01 X26.8685 Y10.9904
G01 X26.9304 Y11.0587
G01 X26.9473 Y11.0765
G01 X26.9651 Y11.0934
G01 X27.0334 Y11.1553
G01 X27.0520 Y11.1714
G01 X27.0713 Y11.1865
G01 X27.1454 Y11.2414
G01 X27.1655 Y11.2555
G01 X27.1862 Y11.2687
G01 X27.2653 Y11.3161
G01 X27.2867 Y11.3282
G01 X27.3086 Y11.3392
G01 X27.3920 Y11.3787
G01 X27.4144 Y11.3886
G01 X27.4373 Y11.3974
G01 X27.5241 Y11.4285
G01 X27.5474 Y11.4362
G01 X27.5711 Y11.4427
G01 X27.6606 Y11.4652
G01 X27.6845 Y11.4705
G01 X27.7087 Y11.4747
G01 X27.7999 Y11.4883
G01 X27.8243 Y11.4913
G01 X27.8487 Y11.4931
G01 X27.9409 Y11.4976
G01 X27.9654 Y11.4982
G01 X27.9899 Y11.4976
G01 X28.0821 Y11.4931
G01 X28.1065 Y11.4913
G01 X28.1309 Y11.4883
G01 X28.2221 Y11.4747
G01 X28.2463 Y11.4705
G01 X28.2702 Y11.4652
G01 X28.3597 Y11.4427
G01 X28.3834 Y11.4362
G01 X28.4067 Y11.4285
G01 X28.4935 Y11.3974
G01 X28.5164 Y11.3886
G01 X28.5388 Y11.3787
G01 X28.6222 Y11.3392
G01 X28.6441 Y11.3282
G01 X28.6655 Y11.3161
G01 X28.7446 Y11.2687
G01 X28.7653 Y11.2555
G01 X28.7854 Y11.2414
G01 X28.8595 Y11.1865
G01 X28.8788 Y11.1714
G01 X28.8974 Y11.1553
G01 X28.9657 Y11.0934
G01 X28.9835 Y11.0765
G01 X29.0004 Y11.0587
G01 X29.0623 Y10.9904
G01 X29.0784 Y10.9718
G01 X29.0935 Y10.9525
G01 X29.1484 Y10.8784
G01 X29.1625 Y10.8583
G01 X29.1757 Y10.8376
G01 X29.2231 Y10.7585
G01 X29.2352 Y10.7371
G01 X29.2462 Y10.7152
G01 X29.2857 Y10.6318
G01 X29.2956 Y10.6094
G01 X29.3044 Y10.5865
G01 X29.3355 Y10.4997
G01 X29.3432 Y10.4764
G01 X29.3497 Y10.4527
G01 X29.3701 Y10.3715
G01 X29.3701 Y27.5253
G01 X29.3497 Y27.4441
G01 X29.3432 Y27.4204
G01 X29.3355 Y27.3971
G01 X29.3044 Y27.3103
G01 X29.3002 Y27.2988
G01 X29.2908 Y27.2761
G01 X29.2408 Y27.1706
G01 X29.2293 Y27.1489
G01 X29.2231 Y27.1383
G01 X29.1757 Y27.0592
G01 X29.1625 Y27.0385
G01 X29.1484 Y27.0184
G01 X29.0935 Y26.9443
G01 X29.0860 Y26.9346
G01 X29.0736 Y26.9193
G01 X29.0245 Y15.1084
G01 X29.0238 Y15.0747
G01 X29.0198 Y15.0118
G01 X29.0163 Y14.9784
G01 X29.0147 Y14.9662
G01 X29.0046 Y14.9040
G01 X28.9978 Y14.8710
G01 X28.9950 Y14.8591
G01 X28.9788 Y14.7982
G01 X28.9689 Y14.7660
G01 X28.9649 Y14.7544
G01 X28.9428 Y14.6954
G01 X28.9298 Y14.6643
G01 X28.9247 Y14.6532
G01 X28.8970 Y14.5966
G01 X28.8809 Y14.5670
G01 X28.8748 Y14.5564
G01 X28.8416 Y14.5028
G01 X28.8227 Y14.4749
G01 X28.8156 Y14.4650
G01 X28.7773 Y14.4149
G01 X28.7558 Y14.3890
G01 X28.7477 Y14.3798
G01 X28.7048 Y14.3337
G01 X28.6808 Y14.3100
G01 X28.6718 Y14.3016
G01 X28.6246 Y14.2600
G01 X28.5984 Y14.2388
G01 X28.5887 Y14.2313
G01 X28.5375 Y14.1945
G01 X28.5094 Y14.1760
G01 X28.4884 Y14.1633
G01 X28.4445 Y14.1379
G01 X28.4337 Y14.1320
G01 X28.4037 Y14.1168
G01 X28.3464 Y14.0906
G01 X28.3152 Y14.0779
G01 X28.2921 Y14.0696
G01 X28.2441 Y14.0532
G01 X28.2118 Y14.0436
G01 X28.2000 Y14.0405
G01 X28.1386 Y14.0260
G01 X28.1056 Y14.0196
G01 X28.0935 Y14.0177
G01 X28.0310 Y14.0093
G01 X27.9975 Y14.0062
G01 X27.9852 Y14.0054
G01 X27.9223 Y14.0032
G01 X27.8886 Y14.0034
G01 X25.1850 Y14.0668
G01 X25.1264 Y14.0137
G01 X25.1079 Y13.9977
G01 X25.0885 Y13.9826
G01 X25.0064 Y13.9217
G01 X24.9864 Y13.9076
G01 X24.9656 Y13.8944
G01 X24.8780 Y13.8419
G01 X24.8566 Y13.8298
G01 X24.8347 Y13.8188
G01 X24.7311 Y13.7700
G01 X24.7199 Y13.7651
G01 X24.6970 Y13.7563
G01 X24.6007 Y13.7219
G01 X24.5774 Y13.7142
G01 X24.5538 Y13.7076
G01 X24.4547 Y13.6828
G01 X24.4307 Y13.6774
G01 X24.4065 Y13.6732
G01 X24.3054 Y13.6582
G01 X24.2933 Y13.6566
G01 X24.2689 Y13.6542
G01 X24.1545 Y13.6484
G01 X24.1300 Y13.6478
G01 X24.1055 Y13.6484
G01 X24.0034 Y13.6534
G01 X23.9789 Y13.6552
G01 X23.9667 Y13.6566
G01 X23.8535 Y13.6732
G01 X23.8414 Y13.6752
G01 X23.8173 Y13.6800
G01 X23.6943 Y13.7108
G01 X23.6826 Y13.7142
G01 X23.6593 Y13.7219
G01 X23.5630 Y13.7563
G01 X23.5401 Y13.7651
G01 X23.5289 Y13.7700
G01 X23.4143 Y13.8242
G01 X23.4034 Y13.8298
G01 X23.3820 Y13.8419
G01 X23.2839 Y13.9009
G01 X23.2635 Y13.9145
G01 X23.2536 Y13.9217
G01 X23.1715 Y13.9826
G01 X23.1521 Y13.9977
G01 X23.1336 Y14.0137
G01 X23.0717 Y14.0697
G01 X21.2665 Y14.0375
G01 X21.2508 Y14.0235
G01 X21.2319 Y14.0079
G01 X21.1371 Y13.9376
G01 X21.1167 Y13.9240
G01 X21.1062 Y13.9176
G01 X21.0261 Y13.8695
G01 X21.0047 Y13.8574
G01 X20.9828 Y13.8464
G01 X20.8983 Y13.8064
G01 X20.8758 Y13.7965
G01 X20.8529 Y13.7876
G01 X20.7649 Y13.7561
G01 X20.7533 Y13.7522
G01 X20.7299 Y13.7450
G01 X20.6273 Y13.7192
G01 X20.6154 Y13.7164
G01 X20.5913 Y13.7116
G01 X20.4746 Y13.6942
G01 X20.4624 Y13.6929
G01 X20.4379 Y13.6911
G01 X20.3445 Y13.6865
G01 X20.3200 Y13.6859
G01 X20.2955 Y13.6865
G01 X20.2021 Y13.6911
G01 X20.1899 Y13.6918
G01 X20.1654 Y13.6942
G01 X20.0487 Y13.7116
G01 X20.0366 Y13.7138
G01 X20.0127 Y13.7192
G01 X19.9220 Y13.7419
G01 X19.8984 Y13.7484
G01 X19.8751 Y13.7561
G01 X19.7871 Y13.7876
G01 X19.7642 Y13.7965
G01 X19.7417 Y13.8064
G01 X19.6572 Y13.8464
G01 X19.6353 Y13.8574
G01 X19.6139 Y13.8695
G01 X19.5338 Y13.9176
G01 X19.5130 Y13.9307
G01 X19.4930 Y13.9448
G01 X19.4179 Y14.0005
G01 X19.3985 Y14.0156
G01 X19.3800 Y14.0316
G01 X19.3107 Y14.0944
G01 X19.2929 Y14.1113
G01 X19.2760 Y14.1291
G01 X19.2132 Y14.1984
G01 X19.1972 Y14.2169
G01 X19.1821 Y14.2363
G01 X19.1264 Y14.3114
G01 X19.1123 Y14.3314
G01 X19.0992 Y14.3522
G01 X19.0511 Y14.4323
G01 X19.0390 Y14.4537
G01 X19.0280 Y14.4756
G01 X18.9880 Y14.5601
G01 X18.9781 Y14.5826
G01 X18.9692 Y14.6055
G01 X18.9377 Y14.6935
G01 X18.9300 Y14.7168
G01 X18.9235 Y14.7404
G01 X18.9008 Y14.8311
G01 X18.8954 Y14.8550
G01 X18.8912 Y14.8792
G01 X18.8775 Y14.9717
G01 X18.8745 Y14.9960
G01 X18.8727 Y15.0205
G01 X18.8677 Y15.1261
G01 X18.8675 Y15.1384
G01 X18.8681 Y15.1629
G01 X18.8727 Y15.2563
G01 X18.8745 Y15.2808
G01 X18.8775 Y15.3051
G01 X18.8912 Y15.3976
G01 X18.8954 Y15.4218
G01 X18.9008 Y15.4457
G01 X18.9235 Y15.5364
G01 X18.9300 Y15.5600
G01 X18.9377 Y15.5833
G01 X18.9692 Y15.6713
G01 X18.9781 Y15.6942
G01 X18.9880 Y15.7167
G01 X19.0280 Y15.8012
G01 X19.0390 Y15.8231
G01 X19.0511 Y15.8445
G01 X19.1056 Y15.9351
G01 X19.1192 Y15.9555
G01 X19.1264 Y15.9654
G01 X19.1821 Y16.0405
G01 X19.1972 Y16.0599
G01 X19.2101 Y16.0749
G01 X19.2101 Y16.5685
G01 X17.4465 Y16.5685
G01 X17.4315 Y16.5556
G01 X17.4219 Y16.5479
G01 X17.3271 Y16.4776
G01 X17.3067 Y16.4640
G01 X17.2962 Y16.4576
G01 X17.2142 Y16.4084
G01 X17.2962 Y16.3592
G01 X17.3170 Y16.3461
G01 X17.3370 Y16.3320
G01 X17.4121 Y16.2763
G01 X17.4315 Y16.2612
G01 X17.4500 Y16.2452
G01 X17.5193 Y16.1824
G01 X17.5371 Y16.1655
G01 X17.5540 Y16.1477
G01 X17.6168 Y16.0784
G01 X17.6328 Y16.0599
G01 X17.6479 Y16.0405
G01 X17.7036 Y15.9654
G01 X17.7177 Y15.9454
G01 X17.7308 Y15.9246
G01 X17.7789 Y15.8445
G01 X17.7910 Y15.8231
G01 X17.8020 Y15.8012
G01 X17.8420 Y15.7167
G01 X17.8519 Y15.6942
G01 X17.8608 Y15.6713
G01 X17.8923 Y15.5833
G01 X17.8962 Y15.5717
G01 X17.9034 Y15.5483
G01 X17.9320 Y15.4338
G01 X17.9368 Y15.4097
G01 X17.9388 Y15.3976
G01 X17.9525 Y15.3051
G01 X17.9555 Y15.2808
G01 X17.9573 Y15.2563
G01 X17.9623 Y15.1507
G01 X17.9625 Y15.1384
G01 X17.9619 Y15.1139
G01 X17.9573 Y15.0205
G01 X17.9555 Y14.9960
G01 X17.9525 Y14.9717
G01 X17.9388 Y14.8792
G01 X17.9346 Y14.8550
G01 X17.9292 Y14.8311
G01 X17.9065 Y14.7404
G01 X17.9000 Y14.7168
G01 X17.8923 Y14.6935
G01 X17.8608 Y14.6055
G01 X17.8519 Y14.5826
G01 X17.8420 Y14.5601
G01 X17.7966 Y14.4646
G01 X17.7910 Y14.4537
G01 X17.7789 Y14.4323
G01 X17.7308 Y14.3522
G01 X17.7177 Y14.3314
G01 X17.7108 Y14.3213
G01 X17.6405 Y14.2265
G01 X17.6328 Y14.2169
G01 X17.6199 Y14.2019
G01 X17.6199 Y3.5737
G01 X19.9547 Y3.5737
G01 X19.9101 Y3.5850
G01 X19.8867 Y3.5922
G01 X19.7755 Y3.6319
G01 X19.7529 Y3.6413
G01 X19.7417 Y3.6464
G01 X19.6572 Y3.6864
G01 X19.6462 Y3.6918
G01 X19.6245 Y3.7033
G01 X19.5338 Y3.7576
G01 X19.5130 Y3.7707
G01 X19.4930 Y3.7848
G01 X19.4179 Y3.8405
G01 X19.4081 Y3.8479
G01 X19.3892 Y3.8635
G01 X19.3017 Y3.9428
G01 X19.2929 Y3.9513
G01 X19.2760 Y3.9691
G01 X19.2132 Y4.0384
G01 X19.1972 Y4.0569
G01 X19.1821 Y4.0763
G01 X19.1264 Y4.1514
G01 X19.1123 Y4.1714
G01 X19.0992 Y4.1922
G01 X19.0511 Y4.2723
G01 X19.0390 Y4.2937
G01 X19.0280 Y4.3156
G01 X18.9880 Y4.4001
G01 X18.9829 Y4.4113
G01 X18.9735 Y4.4339
G01 X18.9338 Y4.5451
G01 X18.9266 Y4.5685
G01 X18.9235 Y4.5804
G01 X18.9008 Y4.6711
G01 X18.8954 Y4.6950
G01 X18.8912 Y4.7192
G01 X18.8775 Y4.8117
G01 X18.8745 Y4.8360
G01 X18.8727 Y4.8605
G01 X18.8681 Y4.9539
G01 X18.8675 Y4.9784
G01 X18.8681 Y5.0029
G01 X18.8727 Y5.0963
G01 X18.8745 Y5.1208
G01 X18.8775 Y5.1451
G01 X18.8912 Y5.2376
G01 X18.8954 Y5.2618
G01 X18.9008 Y5.2857
G01 X18.9235 Y5.3764
G01 X18.9300 Y5.4000
G01 X18.9377 Y5.4233
G01 X18.9692 Y5.5113
G01 X18.9781 Y5.5342
G01 X18.9880 Y5.5567
G01 X19.0280 Y5.6412
G01 X19.0390 Y5.6631
G01 X19.0511 Y5.6845
G01 X19.0992 Y5.7646
G01 X19.1123 Y5.7854
G01 X19.1264 Y5.8054
G01 X19.1821 Y5.8805
G01 X19.1972 Y5.8999
G01 X19.2101 Y5.9149
G00 Z2.0000
G00 X27.2871 Y6.2484
G01 F60.00
G01 Z-0.0500
G01 F120.00
G01 X27.2653 Y6.2607
G01 X27.1862 Y6.3081
G01 X27.1655 Y6.3213
G01 X27.1454 Y6.3354
G01 X27.0713 Y6.3903
G01 X27.0483 Y6.4085
G01 X21.4299 Y6.4085
G01 X21.4299 Y5.9149
G01 X21.4428 Y5.8999
G01 X21.4579 Y5.8805
G01 X21.5136 Y5.8054
G01 X21.5277 Y5.7854
G01 X21.5344 Y5.7751
G01 X21.5889 Y5.6845
G01 X21.6010 Y5.6631
G01 X21.6120 Y5.6412
G01 X21.6520 Y5.5567
G01 X21.6619 Y5.5342
G01 X21.6708 Y5.5113
G01 X21.7023 Y5.4233
G01 X21.7100 Y5.4000
G01 X21.7165 Y5.3764
G01 X21.7392 Y5.2857
G01 X21.7446 Y5.2618
G01 X21.7488 Y5.2376
G01 X21.7625 Y5.1451
G01 X21.7642 Y5.1330
G01 X21.7666 Y5.1085
G01 X21.7723 Y4.9907
G01 X21.7725 Y4.9784
G01 X21.7719 Y4.9539
G01 X21.7673 Y4.8605
G01 X21.7655 Y4.8360
G01 X21.7625 Y4.8117
G01 X21.7488 Y4.7192
G01 X21.7446 Y4.6950
G01 X21.7420 Y4.6830
G01 X21.7165 Y4.5804
G01 X21.7100 Y4.5568
G01 X21.7023 Y4.5335
G01 X21.6708 Y4.4455
G01 X21.6619 Y4.4226
G01 X21.6520 Y4.4001
G01 X21.6120 Y4.3156
G01 X21.6010 Y4.2937
G01 X21.5889 Y4.2723
G01 X21.5408 Y4.1922
G01 X21.5277 Y4.1714
G01 X21.5136 Y4.1514
G01 X21.4579 Y4.0763
G01 X21.4428 Y4.0569
G01 X21.4268 Y4.0384
G01 X21.3640 Y3.9691
G01 X21.3471 Y3.9513
G01 X21.3293 Y3.9344
G01 X21.2600 Y3.8716
G01 X21.2415 Y3.8556
G01 X21.2221 Y3.8405
G01 X21.1470 Y3.7848
G01 X21.1270 Y3.7707
G01 X21.1062 Y3.7576
G01 X21.0155 Y3.7033
G01 X21.0047 Y3.6974
G01 X20.9828 Y3.6864
G01 X20.8983 Y3.6464
G01 X20.8758 Y3.6365
G01 X20.8645 Y3.6319
G01 X20.7533 Y3.5922
G01 X20.7299 Y3.5850
G01 X20.6853 Y3.5737
G01 X26.8301 Y3.5737
G01 X26.8301 Y4.0941
G01 X26.7824 Y4.1584
G01 X26.7683 Y4.1785
G01 X26.7551 Y4.1992
G01 X26.7077 Y4.2783
G01 X26.7015 Y4.2889
G01 X26.6900 Y4.3106
G01 X26.6400 Y4.4161
G01 X26.6306 Y4.4388
G01 X26.6264 Y4.4503
G01 X26.5953 Y4.5371
G01 X26.5876 Y4.5604
G01 X26.5811 Y4.5841
G01 X26.5586 Y4.6736
G01 X26.5533 Y4.6975
G01 X26.5510 Y4.7096
G01 X26.5355 Y4.8129
G01 X26.5325 Y4.8373
G01 X26.5307 Y4.8617
G01 X26.5262 Y4.9539
G01 X26.5256 Y4.9784
G01 X26.5262 Y5.0029
G01 X26.5307 Y5.0951
G01 X26.5325 Y5.1195
G01 X26.5355 Y5.1439
G01 X26.5510 Y5.2472
G01 X26.5558 Y5.2713
G01 X26.5586 Y5.2832
G01 X26.5811 Y5.3727
G01 X26.5876 Y5.3964
G01 X26.5953 Y5.4197
G01 X26.6264 Y5.5065
G01 X26.6352 Y5.5294
G01 X26.6451 Y5.5518
G01 X26.6846 Y5.6352
G01 X26.6956 Y5.6571
G01 X26.7077 Y5.6785
G01 X26.7551 Y5.7576
G01 X26.7683 Y5.7783
G01 X26.7824 Y5.7984
G01 X26.8373 Y5.8725
G01 X26.8524 Y5.8918
G01 X26.8685 Y5.9104
G01 X26.9304 Y5.9787
G01 X26.9473 Y5.9965
G01 X26.9561 Y6.0051
G01 X27.0334 Y6.0753
G01 X27.0520 Y6.0914
G01 X27.0713 Y6.1065
G01 X27.1454 Y6.1614
G01 X27.1655 Y6.1755
G01 X27.1862 Y6.1887
G01 X27.2653 Y6.2361
G01 X27.2871 Y6.2484
G00 Z2.0000
G00 X29.3701 Y7.2053
G01 F60.00
G01 Z-0.0500
G01 F120.00
G01 X29.3497 Y7.1241
G01 X29.3432 Y7.1004
G01 X29.3355 Y7.0771
G01 X29.3044 Y6.9903
G01 X29.2956 Y6.9674
G01 X29.2908 Y6.9561
G01 X29.2462 Y6.8616
G01 X29.2352 Y6.8397
G01 X29.2293 Y6.8289
G01 X29.1692 Y6.7288
G01 X29.1556 Y6.7084
G01 X29.1484 Y6.6984
G01 X29.0935 Y6.6243
G01 X29.0784 Y6.6050
G01 X29.0623 Y6.5864
G01 X29.0004 Y6.5181
G01 X28.9835 Y6.5003
G01 X28.9657 Y6.4834
G01 X28.8974 Y6.4215
G01 X28.8788 Y6.4054
G01 X28.8595 Y6.3903
G01 X28.7854 Y6.3354
G01 X28.7653 Y6.3213
G01 X28.7446 Y6.3081
G01 X28.6655 Y6.2607
G01 X28.6437 Y6.2484
G01 X28.6655 Y6.2361
G01 X28.7446 Y6.1887
G01 X28.7653 Y6.1755
G01 X28.7854 Y6.1614
G01 X28.8595 Y6.1065
G01 X28.8788 Y6.0914
G01 X28.8974 Y6.0753
G01 X28.9657 Y6.0134
G01 X28.9835 Y5.9965
G01 X29.0004 Y5.9787
G01 X29.0623 Y5.9104
G01 X29.0784 Y5.8918
G01 X29.0935 Y5.8725
G01 X29.1484 Y5.7984
G01 X29.1625 Y5.7783
G01 X29.1692 Y5.7680
G01 X29.2293 Y5.6679
G01 X29.2408 Y5.6462
G01 X29.2462 Y5.6352
G01 X29.2908 Y5.5407
G01 X29.2956 Y5.5294
G01 X29.3044 Y5.5065
G01 X29.3355 Y5.4197
G01 X29.3432 Y5.3964
G01 X29.3497 Y5.3727
G01 X29.3701 Y5.2915
G01 X29.3701 Y7.2053
G00 Z2.0000
G00 X29.3701 Y9.7453
G01 F60.00
G01 Z-0.0500
G01 F120.00
G01 X29.3497 Y9.6641
G01 X29.3432 Y9.6404
G01 X29.3355 Y9.6171
G01 X29.3044 Y9.5303
G01 X29.3002 Y9.5188
G01 X29.2908 Y9.4961
G01 X29.2462 Y9.4016
G01 X29.2352 Y9.3797
G01 X29.2293 Y9.3689
G01 X29.1692 Y9.2688
G01 X29.1556 Y9.2484
G01 X29.1484 Y9.2384
G01 X29.0935 Y9.1643
G01 X29.0784 Y9.1450
G01 X29.0623 Y9.1264
G01 X29.0004 Y9.0581
G01 X28.9835 Y9.0403
G01 X28.9657 Y9.0234
G01 X28.8974 Y8.9615
G01 X28.8788 Y8.9454
G01 X28.8595 Y8.9303
G01 X28.7854 Y8.8754
G01 X28.7653 Y8.8613
G01 X28.7446 Y8.8481
G01 X28.6655 Y8.8007
G01 X28.6437 Y8.7884
G01 X28.6655 Y8.7761
G01 X28.7446 Y8.7287
G01 X28.7653 Y8.7155
G01 X28.7854 Y8.7014
G01 X28.8595 Y8.6465
G01 X28.8788 Y8.6314
G01 X28.8974 Y8.6153
G01 X28.9657 Y8.5534
G01 X28.9835 Y8.5365
G01 X29.0004 Y8.5187
G01 X29.0623 Y8.4504
G01 X29.0784 Y8.4318
G01 X29.0935 Y8.4125
G01 X29.1484 Y8.3384
G01 X29.1625 Y8.3183
G01 X29.1692 Y8.3080
G01 X29.2293 Y8.2079
G01 X29.2352 Y8.1971
G01 X29.2462 Y8.1752
G01 X29.2908 Y8.0807
G01 X29.3002 Y8.0580
G01 X29.3044 Y8.0465
G01 X29.3355 Y7.9597
G01 X29.3432 Y7.9364
G01 X29.3497 Y7.9127
G01 X29.3701 Y7.8315
G01 X29.3701 Y9.7453
G00 Z2.0000
G00 X29.3701 Y4.6653
G01 F60.00
G01 Z-0.0500
G01 F120.00
G01 X29.3497 Y4.5841
G01 X29.3432 Y4.5604
G01 X29.3355 Y4.5371
G01 X29.3044 Y4.4503
G01 X29.3002 Y4.4388
G01 X29.2908 Y4.4161
G01 X29.2408 Y4.3106
G01 X29.2352 Y4.2997
G01 X29.2231 Y4.2783
G01 X29.1757 Y4.1992
G01 X29.1625 Y4.1785
G01 X29.1556 Y4.1684
G01 X29.0860 Y4.0746
G01 X29.0705 Y4.0556
G01 X29.0499 Y4.0327
G01 X29.0499 Y3.5737
G01 X29.3701 Y3.5737
G01 X29.3701 Y4.6653
G00 Z2.0000
G00 X29.3701 Y28.1515
G01 F60.00
G01 Z-0.0500
G01 F120.00
G01 X29.3701 Y30.0653
G01 X29.3497 Y29.9841
G01 X29.3432 Y29.9604
G01 X29.3355 Y29.9371
G01 X29.3044 Y29.8503
G01 X29.2956 Y29.8274
G01 X29.2908 Y29.8161
G01 X29.2462 Y29.7216
G01 X29.2352 Y29.6997
G01 X29.2293 Y29.6889
G01 X29.1692 Y29.5888
G01 X29.1625 Y29.5785
G01 X29.1484 Y29.5584
G01 X29.0935 Y29.4843
G01 X29.0784 Y29.4650
G01 X29.0623 Y29.4464
G01 X29.0004 Y29.3781
G01 X28.9835 Y29.3603
G01 X28.9657 Y29.3434
G01 X28.8974 Y29.2815
G01 X28.8788 Y29.2654
G01 X28.8595 Y29.2503
G01 X28.7854 Y29.1954
G01 X28.7653 Y29.1813
G01 X28.7446 Y29.1681
G01 X28.6655 Y29.1207
G01 X28.6437 Y29.1084
G01 X28.6655 Y29.0961
G01 X28.7446 Y29.0487
G01 X28.7653 Y29.0355
G01 X28.7854 Y29.0214
G01 X28.8595 Y28.9665
G01 X28.8788 Y28.9514
G01 X28.8974 Y28.9353
G01 X28.9657 Y28.8734
G01 X28.9835 Y28.8565
G01 X29.0004 Y28.8387
G01 X29.0623 Y28.7704
G01 X29.0784 Y28.7518
G01 X29.0935 Y28.7325
G01 X29.1484 Y28.6584
G01 X29.1556 Y28.6484
G01 X29.1692 Y28.6280
G01 X29.2293 Y28.5279
G01 X29.2352 Y28.5171
G01 X29.2462 Y28.4952
G01 X29.2908 Y28.4007
G01 X29.3002 Y28.3780
G01 X29.3044 Y28.3665
G01 X29.3355 Y28.2797
G01 X29.3432 Y28.2564
G01 X29.3497 Y28.2327
G01 X29.3701 Y28.1515
G00 Z2.0000
G00 X29.3701 Y30.6915
G01 F60.00
G01 Z-0.0500
G01 F120.00
G01 X29.3701 Y32.6053
G01 X29.3497 Y32.5241
G01 X29.3432 Y32.5004
G01 X29.3355 Y32.4771
G01 X29.3044 Y32.3903
G01 X29.3002 Y32.3788
G01 X29.2908 Y32.3561
G01 X29.2462 Y32.2616
G01 X29.2408 Y32.2506
G01 X29.2293 Y32.2289
G01 X29.1692 Y32.1288
G01 X29.1556 Y32.1084
G01 X29.1484 Y32.0984
G01 X29.0935 Y32.0243
G01 X29.0784 Y32.0050
G01 X29.0623 Y31.9864
G01 X29.0004 Y31.9181
G01 X28.9835 Y31.9003
G01 X28.9657 Y31.8834
G01 X28.8974 Y31.8215
G01 X28.8788 Y31.8054
G01 X28.8595 Y31.7903
G01 X28.7854 Y31.7354
G01 X28.7653 Y31.7213
G01 X28.7446 Y31.7081
G01 X28.6655 Y31.6607
G01 X28.6437 Y31.6484
G01 X28.6655 Y31.6361
G01 X28.7446 Y31.5887
G01 X28.7653 Y31.5755
G01 X28.7854 Y31.5614
G01 X28.8595 Y31.5065
G01 X28.8788 Y31.4914
G01 X28.8974 Y31.4753
G01 X28.9657 Y31.4134
G01 X28.9835 Y31.3965
G01 X29.0004 Y31.3787
G01 X29.0623 Y31.3104
G01 X29.0784 Y31.2918
G01 X29.0935 Y31.2725
G01 X29.1484 Y31.1984
G01 X29.1625 Y31.1783
G01 X29.1692 Y31.1680
G01 X29.2293 Y31.0679
G01 X29.2352 Y31.0571
G01 X29.2462 Y31.0352
G01 X29.2908 Y30.9407
G01 X29.3002 Y30.9180
G01 X29.3044 Y30.9065
G01 X29.3355 Y30.8197
G01 X29.3432 Y30.7964
G01 X29.3497 Y30.7727
G01 X29.3701 Y30.6915
G00 Z2.0000
G00 X29.3701 Y33.2315
G01 F60.00
G01 Z-0.0500
G01 F120.00
G01 X29.3701 Y34.3485
G01 X28.1291 Y34.3485
G01 X28.2221 Y34.3347
G01 X28.2463 Y34.3305
G01 X28.2702 Y34.3252
G01 X28.3597 Y34.3027
G01 X28.3834 Y34.2962
G01 X28.4067 Y34.2885
G01 X28.4935 Y34.2574
G01 X28.5164 Y34.2486
G01 X28.5277 Y34.2438
G01 X28.6222 Y34.1992
G01 X28.6441 Y34.1882
G01 X28.6655 Y34.1761
G01 X28.7550 Y34.1222
G01 X28.7653 Y34.1155
G01 X28.7854 Y34.1014
G01 X28.8595 Y34.0465
G01 X28.8788 Y34.0314
G01 X28.8974 Y34.0153
G01 X28.9657 Y33.9534
G01 X28.9835 Y33.9365
G01 X29.0004 Y33.9187
G01 X29.0705 Y33.8412
G01 X29.0784 Y33.8318
G01 X29.0935 Y33.8125
G01 X29.1484 Y33.7384
G01 X29.1625 Y33.7183
G01 X29.1757 Y33.6976
G01 X29.2231 Y33.6185
G01 X29.2352 Y33.5971
G01 X29.2462 Y33.5752
G01 X29.2857 Y33.4918
G01 X29.2956 Y33.4694
G01 X29.3044 Y33.4465
G01 X29.3355 Y33.3597
G01 X29.3432 Y33.3364
G01 X29.3497 Y33.3127
G01 X29.3701 Y33.2315
G00 Z2.0000
G00 X27.8017 Y34.3485
G01 F60.00
G01 Z-0.0500
G01 F120.00
G01 X20.5703 Y34.3485
G01 X20.5913 Y34.3452
G01 X20.6154 Y34.3404
G01 X20.7180 Y34.3149
G01 X20.7416 Y34.3084
G01 X20.7649 Y34.3007
G01 X20.8529 Y34.2692
G01 X20.8758 Y34.2603
G01 X20.8983 Y34.2504
G01 X20.9828 Y34.2104
G01 X21.0047 Y34.1994
G01 X21.0261 Y34.1873
G01 X21.1167 Y34.1328
G01 X21.1270 Y34.1261
G01 X21.1470 Y34.1120
G01 X21.2221 Y34.0563
G01 X21.2415 Y34.0412
G01 X21.2600 Y34.0252
G01 X21.3293 Y33.9624
G01 X21.3471 Y33.9455
G01 X21.3640 Y33.9277
G01 X21.4268 Y33.8584
G01 X21.4428 Y33.8399
G01 X21.4579 Y33.8205
G01 X21.5136 Y33.7454
G01 X21.5277 Y33.7254
G01 X21.5408 Y33.7046
G01 X21.5889 Y33.6245
G01 X21.6010 Y33.6031
G01 X21.6120 Y33.5812
G01 X21.6520 Y33.4967
G01 X21.6619 Y33.4742
G01 X21.6708 Y33.4513
G01 X21.7023 Y33.3633
G01 X21.7100 Y33.3400
G01 X21.7165 Y33.3164
G01 X21.7392 Y33.2257
G01 X21.7446 Y33.2018
G01 X21.7488 Y33.1776
G01 X21.7625 Y33.0851
G01 X21.7655 Y33.0608
G01 X21.7673 Y33.0363
G01 X21.7723 Y32.9307
G01 X21.7725 Y32.9184
G01 X21.7719 Y32.8939
G01 X21.7673 Y32.8005
G01 X21.7655 Y32.7760
G01 X21.7625 Y32.7517
G01 X21.7488 Y32.6592
G01 X21.7446 Y32.6350
G01 X21.7392 Y32.6111
G01 X21.7165 Y32.5204
G01 X21.7100 Y32.4968
G01 X21.7023 Y32.4735
G01 X21.6708 Y32.3855
G01 X21.6619 Y32.3626
G01 X21.6520 Y32.3401
G01 X21.6120 Y32.2556
G01 X21.6010 Y32.2337
G01 X21.5889 Y32.2123
G01 X21.5344 Y32.1217
G01 X21.5208 Y32.1013
G01 X21.5136 Y32.0914
G01 X21.4579 Y32.0163
G01 X21.4428 Y31.9969
G01 X21.4299 Y31.9819
G01 X21.4299 Y31.4883
G01 X27.0483 Y31.4883
G01 X27.0713 Y31.5065
G01 X27.1454 Y31.5614
G01 X27.1655 Y31.5755
G01 X27.1862 Y31.5887
G01 X27.2653 Y31.6361
G01 X27.2871 Y31.6484
G01 X27.2653 Y31.6607
G01 X27.1862 Y31.7081
G01 X27.1655 Y31.7213
G01 X27.1454 Y31.7354
G01 X27.0713 Y31.7903
G01 X27.0520 Y31.8054
G01 X27.0426 Y31.8133
G01 X26.9651 Y31.8834
G01 X26.9473 Y31.9003
G01 X26.9304 Y31.9181
G01 X26.8685 Y31.9864
G01 X26.8524 Y32.0050
G01 X26.8373 Y32.0243
G01 X26.7824 Y32.0984
G01 X26.7683 Y32.1185
G01 X26.7551 Y32.1392
G01 X26.7077 Y32.2183
G01 X26.6956 Y32.2397
G01 X26.6846 Y32.2616
G01 X26.6451 Y32.3450
G01 X26.6352 Y32.3674
G01 X26.6264 Y32.3903
G01 X26.5953 Y32.4771
G01 X26.5876 Y32.5004
G01 X26.5811 Y32.5241
G01 X26.5586 Y32.6136
G01 X26.5533 Y32.6375
G01 X26.5510 Y32.6496
G01 X26.5355 Y32.7529
G01 X26.5325 Y32.7773
G01 X26.5307 Y32.8017
G01 X26.5262 Y32.8939
G01 X26.5256 Y32.9184
G01 X26.5262 Y32.9429
G01 X26.5307 Y33.0351
G01 X26.5325 Y33.0595
G01 X26.5355 Y33.0839
G01 X26.5491 Y33.1751
G01 X26.5533 Y33.1993
G01 X26.5586 Y33.2232
G01 X26.5811 Y33.3127
G01 X26.5876 Y33.3364
G01 X26.5953 Y33.3597
G01 X26.6264 Y33.4465
G01 X26.6352 Y33.4694
G01 X26.6400 Y33.4807
G01 X26.6846 Y33.5752
G01 X26.6956 Y33.5971
G01 X26.7077 Y33.6185
G01 X26.7616 Y33.7080
G01 X26.7683 Y33.7183
G01 X26.7824 Y33.7384
G01 X26.8373 Y33.8125
G01 X26.8524 Y33.8318
G01 X26.8685 Y33.8504
G01 X26.9304 Y33.9187
G01 X26.9473 Y33.9365
G01 X26.9651 Y33.9534
G01 X27.0426 Y34.0235
G01 X27.0520 Y34.0314
G01 X27.0713 Y34.0465
G01 X27.1454 Y34.1014
G01 X27.1655 Y34.1155
G01 X27.1862 Y34.1287
G01 X27.2653 Y34.1761
G01 X27.2867 Y34.1882
G01 X27.3086 Y34.1992
G01 X27.3920 Y34.2387
G01 X27.4144 Y34.2486
G01 X27.4373 Y34.2574
G01 X27.5241 Y34.2885
G01 X27.5474 Y34.2962
G01 X27.5711 Y34.3027
G01 X27.6606 Y34.3252
G01 X27.6845 Y34.3305
G01 X27.7087 Y34.3347
G01 X27.8017 Y34.3485
G00 Z2.0000
G00 X20.0697 Y34.3485
G01 F60.00
G01 Z-0.0500
G01 F120.00
G01 X18.8701 Y34.3485
G01 X18.8764 Y33.0772
G01 X18.8912 Y33.1776
G01 X18.8954 Y33.2018
G01 X18.9008 Y33.2257
G01 X18.9235 Y33.3164
G01 X18.9300 Y33.3400
G01 X18.9377 Y33.3633
G01 X18.9692 Y33.4513
G01 X18.9781 Y33.4742
G01 X18.9880 Y33.4967
G01 X19.0280 Y33.5812
G01 X19.0390 Y33.6031
G01 X19.0511 Y33.6245
G01 X19.0992 Y33.7046
G01 X19.1123 Y33.7254
G01 X19.1192 Y33.7355
G01 X19.1821 Y33.8205
G01 X19.1972 Y33.8399
G01 X19.2132 Y33.8584
G01 X19.2844 Y33.9367
G01 X19.2929 Y33.9455
G01 X19.3107 Y33.9624
G01 X19.3800 Y34.0252
G01 X19.3985 Y34.0412
G01 X19.4179 Y34.0563
G01 X19.4930 Y34.1120
G01 X19.5130 Y34.1261
G01 X19.5338 Y34.1392
G01 X19.6139 Y34.1873
G01 X19.6353 Y34.1994
G01 X19.6572 Y34.2104
G01 X19.7417 Y34.2504
G01 X19.7642 Y34.2603
G01 X19.7871 Y34.2692
G01 X19.8867 Y34.3046
G01 X19.8984 Y34.3084
G01 X19.9220 Y34.3149
G01 X20.0127 Y34.3376
G01 X20.0366 Y34.3430
G01 X20.0697 Y34.3485
G00 Z2.0000
G00 X18.8781 Y32.7478
G01 F60.00
G01 Z-0.0500
G01 F120.00
G01 X18.8899 Y30.3796
G01 X18.8893 Y30.3539
G01 X18.8868 Y30.2996
G01 X18.8847 Y30.2709
G01 X18.8816 Y30.2453
G01 X18.8737 Y30.1915
G01 X18.8688 Y30.1631
G01 X18.8632 Y30.1379
G01 X18.8501 Y30.0852
G01 X18.8433 Y30.0603
G01 X18.8386 Y30.0451
G01 X18.8162 Y29.9817
G01 X18.8071 Y29.9576
G01 X18.7955 Y29.9312
G01 X18.7724 Y29.8821
G01 X18.7609 Y29.8590
G01 X18.7532 Y29.8450
G01 X18.7122 Y29.7762
G01 X18.7035 Y29.7628
G01 X18.6887 Y29.7417
G01 X18.6565 Y29.6980
G01 X18.6388 Y29.6753
G01 X18.6219 Y29.6557
G01 X18.5856 Y29.6154
G01 X18.5679 Y29.5966
G01 X18.5565 Y29.5854
G01 X18.5069 Y29.5401
G01 X18.4874 Y29.5232
G01 X18.4648 Y29.5053
G01 X18.4212 Y29.4729
G01 X18.4002 Y29.4579
G01 X18.3869 Y29.4492
G01 X18.3294 Y29.4144
G01 X18.3070 Y29.4016
G01 X18.2813 Y29.3885
G01 X18.2322 Y29.3652
G01 X18.2087 Y29.3546
G01 X18.1939 Y29.3487
G01 X18.1308 Y29.3257
G01 X18.1034 Y29.3167
G01 X18.0785 Y29.3097
G01 X18.0259 Y29.2964
G01 X17.9978 Y29.2901
G01 X17.9724 Y29.2856
G01 X17.9187 Y29.2775
G01 X17.8931 Y29.2743
G01 X17.8643 Y29.2720
G01 X17.8101 Y29.2692
G01 X17.7843 Y29.2685
G01 X9.9999 Y29.2685
G01 X9.9999 Y23.6949
G01 X10.0128 Y23.6799
G01 X10.0279 Y23.6605
G01 X10.0836 Y23.5854
G01 X10.0977 Y23.5654
G01 X10.1108 Y23.5446
G01 X10.1589 Y23.4645
G01 X10.1710 Y23.4431
G01 X10.1820 Y23.4212
G01 X10.2220 Y23.3367
G01 X10.2319 Y23.3142
G01 X10.2408 Y23.2913
G01 X10.2762 Y23.1917
G01 X10.2834 Y23.1683
G01 X10.2865 Y23.1564
G01 X10.3092 Y23.0657
G01 X10.3146 Y23.0418
G01 X10.3188 Y23.0176
G01 X10.3325 Y22.9251
G01 X10.3355 Y22.9008
G01 X10.3373 Y22.8763
G01 X10.3419 Y22.7829
G01 X10.3425 Y22.7584
G01 X10.3419 Y22.7339
G01 X10.3373 Y22.6405
G01 X10.3355 Y22.6160
G01 X10.3325 Y22.5917
G01 X10.3188 Y22.4992
G01 X10.3146 Y22.4750
G01 X10.3092 Y22.4511
G01 X10.2865 Y22.3604
G01 X10.2834 Y22.3485
G01 X10.2762 Y22.3251
G01 X10.2365 Y22.2139
G01 X10.2271 Y22.1913
G01 X10.2220 Y22.1801
G01 X10.1820 Y22.0956
G01 X10.1710 Y22.0737
G01 X10.1589 Y22.0523
G01 X10.1044 Y21.9617
G01 X10.0908 Y21.9413
G01 X10.0836 Y21.9314
G01 X10.0279 Y21.8563
G01 X10.0128 Y21.8369
G01 X9.9968 Y21.8184
G01 X9.9340 Y21.7491
G01 X9.9171 Y21.7313
G01 X9.8993 Y21.7144
G01 X9.8300 Y21.6516
G01 X9.8115 Y21.6356
G01 X9.7921 Y21.6205
G01 X9.7170 Y21.5648
G01 X9.6970 Y21.5507
G01 X9.6867 Y21.5440
G01 X9.5942 Y21.4884
G01 X9.6762 Y21.4392
G01 X9.6970 Y21.4261
G01 X9.7170 Y21.4120
G01 X9.7921 Y21.3563
G01 X9.8115 Y21.3412
G01 X9.8300 Y21.3252
G01 X9.8993 Y21.2624
G01 X9.9171 Y21.2455
G01 X9.9340 Y21.2277
G01 X9.9968 Y21.1584
G01 X10.0128 Y21.1399
G01 X10.0279 Y21.1205
G01 X10.0836 Y21.0454
G01 X10.0977 Y21.0254
G01 X10.1108 Y21.0046
G01 X10.1651 Y20.9139
G01 X10.1766 Y20.8922
G01 X10.1820 Y20.8812
G01 X10.2220 Y20.7967
G01 X10.2319 Y20.7742
G01 X10.2408 Y20.7513
G01 X10.2723 Y20.6633
G01 X10.2800 Y20.6400
G01 X10.2865 Y20.6164
G01 X10.3092 Y20.5257
G01 X10.3146 Y20.5018
G01 X10.3188 Y20.4776
G01 X10.3325 Y20.3851
G01 X10.3355 Y20.3608
G01 X10.3373 Y20.3363
G01 X10.3419 Y20.2429
G01 X10.3425 Y20.2184
G01 X10.3419 Y20.1939
G01 X10.3373 Y20.1005
G01 X10.3355 Y20.0760
G01 X10.3325 Y20.0517
G01 X10.3188 Y19.9592
G01 X10.3146 Y19.9350
G01 X10.3092 Y19.9111
G01 X10.2865 Y19.8204
G01 X10.2800 Y19.7968
G01 X10.2723 Y19.7735
G01 X10.2408 Y19.6855
G01 X10.2319 Y19.6626
G01 X10.2220 Y19.6401
G01 X10.1820 Y19.5556
G01 X10.1710 Y19.5337
G01 X10.1589 Y19.5123
G01 X10.1108 Y19.4322
G01 X10.0977 Y19.4114
G01 X10.0836 Y19.3914
G01 X10.0279 Y19.3163
G01 X10.0128 Y19.2969
G01 X9.9968 Y19.2784
G01 X9.9340 Y19.2091
G01 X9.9256 Y19.2001
G01 X9.9083 Y19.1828
G01 X9.8208 Y19.1035
G01 X9.8115 Y19.0956
G01 X9.7921 Y19.0805
G01 X9.7170 Y19.0248
G01 X9.6970 Y19.0107
G01 X9.6762 Y18.9976
G01 X9.5942 Y18.9484
G01 X9.6762 Y18.8992
G01 X9.6970 Y18.8861
G01 X9.7170 Y18.8720
G01 X9.7921 Y18.8163
G01 X9.8120 Y18.8007
G01 X11.5901 Y18.8007
G01 X11.5901 Y20.0697
G01 X11.5873 Y20.0828
G01 X11.5831 Y20.1069
G01 X11.5801 Y20.1313
G01 X11.5783 Y20.1558
G01 X11.5777 Y20.1803
G01 X11.5779 Y20.2942
G01 X11.5791 Y20.3187
G01 X11.5801 Y20.3309
G01 X11.5831 Y20.3553
G01 X11.5851 Y20.3674
G01 X11.5898 Y20.3914
G01 X11.5927 Y20.4034
G01 X11.5992 Y20.4270
G01 X11.6043 Y20.4426
G01 X11.6069 Y20.4701
G01 X11.6105 Y20.4944
G01 X11.6152 Y20.5184
G01 X11.6212 Y20.5422
G01 X11.6246 Y20.5540
G01 X11.6323 Y20.5773
G01 X11.6430 Y20.6045
G01 X11.6463 Y20.6174
G01 X11.6533 Y20.6407
G01 X11.6615 Y20.6636
G01 X11.6659 Y20.6749
G01 X11.6757 Y20.6972
G01 X11.6810 Y20.7081
G01 X11.6947 Y20.7337
G01 X11.7019 Y20.7497
G01 X11.7129 Y20.7716
G01 X11.7189 Y20.7823
G01 X11.7315 Y20.8034
G01 X11.7451 Y20.8238
G01 X11.7523 Y20.8337
G01 X11.7650 Y20.8501
G01 X11.7758 Y20.8691
G01 X11.7823 Y20.8796
G01 X11.7959 Y20.9000
G01 X11.8031 Y20.9099
G01 X11.8182 Y20.9293
G01 X11.8342 Y20.9479
G01 X11.8511 Y20.9656
G01 X11.8641 Y20.9781
G01 X11.8765 Y20.9910
G01 X11.8895 Y21.0035
G01 X11.9019 Y21.0164
G01 X11.9149 Y21.0289
G01 X11.9273 Y21.0418
G01 X11.9403 Y21.0543
G01 X11.9527 Y21.0672
G01 X11.9657 Y21.0797
G01 X11.9869 Y21.1012
G01 X11.9959 Y21.1096
G01 X12.0145 Y21.1256
G01 X12.0338 Y21.1407
G01 X12.0438 Y21.1479
G01 X12.0642 Y21.1615
G01 X12.0852 Y21.1741
G01 X12.0960 Y21.1800
G01 X12.1179 Y21.1911
G01 X12.1336 Y21.1981
G01 X12.1445 Y21.2042
G01 X12.1662 Y21.2153
G01 X12.1846 Y21.2236
G01 X12.2085 Y21.2365
G01 X12.2354 Y21.2490
G01 X12.2593 Y21.2619
G01 X12.2703 Y21.2673
G01 X12.2927 Y21.2772
G01 X12.3041 Y21.2818
G01 X12.3272 Y21.2901
G01 X12.3507 Y21.2972
G01 X12.3647 Y21.3008
G01 X12.3804 Y21.3072
G01 X12.4035 Y21.3155
G01 X12.4269 Y21.3226
G01 X12.4388 Y21.3257
G01 X12.4628 Y21.3311
G01 X12.4869 Y21.3353
G01 X12.4991 Y21.3369
G01 X12.5235 Y21.3393
G01 X12.5480 Y21.3405
G01 X15.5880 Y21.3407
G01 X15.6079 Y21.3563
G01 X15.6830 Y21.4120
G01 X15.7030 Y21.4261
G01 X15.7238 Y21.4392
G01 X15.8058 Y21.4884
G01 X15.7238 Y21.5376
G01 X15.7030 Y21.5507
G01 X15.6929 Y21.5576
G01 X15.5981 Y21.6279
G01 X15.5792 Y21.6435
G01 X15.5694 Y21.6521
G01 X12.6916 Y21.6739
G01 X12.6671 Y21.6747
G01 X12.6157 Y21.6774
G01 X12.5847 Y21.6799
G01 X12.5585 Y21.6833
G01 X12.5076 Y21.6910
G01 X12.4771 Y21.6965
G01 X12.4513 Y21.7025
G01 X12.4015 Y21.7151
G01 X12.3760 Y21.7222
G01 X12.3590 Y21.7277
G01 X12.2982 Y21.7496
G01 X12.2735 Y21.7591
G01 X12.2571 Y21.7662
G01 X12.1987 Y21.7939
G01 X12.1751 Y21.8058
G01 X12.1595 Y21.8145
G01 X12.0929 Y21.8548
G01 X12.0780 Y21.8646
G01 X12.0564 Y21.8799
G01 X12.0047 Y21.9187
G01 X11.9909 Y21.9300
G01 X11.9709 Y21.9474
G01 X11.9330 Y21.9821
G01 X11.9138 Y22.0003
G01 X11.9014 Y22.0131
G01 X11.8581 Y22.0611
G01 X11.8408 Y22.0812
G01 X11.8297 Y22.0951
G01 X11.7913 Y22.1471
G01 X11.7761 Y22.1687
G01 X11.7664 Y22.1837
G01 X11.7332 Y22.2392
G01 X11.7203 Y22.2623
G01 X11.7121 Y22.2781
G01 X11.6845 Y22.3366
G01 X11.6739 Y22.3608
G01 X11.6673 Y22.3774
G01 X11.6456 Y22.4383
G01 X11.6360 Y22.4679
G01 X11.6291 Y22.4934
G01 X11.6168 Y22.5433
G01 X11.6111 Y22.5691
G01 X11.6058 Y22.5997
G01 X11.5984 Y22.6507
G01 X11.5953 Y22.6769
G01 X11.5930 Y22.7079
G01 X11.5902 Y22.7715
G01 X11.5901 Y27.0050
G01 X11.5520 Y27.0566
G01 X11.5384 Y27.0770
G01 X11.4809 Y27.1729
G01 X11.4750 Y27.1836
G01 X11.4640 Y27.2056
G01 X11.4216 Y27.2956
G01 X11.4167 Y27.3069
G01 X11.4079 Y27.3298
G01 X11.3785 Y27.4119
G01 X11.3708 Y27.4352
G01 X11.3643 Y27.4588
G01 X11.3402 Y27.5554
G01 X11.3377 Y27.5674
G01 X11.3335 Y27.5916
G01 X11.3207 Y27.6779
G01 X11.3177 Y27.7023
G01 X11.3159 Y27.7267
G01 X11.3116 Y27.8139
G01 X11.3110 Y27.8384
G01 X11.3116 Y27.8629
G01 X11.3159 Y27.9501
G01 X11.3177 Y27.9745
G01 X11.3207 Y27.9989
G01 X11.3335 Y28.0852
G01 X11.3377 Y28.1094
G01 X11.3431 Y28.1333
G01 X11.3643 Y28.2180
G01 X11.3708 Y28.2416
G01 X11.3785 Y28.2649
G01 X11.4079 Y28.3470
G01 X11.4167 Y28.3699
G01 X11.4267 Y28.3924
G01 X11.4640 Y28.4712
G01 X11.4750 Y28.4932
G01 X11.4871 Y28.5145
G01 X11.5320 Y28.5894
G01 X11.5451 Y28.6101
G01 X11.5592 Y28.6302
G01 X11.6112 Y28.7002
G01 X11.6263 Y28.7196
G01 X11.6423 Y28.7382
G01 X11.7009 Y28.8028
G01 X11.7178 Y28.8206
G01 X11.7356 Y28.8375
G01 X11.8002 Y28.8961
G01 X11.8188 Y28.9121
G01 X11.8382 Y28.9272
G01 X11.9082 Y28.9792
G01 X11.9283 Y28.9933
G01 X11.9490 Y29.0064
G01 X12.0239 Y29.0513
G01 X12.0452 Y29.0634
G01 X12.0672 Y29.0744
G01 X12.1460 Y29.1117
G01 X12.1685 Y29.1217
G01 X12.1914 Y29.1305
G01 X12.2735 Y29.1599
G01 X12.2968 Y29.1676
G01 X12.3204 Y29.1741
G01 X12.4051 Y29.1953
G01 X12.4290 Y29.2007
G01 X12.4532 Y29.2049
G01 X12.5395 Y29.2177
G01 X12.5639 Y29.2207
G01 X12.5883 Y29.2225
G01 X12.6755 Y29.2268
G01 X12.7000 Y29.2274
G01 X12.7245 Y29.2268
G01 X12.8117 Y29.2225
G01 X12.8361 Y29.2207
G01 X12.8605 Y29.2177
G01 X12.9468 Y29.2049
G01 X12.9589 Y29.2030
G01 X12.9830 Y29.1982
G01 X13.0796 Y29.1741
G01 X13.1032 Y29.1676
G01 X13.1265 Y29.1599
G01 X13.2086 Y29.1305
G01 X13.2315 Y29.1217
G01 X13.2540 Y29.1117
G01 X13.3328 Y29.0744
G01 X13.3548 Y29.0634
G01 X13.3761 Y29.0513
G01 X13.4510 Y29.0064
G01 X13.4717 Y28.9933
G01 X13.4918 Y28.9792
G01 X13.5618 Y28.9272
G01 X13.5812 Y28.9121
G01 X13.5998 Y28.8961
G01 X13.6644 Y28.8375
G01 X13.6822 Y28.8206
G01 X13.6991 Y28.8028
G01 X13.7577 Y28.7382
G01 X13.7737 Y28.7196
G01 X13.7888 Y28.7002
G01 X13.8408 Y28.6302
G01 X13.8549 Y28.6101
G01 X13.8680 Y28.5894
G01 X13.9129 Y28.5145
G01 X13.9250 Y28.4932
G01 X13.9360 Y28.4712
G01 X13.9733 Y28.3924
G01 X13.9833 Y28.3699
G01 X13.9921 Y28.3470
G01 X14.0215 Y28.2649
G01 X14.0292 Y28.2416
G01 X14.0357 Y28.2180
G01 X14.0569 Y28.1333
G01 X14.0598 Y28.1214
G01 X14.0646 Y28.0973
G01 X14.0793 Y27.9989
G01 X14.0823 Y27.9745
G01 X14.0841 Y27.9501
G01 X14.0884 Y27.8629
G01 X14.0890 Y27.8384
G01 X14.0884 Y27.8139
G01 X14.0841 Y27.7267
G01 X14.0823 Y27.7023
G01 X14.0793 Y27.6779
G01 X14.0665 Y27.5916
G01 X14.0623 Y27.5674
G01 X14.0598 Y27.5554
G01 X14.0357 Y27.4588
G01 X14.0292 Y27.4352
G01 X14.0215 Y27.4119
G01 X13.9921 Y27.3298
G01 X13.9878 Y27.3182
G01 X13.9784 Y27.2956
G01 X13.9360 Y27.2056
G01 X13.9306 Y27.1945
G01 X13.9191 Y27.1729
G01 X13.8616 Y27.0770
G01 X13.8480 Y27.0566
G01 X13.8099 Y27.0050
G01 X13.8099 Y23.8853
G01 X15.5776 Y23.8719
G01 X15.5885 Y23.8812
G01 X15.6079 Y23.8963
G01 X15.6929 Y23.9592
G01 X15.7030 Y23.9661
G01 X15.7238 Y23.9792
G01 X15.8039 Y24.0273
G01 X15.8253 Y24.0394
G01 X15.8362 Y24.0450
G01 X15.9317 Y24.0904
G01 X15.9542 Y24.1003
G01 X15.9771 Y24.1092
G01 X16.0651 Y24.1407
G01 X16.0884 Y24.1484
G01 X16.1120 Y24.1549
G01 X16.2027 Y24.1776
G01 X16.2266 Y24.1830
G01 X16.2508 Y24.1872
G01 X16.3433 Y24.2009
G01 X16.3676 Y24.2039
G01 X16.3921 Y24.2057
G01 X16.4977 Y24.2107
G01 X16.5100 Y24.2109
G01 X16.5345 Y24.2103
G01 X16.6279 Y24.2057
G01 X16.6524 Y24.2039
G01 X16.6767 Y24.2009
G01 X16.7692 Y24.1872
G01 X16.7934 Y24.1830
G01 X16.8173 Y24.1776
G01 X16.9080 Y24.1549
G01 X16.9316 Y24.1484
G01 X16.9549 Y24.1407
G01 X17.0429 Y24.1092
G01 X17.0658 Y24.1003
G01 X17.0883 Y24.0904
G01 X17.1728 Y24.0504
G01 X17.1947 Y24.0394
G01 X17.2161 Y24.0273
G01 X17.2962 Y23.9792
G01 X17.3170 Y23.9661
G01 X17.3271 Y23.9592
G01 X17.4219 Y23.8889
G01 X17.4315 Y23.8812
G01 X17.4500 Y23.8652
G01 X17.5193 Y23.8024
G01 X17.5371 Y23.7855
G01 X17.5540 Y23.7677
G01 X17.6168 Y23.6984
G01 X17.6328 Y23.6799
G01 X17.6479 Y23.6605
G01 X17.7036 Y23.5854
G01 X17.7177 Y23.5654
G01 X17.7308 Y23.5446
G01 X17.7789 Y23.4645
G01 X17.7910 Y23.4431
G01 X17.8020 Y23.4212
G01 X17.8420 Y23.3367
G01 X17.8519 Y23.3142
G01 X17.8608 Y23.2913
G01 X17.8923 Y23.2033
G01 X17.9000 Y23.1800
G01 X17.9065 Y23.1564
G01 X17.9320 Y23.0538
G01 X17.9346 Y23.0418
G01 X17.9388 Y23.0176
G01 X17.9525 Y22.9251
G01 X17.9555 Y22.9008
G01 X17.9573 Y22.8763
G01 X17.9619 Y22.7829
G01 X17.9625 Y22.7584
G01 X17.9619 Y22.7339
G01 X17.9573 Y22.6405
G01 X17.9555 Y22.6160
G01 X17.9525 Y22.5917
G01 X17.9388 Y22.4992
G01 X17.9346 Y22.4750
G01 X17.9292 Y22.4511
G01 X17.9065 Y22.3604
G01 X17.9000 Y22.3368
G01 X17.8923 Y22.3135
G01 X17.8608 Y22.2255
G01 X17.8519 Y22.2026
G01 X17.8420 Y22.1801
G01 X17.8020 Y22.0956
G01 X17.7910 Y22.0737
G01 X17.7851 Y22.0629
G01 X17.7308 Y21.9722
G01 X17.7177 Y21.9514
G01 X17.7036 Y21.9314
G01 X17.6479 Y21.8563
G01 X17.6328 Y21.8369
G01 X17.6168 Y21.8184
G01 X17.5540 Y21.7491
G01 X17.5371 Y21.7313
G01 X17.5193 Y21.7144
G01 X17.4500 Y21.6516
G01 X17.4315 Y21.6356
G01 X17.4121 Y21.6205
G01 X17.3370 Y21.5648
G01 X17.3170 Y21.5507
G01 X17.2962 Y21.5376
G01 X17.2142 Y21.4884
G01 X17.2962 Y21.4392
G01 X17.3170 Y21.4261
G01 X17.3271 Y21.4192
G01 X17.4219 Y21.3489
G01 X17.4315 Y21.3412
G01 X17.4465 Y21.3283
G01 X19.2101 Y21.3283
G01 X19.2101 Y21.8219
G01 X19.1972 Y21.8369
G01 X19.1821 Y21.8563
G01 X19.1264 Y21.9314
G01 X19.1123 Y21.9514
G01 X19.0992 Y21.9722
G01 X19.0511 Y22.0523
G01 X19.0390 Y22.0737
G01 X19.0280 Y22.0956
G01 X18.9880 Y22.1801
G01 X18.9781 Y22.2026
G01 X18.9692 Y22.2255
G01 X18.9377 Y22.3135
G01 X18.9300 Y22.3368
G01 X18.9235 Y22.3604
G01 X18.9008 Y22.4511
G01 X18.8954 Y22.4750
G01 X18.8932 Y22.4871
G01 X18.8775 Y22.5917
G01 X18.8745 Y22.6160
G01 X18.8727 Y22.6405
G01 X18.8681 Y22.7339
G01 X18.8675 Y22.7584
G01 X18.8681 Y22.7829
G01 X18.8727 Y22.8763
G01 X18.8745 Y22.9008
G01 X18.8775 Y22.9251
G01 X18.8912 Y23.0176
G01 X18.8932 Y23.0297
G01 X18.8980 Y23.0538
G01 X18.9266 Y23.1683
G01 X18.9300 Y23.1800
G01 X18.9377 Y23.2033
G01 X18.9692 Y23.2913
G01 X18.9781 Y23.3142
G01 X18.9880 Y23.3367
G01 X19.0334 Y23.4322
G01 X19.0390 Y23.4431
G01 X19.0511 Y23.4645
G01 X19.0992 Y23.5446
G01 X19.1123 Y23.5654
G01 X19.1264 Y23.5854
G01 X19.1821 Y23.6605
G01 X19.1972 Y23.6799
G01 X19.2132 Y23.6984
G01 X19.2760 Y23.7677
G01 X19.2929 Y23.7855
G01 X19.3107 Y23.8024
G01 X19.3800 Y23.8652
G01 X19.3985 Y23.8812
G01 X19.4179 Y23.8963
G01 X19.4930 Y23.9520
G01 X19.5130 Y23.9661
G01 X19.5338 Y23.9792
G01 X19.6139 Y24.0273
G01 X19.6353 Y24.0394
G01 X19.6572 Y24.0504
G01 X19.7417 Y24.0904
G01 X19.7642 Y24.1003
G01 X19.7871 Y24.1092
G01 X19.8751 Y24.1407
G01 X19.8984 Y24.1484
G01 X19.9220 Y24.1549
G01 X20.0127 Y24.1776
G01 X20.0366 Y24.1830
G01 X20.0608 Y24.1872
G01 X20.1533 Y24.2009
G01 X20.1776 Y24.2039
G01 X20.2021 Y24.2057
G01 X20.2955 Y24.2103
G01 X20.3200 Y24.2109
G01 X20.3445 Y24.2103
G01 X20.4379 Y24.2057
G01 X20.4624 Y24.2039
G01 X20.4867 Y24.2009
G01 X20.5792 Y24.1872
G01 X20.6034 Y24.1830
G01 X20.6273 Y24.1776
G01 X20.7180 Y24.1549
G01 X20.7416 Y24.1484
G01 X20.7649 Y24.1407
G01 X20.8529 Y24.1092
G01 X20.8758 Y24.1003
G01 X20.8983 Y24.0904
G01 X20.9828 Y24.0504
G01 X21.0047 Y24.0394
G01 X21.0261 Y24.0273
G01 X21.1062 Y23.9792
G01 X21.1270 Y23.9661
G01 X21.1470 Y23.9520
G01 X21.2221 Y23.8963
G01 X21.2415 Y23.8812
G01 X21.2565 Y23.8683
G01 X22.5905 Y23.8683
G01 X22.5924 Y23.8864
G01 X22.5960 Y23.9107
G01 X22.6008 Y23.9347
G01 X22.6067 Y23.9586
G01 X22.6138 Y23.9820
G01 X22.6221 Y24.0051
G01 X22.6267 Y24.0165
G01 X22.6366 Y24.0390
G01 X22.6476 Y24.0609
G01 X22.6597 Y24.0822
G01 X22.6729 Y24.1030
G01 X22.6798 Y24.1131
G01 X22.6944 Y24.1328
G01 X22.7021 Y24.1424
G01 X22.7181 Y24.1610
G01 X22.7350 Y24.1788
G01 X22.7528 Y24.1957
G01 X22.7620 Y24.2038
G01 X22.7810 Y24.2194
G01 X22.8007 Y24.2340
G01 X22.8211 Y24.2476
G01 X22.8422 Y24.2602
G01 X22.8638 Y24.2718
G01 X22.8748 Y24.2772
G01 X22.8860 Y24.2823
G01 X22.9087 Y24.2917
G01 X22.9318 Y24.3000
G01 X22.9552 Y24.3071
G01 X22.9791 Y24.3130
G01 X23.0031 Y24.3178
G01 X23.0274 Y24.3214
G01 X23.0396 Y24.3228
G01 X23.0641 Y24.3246
G01 X23.0886 Y24.3252
G01 X25.1714 Y24.3252
G01 X25.1959 Y24.3246
G01 X25.2204 Y24.3228
G01 X25.2448 Y24.3198
G01 X25.2689 Y24.3156
G01 X25.2929 Y24.3102
G01 X25.3048 Y24.3071
G01 X25.3282 Y24.3000
G01 X25.3513 Y24.2917
G01 X25.3740 Y24.2823
G01 X25.3962 Y24.2718
G01 X25.4178 Y24.2602
G01 X25.4284 Y24.2541
G01 X25.4492 Y24.2409
G01 X25.4692 Y24.2268
G01 X25.4886 Y24.2117
G01 X25.5072 Y24.1957
G01 X25.5162 Y24.1873
G01 X25.5250 Y24.1788
G01 X25.5419 Y24.1610
G01 X25.5579 Y24.1424
G01 X25.5730 Y24.1230
G01 X25.5871 Y24.1030
G01 X25.6003 Y24.0822
G01 X25.6124 Y24.0609
G01 X25.6234 Y24.0390
G01 X25.6333 Y24.0165
G01 X25.6422 Y23.9936
G01 X25.6462 Y23.9820
G01 X25.6533 Y23.9586
G01 X25.6592 Y23.9347
G01 X25.6640 Y23.9107
G01 X25.6676 Y23.8864
G01 X25.6700 Y23.8620
G01 X25.6712 Y23.8375
G01 X25.6714 Y23.8252
G01 X25.6712 Y21.7301
G01 X25.6700 Y21.7056
G01 X25.6690 Y21.6934
G01 X25.6660 Y21.6690
G01 X25.6640 Y21.6569
G01 X25.6592 Y21.6329
G01 X25.6533 Y21.6090
G01 X25.6462 Y21.5856
G01 X25.6422 Y21.5740
G01 X25.6333 Y21.5511
G01 X25.6285 Y21.5398
G01 X25.6180 Y21.5176
G01 X25.6064 Y21.4960
G01 X25.6003 Y21.4854
G01 X25.5871 Y21.4646
G01 X25.5730 Y21.4446
G01 X25.5579 Y21.4252
G01 X25.5419 Y21.4066
G01 X25.5335 Y21.3976
G01 X25.5250 Y21.3888
G01 X25.5072 Y21.3719
G01 X25.4886 Y21.3559
G01 X25.4692 Y21.3408
G01 X25.4492 Y21.3267
G01 X25.4389 Y21.3200
G01 X25.4178 Y21.3074
G01 X25.3962 Y21.2958
G01 X25.3852 Y21.2904
G01 X25.3740 Y21.2853
G01 X25.3513 Y21.2759
G01 X25.3282 Y21.2676
G01 X25.3165 Y21.2639
G01 X25.3048 Y21.2605
G01 X25.2809 Y21.2546
G01 X25.2689 Y21.2520
G01 X25.2448 Y21.2478
G01 X25.2326 Y21.2462
G01 X25.2082 Y21.2438
G01 X25.1837 Y21.2426
G01 X24.4064 Y21.2424
G01 X24.3054 Y21.2274
G01 X24.2811 Y21.2244
G01 X24.2566 Y21.2226
G01 X24.1545 Y21.2176
G01 X24.1300 Y21.2170
G01 X24.1055 Y21.2176
G01 X24.0034 Y21.2226
G01 X23.9789 Y21.2244
G01 X23.9546 Y21.2274
G01 X23.8536 Y21.2424
G01 X23.0886 Y21.2424
G01 X23.0641 Y21.2430
G01 X23.0518 Y21.2438
G01 X23.0274 Y21.2462
G01 X23.0152 Y21.2478
G01 X23.0031 Y21.2498
G01 X22.9791 Y21.2546
G01 X22.9671 Y21.2574
G01 X22.9435 Y21.2639
G01 X22.9202 Y21.2716
G01 X22.8973 Y21.2805
G01 X22.8860 Y21.2853
G01 X22.8638 Y21.2958
G01 X22.8422 Y21.3074
G01 X22.8211 Y21.3200
G01 X22.8007 Y21.3336
G01 X22.7908 Y21.3408
G01 X22.7714 Y21.3559
G01 X22.7528 Y21.3719
G01 X22.7351 Y21.3888
G01 X22.7265 Y21.3976
G01 X22.7100 Y21.4158
G01 X22.7021 Y21.4252
G01 X22.6870 Y21.4446
G01 X22.6729 Y21.4646
G01 X22.6597 Y21.4853
G01 X22.6536 Y21.4960
G01 X22.6420 Y21.5176
G01 X22.6315 Y21.5398
G01 X22.6221 Y21.5625
G01 X22.6178 Y21.5740
G01 X22.6101 Y21.5973
G01 X22.6067 Y21.6090
G01 X22.6008 Y21.6328
G01 X22.5975 Y21.6485
G01 X21.4299 Y21.6485
G01 X21.4298 Y20.2061
G01 X21.4264 Y20.1341
G01 X21.4246 Y20.1096
G01 X21.4216 Y20.0853
G01 X21.4128 Y20.0260
G01 X21.4086 Y20.0019
G01 X21.4060 Y19.9899
G01 X21.3887 Y19.9199
G01 X21.3821 Y19.8962
G01 X21.3744 Y19.8729
G01 X21.3542 Y19.8166
G01 X21.3454 Y19.7937
G01 X21.3355 Y19.7712
G01 X21.3099 Y19.7171
G01 X21.2988 Y19.6952
G01 X21.2868 Y19.6738
G01 X21.2560 Y19.6225
G01 X21.2429 Y19.6018
G01 X21.2287 Y19.5817
G01 X21.1931 Y19.5336
G01 X21.1780 Y19.5143
G01 X21.1619 Y19.4957
G01 X21.1217 Y19.4514
G01 X21.1048 Y19.4336
G01 X21.0870 Y19.4167
G01 X21.0427 Y19.3765
G01 X21.0241 Y19.3604
G01 X21.0048 Y19.3453
G01 X20.9567 Y19.3097
G01 X20.9467 Y19.3025
G01 X20.9263 Y19.2889
G01 X20.8646 Y19.2516
G01 X20.8432 Y19.2396
G01 X20.8213 Y19.2285
G01 X20.7672 Y19.2029
G01 X20.7447 Y19.1930
G01 X20.7333 Y19.1884
G01 X20.6539 Y19.1600
G01 X20.6422 Y19.1563
G01 X20.6185 Y19.1497
G01 X20.5605 Y19.1352
G01 X20.5365 Y19.1298
G01 X20.5124 Y19.1256
G01 X20.4410 Y19.1152
G01 X20.4288 Y19.1138
G01 X20.4043 Y19.1120
G01 X20.3445 Y19.1091
G01 X20.3200 Y19.1085
G01 X17.4465 Y19.1085
G01 X17.4315 Y19.0956
G01 X17.4219 Y19.0879
G01 X17.3271 Y19.0176
G01 X17.3170 Y19.0107
G01 X17.2962 Y18.9976
G01 X17.2142 Y18.9484
G01 X17.2962 Y18.8992
G01 X17.3170 Y18.8861
G01 X17.3271 Y18.8792
G01 X17.4219 Y18.8089
G01 X17.4315 Y18.8012
G01 X17.4465 Y18.7883
G01 X20.3200 Y18.7883
G01 X20.3445 Y18.7877
G01 X20.4043 Y18.7848
G01 X20.4166 Y18.7840
G01 X20.4410 Y18.7816
G01 X20.5124 Y18.7712
G01 X20.5365 Y18.7670
G01 X20.5605 Y18.7616
G01 X20.6185 Y18.7471
G01 X20.6304 Y18.7439
G01 X20.6539 Y18.7368
G01 X20.7333 Y18.7084
G01 X20.7560 Y18.6990
G01 X20.7672 Y18.6939
G01 X20.8213 Y18.6683
G01 X20.8432 Y18.6572
G01 X20.8646 Y18.6452
G01 X20.9263 Y18.6079
G01 X20.9467 Y18.5943
G01 X20.9567 Y18.5871
G01 X21.0048 Y18.5515
G01 X21.0241 Y18.5364
G01 X21.0427 Y18.5203
G01 X21.0870 Y18.4801
G01 X21.1048 Y18.4632
G01 X21.1217 Y18.4454
G01 X21.1619 Y18.4011
G01 X21.1780 Y18.3825
G01 X21.1931 Y18.3632
G01 X21.2287 Y18.3151
G01 X21.2429 Y18.2950
G01 X21.2560 Y18.2743
G01 X21.2868 Y18.2230
G01 X21.2988 Y18.2016
G01 X21.3099 Y18.1797
G01 X21.3355 Y18.1256
G01 X21.3454 Y18.1031
G01 X21.3542 Y18.0802
G01 X21.3744 Y18.0239
G01 X21.3821 Y18.0006
G01 X21.3887 Y17.9769
G01 X21.4060 Y17.9069
G01 X21.4086 Y17.8949
G01 X21.4128 Y17.8708
G01 X21.4216 Y17.8115
G01 X21.4246 Y17.7872
G01 X21.4264 Y17.7627
G01 X21.4298 Y17.6907
G01 X21.4299 Y16.2606
G01 X23.0508 Y16.2895
G01 X23.1336 Y16.3647
G01 X23.1521 Y16.3807
G01 X23.1715 Y16.3958
G01 X23.2536 Y16.4567
G01 X23.2736 Y16.4708
G01 X23.2944 Y16.4840
G01 X23.3820 Y16.5365
G01 X23.4034 Y16.5486
G01 X23.4253 Y16.5596
G01 X23.5177 Y16.6033
G01 X23.5401 Y16.6133
G01 X23.5630 Y16.6221
G01 X23.6593 Y16.6565
G01 X23.6826 Y16.6642
G01 X23.7062 Y16.6708
G01 X23.8053 Y16.6956
G01 X23.8293 Y16.7010
G01 X23.8535 Y16.7052
G01 X23.9546 Y16.7202
G01 X23.9789 Y16.7232
G01 X24.0034 Y16.7250
G01 X24.1055 Y16.7300
G01 X24.1300 Y16.7306
G01 X24.1545 Y16.7300
G01 X24.2566 Y16.7250
G01 X24.2811 Y16.7232
G01 X24.3054 Y16.7202
G01 X24.4065 Y16.7052
G01 X24.4307 Y16.7010
G01 X24.4547 Y16.6956
G01 X24.5538 Y16.6708
G01 X24.5774 Y16.6642
G01 X24.6007 Y16.6565
G01 X24.6970 Y16.6221
G01 X24.7199 Y16.6133
G01 X24.7423 Y16.6033
G01 X24.8347 Y16.5596
G01 X24.8566 Y16.5486
G01 X24.8780 Y16.5365
G01 X24.9656 Y16.4840
G01 X24.9864 Y16.4708
G01 X25.0064 Y16.4567
G01 X25.0885 Y16.3958
G01 X25.1079 Y16.3807
G01 X25.1264 Y16.3647
G01 X25.2123 Y16.2865
G01 X26.8094 Y16.2491
G01 X26.8538 Y26.9234
G01 X26.8373 Y26.9443
G01 X26.7824 Y27.0184
G01 X26.7683 Y27.0385
G01 X26.7551 Y27.0592
G01 X26.7077 Y27.1383
G01 X26.6956 Y27.1597
G01 X26.6846 Y27.1816
G01 X26.6451 Y27.2650
G01 X26.6352 Y27.2874
G01 X26.6264 Y27.3103
G01 X26.5953 Y27.3971
G01 X26.5913 Y27.4088
G01 X26.5842 Y27.4322
G01 X26.5558 Y27.5455
G01 X26.5510 Y27.5696
G01 X26.5491 Y27.5817
G01 X26.5355 Y27.6729
G01 X26.5325 Y27.6973
G01 X26.5307 Y27.7217
G01 X26.5258 Y27.8261
G01 X26.5258 Y27.8507
G01 X26.5262 Y27.8629
G01 X26.5307 Y27.9551
G01 X26.5325 Y27.9795
G01 X26.5355 Y28.0039
G01 X26.5491 Y28.0951
G01 X26.5533 Y28.1193
G01 X26.5586 Y28.1432
G01 X26.5811 Y28.2327
G01 X26.5876 Y28.2564
G01 X26.5953 Y28.2797
G01 X26.6264 Y28.3665
G01 X26.6352 Y28.3894
G01 X26.6451 Y28.4118
G01 X26.6846 Y28.4952
G01 X26.6956 Y28.5171
G01 X26.7077 Y28.5385
G01 X26.7551 Y28.6176
G01 X26.7683 Y28.6383
G01 X26.7824 Y28.6584
G01 X26.8373 Y28.7325
G01 X26.8524 Y28.7518
G01 X26.8685 Y28.7704
G01 X26.9304 Y28.8387
G01 X26.9473 Y28.8565
G01 X26.9651 Y28.8734
G01 X27.0334 Y28.9353
G01 X27.0520 Y28.9514
G01 X27.0713 Y28.9665
G01 X27.1454 Y29.0214
G01 X27.1655 Y29.0355
G01 X27.1862 Y29.0487
G01 X27.2653 Y29.0961
G01 X27.2871 Y29.1084
G01 X27.2653 Y29.1207
G01 X27.1862 Y29.1681
G01 X27.1655 Y29.1813
G01 X27.1454 Y29.1954
G01 X27.0713 Y29.2503
G01 X27.0483 Y29.2685
G01 X20.3077 Y29.2686
G01 X20.2357 Y29.2720
G01 X20.2112 Y29.2738
G01 X20.1869 Y29.2768
G01 X20.1276 Y29.2856
G01 X20.1035 Y29.2898
G01 X20.0795 Y29.2952
G01 X20.0215 Y29.3097
G01 X19.9978 Y29.3163
G01 X19.9745 Y29.3240
G01 X19.9182 Y29.3442
G01 X19.9067 Y29.3484
G01 X19.8840 Y29.3578
G01 X19.8187 Y29.3885
G01 X19.7968 Y29.3996
G01 X19.7860 Y29.4055
G01 X19.7137 Y29.4489
G01 X19.6933 Y29.4625
G01 X19.6833 Y29.4697
G01 X19.6255 Y29.5128
G01 X19.6065 Y29.5283
G01 X19.5973 Y29.5365
G01 X19.5530 Y29.5767
G01 X19.5352 Y29.5936
G01 X19.5183 Y29.6114
G01 X19.4781 Y29.6557
G01 X19.4620 Y29.6743
G01 X19.4544 Y29.6839
G01 X19.4041 Y29.7517
G01 X19.3905 Y29.7721
G01 X19.3840 Y29.7825
G01 X19.3532 Y29.8338
G01 X19.3412 Y29.8552
G01 X19.3301 Y29.8771
G01 X19.3045 Y29.9312
G01 X19.2946 Y29.9537
G01 X19.2858 Y29.9766
G01 X19.2656 Y30.0329
G01 X19.2579 Y30.0562
G01 X19.2513 Y30.0799
G01 X19.2340 Y30.1499
G01 X19.2292 Y30.1739
G01 X19.2272 Y30.1860
G01 X19.2184 Y30.2453
G01 X19.2154 Y30.2696
G01 X19.2136 Y30.2941
G01 X19.2102 Y30.3661
G01 X19.2101 Y31.9819
G01 X19.1972 Y31.9969
G01 X19.1895 Y32.0065
G01 X19.1264 Y32.0914
G01 X19.1123 Y32.1114
G01 X19.0992 Y32.1322
G01 X19.0511 Y32.2123
G01 X19.0390 Y32.2337
G01 X19.0280 Y32.2556
G01 X18.9829 Y32.3513
G01 X18.9735 Y32.3739
G01 X18.9692 Y32.3855
G01 X18.9377 Y32.4735
G01 X18.9300 Y32.4968
G01 X18.9266 Y32.5085
G01 X18.9008 Y32.6111
G01 X18.8954 Y32.6350
G01 X18.8912 Y32.6592
G01 X18.8781 Y32.7478
G00 Z2.0000
G00 X8.1858 Y21.4884
G01 F60.00
G01 Z-0.0500
G01 F120.00
G01 X8.1038 Y21.4392
G01 X8.0933 Y21.4328
G01 X8.0729 Y21.4192
G01 X7.9781 Y21.3489
G01 X7.9685 Y21.3412
G01 X7.9535 Y21.3283
G01 X6.1686 Y21.3283
G01 X6.1876 Y26.4648
G01 X6.1995 Y26.4743
G01 X6.2181 Y26.4903
G01 X6.3101 Y26.5736
G01 X6.3278 Y26.5906
G01 X6.3448 Y26.6083
G01 X6.4281 Y26.7003
G01 X6.4441 Y26.7189
G01 X6.4592 Y26.7382
G01 X6.5332 Y26.8379
G01 X6.5473 Y26.8580
G01 X6.5604 Y26.8787
G01 X6.6242 Y26.9852
G01 X6.6363 Y27.0065
G01 X6.6474 Y27.0284
G01 X6.7004 Y27.1406
G01 X6.7104 Y27.1631
G01 X6.7192 Y27.1860
G01 X6.7610 Y27.3028
G01 X6.7687 Y27.3261
G01 X6.7753 Y27.3498
G01 X6.8054 Y27.4702
G01 X6.8108 Y27.4941
G01 X6.8150 Y27.5183
G01 X6.8332 Y27.6411
G01 X6.8362 Y27.6654
G01 X6.8380 Y27.6899
G01 X6.8441 Y27.8139
G01 X6.8447 Y27.8384
G01 X6.8441 Y27.8629
G01 X6.8373 Y27.9991
G01 X6.8349 Y28.0236
G01 X6.8332 Y28.0357
G01 X6.8150 Y28.1585
G01 X6.8108 Y28.1827
G01 X6.8054 Y28.2066
G01 X6.7753 Y28.3270
G01 X6.7687 Y28.3507
G01 X6.7610 Y28.3740
G01 X6.7192 Y28.4908
G01 X6.7104 Y28.5137
G01 X6.7004 Y28.5362
G01 X6.6474 Y28.6484
G01 X6.6363 Y28.6703
G01 X6.6242 Y28.6916
G01 X6.5604 Y28.7981
G01 X6.5473 Y28.8188
G01 X6.5332 Y28.8389
G01 X6.4592 Y28.9386
G01 X6.4441 Y28.9579
G01 X6.4281 Y28.9765
G01 X6.3448 Y29.0685
G01 X6.3278 Y29.0862
G01 X6.3101 Y29.1032
G01 X6.2181 Y29.1865
G01 X6.1995 Y29.2025
G01 X6.1802 Y29.2176
G01 X6.0805 Y29.2916
G01 X6.0604 Y29.3057
G01 X6.0397 Y29.3188
G01 X5.9332 Y29.3826
G01 X5.9119 Y29.3947
G01 X5.8900 Y29.4058
G01 X5.7778 Y29.4588
G01 X5.7553 Y29.4688
G01 X5.7324 Y29.4776
G01 X5.6156 Y29.5194
G01 X5.5923 Y29.5271
G01 X5.5686 Y29.5337
G01 X5.4482 Y29.5638
G01 X5.4243 Y29.5692
G01 X5.4001 Y29.5734
G01 X5.2773 Y29.5916
G01 X5.2530 Y29.5946
G01 X5.2285 Y29.5964
G01 X5.1045 Y29.6025
G01 X5.0800 Y29.6031
G01 X5.0555 Y29.6025
G01 X4.9315 Y29.5964
G01 X4.9070 Y29.5946
G01 X4.8827 Y29.5916
G01 X4.7599 Y29.5734
G01 X4.7357 Y29.5692
G01 X4.7118 Y29.5638
G01 X4.5914 Y29.5337
G01 X4.5677 Y29.5271
G01 X4.5444 Y29.5194
G01 X4.4161 Y29.4733
G01 X4.4047 Y29.4688
G01 X4.3822 Y29.4588
G01 X4.2700 Y29.4058
G01 X4.2481 Y29.3947
G01 X4.2268 Y29.3826
G01 X4.1203 Y29.3188
G01 X4.0996 Y29.3057
G01 X4.0795 Y29.2916
G01 X3.9701 Y29.2102
G01 X3.9511 Y29.1946
G01 X3.9419 Y29.1865
G01 X3.8499 Y29.1032
G01 X3.8322 Y29.0862
G01 X3.8236 Y29.0774
G01 X3.7319 Y28.9765
G01 X3.7159 Y28.9579
G01 X3.7008 Y28.9386
G01 X3.6499 Y28.8700
G01 X3.6499 Y31.8085
G01 X3.7082 Y31.8085
G01 X3.7159 Y31.7989
G01 X3.7319 Y31.7803
G01 X3.8152 Y31.6883
G01 X3.8322 Y31.6706
G01 X3.8499 Y31.6536
G01 X3.9419 Y31.5703
G01 X3.9605 Y31.5543
G01 X3.9798 Y31.5392
G01 X4.0895 Y31.4580
G01 X4.1099 Y31.4444
G01 X4.1203 Y31.4380
G01 X4.2268 Y31.3742
G01 X4.2481 Y31.3621
G01 X4.2700 Y31.3510
G01 X4.3822 Y31.2980
G01 X4.4047 Y31.2880
G01 X4.4276 Y31.2792
G01 X4.5444 Y31.2374
G01 X4.5677 Y31.2297
G01 X4.5914 Y31.2231
G01 X4.7118 Y31.1930
G01 X4.7357 Y31.1876
G01 X4.7599 Y31.1834
G01 X4.8827 Y31.1652
G01 X4.9070 Y31.1622
G01 X4.9315 Y31.1604
G01 X5.0677 Y31.1538
G01 X5.0800 Y31.1537
G01 X5.1045 Y31.1543
G01 X5.2285 Y31.1604
G01 X5.2530 Y31.1622
G01 X5.2773 Y31.1652
G01 X5.4001 Y31.1834
G01 X5.4243 Y31.1876
G01 X5.4482 Y31.1930
G01 X5.5805 Y31.2263
G01 X5.6040 Y31.2334
G01 X5.6156 Y31.2374
G01 X5.7324 Y31.2792
G01 X5.7553 Y31.2880
G01 X5.7778 Y31.2980
G01 X5.8900 Y31.3510
G01 X5.9119 Y31.3621
G01 X5.9332 Y31.3742
G01 X6.0397 Y31.4380
G01 X6.0604 Y31.4511
G01 X6.0805 Y31.4652
G01 X6.1802 Y31.5392
G01 X6.1995 Y31.5543
G01 X6.2181 Y31.5703
G01 X6.3101 Y31.6536
G01 X6.3278 Y31.6706
G01 X6.3448 Y31.6883
G01 X6.4281 Y31.7803
G01 X6.4441 Y31.7989
G01 X6.4518 Y31.8085
G01 X11.8666 Y31.8085
G01 X11.9182 Y31.7704
G01 X11.9386 Y31.7568
G01 X12.0345 Y31.6993
G01 X12.0452 Y31.6934
G01 X12.0672 Y31.6824
G01 X12.1572 Y31.6400
G01 X12.1685 Y31.6351
G01 X12.1914 Y31.6263
G01 X12.2735 Y31.5969
G01 X12.2968 Y31.5892
G01 X12.3204 Y31.5827
G01 X12.4170 Y31.5586
G01 X12.4290 Y31.5561
G01 X12.4532 Y31.5519
G01 X12.5395 Y31.5391
G01 X12.5639 Y31.5361
G01 X12.5883 Y31.5343
G01 X12.6755 Y31.5300
G01 X12.7000 Y31.5294
G01 X12.7245 Y31.5300
G01 X12.8117 Y31.5343
G01 X12.8361 Y31.5361
G01 X12.8605 Y31.5391
G01 X12.9589 Y31.5538
G01 X12.9830 Y31.5586
G01 X12.9949 Y31.5615
G01 X13.0796 Y31.5827
G01 X13.1032 Y31.5892
G01 X13.1265 Y31.5969
G01 X13.2086 Y31.6263
G01 X13.2202 Y31.6306
G01 X13.2428 Y31.6400
G01 X13.3439 Y31.6878
G01 X13.3655 Y31.6993
G01 X13.3761 Y31.7055
G01 X13.4510 Y31.7504
G01 X13.4717 Y31.7635
G01 X13.4918 Y31.7776
G01 X13.5618 Y31.8296
G01 X13.5812 Y31.8447
G01 X13.5998 Y31.8607
G01 X13.6644 Y31.9193
G01 X13.6822 Y31.9362
G01 X13.6991 Y31.9540
G01 X13.7577 Y32.0186
G01 X13.7737 Y32.0372
G01 X13.7888 Y32.0566
G01 X13.8408 Y32.1266
G01 X13.8549 Y32.1467
G01 X13.8680 Y32.1674
G01 X13.9129 Y32.2423
G01 X13.9250 Y32.2636
G01 X13.9360 Y32.2856
G01 X13.9733 Y32.3644
G01 X13.9833 Y32.3869
G01 X13.9921 Y32.4098
G01 X14.0215 Y32.4919
G01 X14.0292 Y32.5152
G01 X14.0326 Y32.5270
G01 X14.0569 Y32.6235
G01 X14.0623 Y32.6474
G01 X14.0665 Y32.6716
G01 X14.0793 Y32.7579
G01 X14.0823 Y32.7823
G01 X14.0841 Y32.8067
G01 X14.0884 Y32.8939
G01 X14.0890 Y32.9184
G01 X14.0884 Y32.9429
G01 X14.0841 Y33.0301
G01 X14.0823 Y33.0545
G01 X14.0793 Y33.0789
G01 X14.0665 Y33.1652
G01 X14.0623 Y33.1894
G01 X14.0569 Y33.2133
G01 X14.0357 Y33.2980
G01 X14.0292 Y33.3216
G01 X14.0215 Y33.3449
G01 X13.9921 Y33.4270
G01 X13.9833 Y33.4499
G01 X13.9784 Y33.4612
G01 X13.9306 Y33.5623
G01 X13.9250 Y33.5732
G01 X13.9129 Y33.5945
G01 X13.8680 Y33.6694
G01 X13.8549 Y33.6901
G01 X13.8408 Y33.7102
G01 X13.7888 Y33.7802
G01 X13.7737 Y33.7996
G01 X13.7577 Y33.8182
G01 X13.6991 Y33.8828
G01 X13.6822 Y33.9006
G01 X13.6644 Y33.9175
G01 X13.5998 Y33.9761
G01 X13.5812 Y33.9921
G01 X13.5618 Y34.0072
G01 X13.4918 Y34.0592
G01 X13.4717 Y34.0733
G01 X13.4510 Y34.0864
G01 X13.3761 Y34.1313
G01 X13.3548 Y34.1434
G01 X13.3328 Y34.1544
G01 X13.2540 Y34.1917
G01 X13.2315 Y34.2017
G01 X13.2086 Y34.2105
G01 X13.1265 Y34.2399
G01 X13.1032 Y34.2476
G01 X13.0796 Y34.2541
G01 X12.9949 Y34.2753
G01 X12.9710 Y34.2807
G01 X12.9589 Y34.2830
G01 X12.8483 Y34.2994
G01 X12.8361 Y34.3007
G01 X12.8117 Y34.3025
G01 X12.7245 Y34.3068
G01 X12.7000 Y34.3074
G01 X12.6755 Y34.3068
G01 X12.5883 Y34.3025
G01 X12.5639 Y34.3007
G01 X12.5395 Y34.2977
G01 X12.4532 Y34.2849
G01 X12.4290 Y34.2807
G01 X12.4051 Y34.2753
G01 X12.3086 Y34.2510
G01 X12.2968 Y34.2476
G01 X12.2735 Y34.2399
G01 X12.1914 Y34.2105
G01 X12.1685 Y34.2017
G01 X12.1460 Y34.1917
G01 X12.0561 Y34.1490
G01 X12.0345 Y34.1375
G01 X12.0239 Y34.1313
G01 X11.9386 Y34.0800
G01 X11.9182 Y34.0664
G01 X11.8666 Y34.0283
G01 X6.4518 Y34.0283
G01 X6.4441 Y34.0379
G01 X6.4281 Y34.0565
G01 X6.3448 Y34.1485
G01 X6.3278 Y34.1662
G01 X6.3101 Y34.1832
G01 X6.2181 Y34.2665
G01 X6.1995 Y34.2825
G01 X6.1802 Y34.2976
G01 X6.0805 Y34.3716
G01 X6.0604 Y34.3857
G01 X6.0397 Y34.3988
G01 X5.9332 Y34.4626
G01 X5.9119 Y34.4747
G01 X5.8900 Y34.4858
G01 X5.7778 Y34.5388
G01 X5.7553 Y34.5488
G01 X5.7324 Y34.5576
G01 X5.6156 Y34.5994
G01 X5.5923 Y34.6071
G01 X5.5805 Y34.6105
G01 X5.4482 Y34.6438
G01 X5.4243 Y34.6492
G01 X5.4001 Y34.6534
G01 X5.2773 Y34.6716
G01 X5.2530 Y34.6746
G01 X5.2285 Y34.6764
G01 X5.0923 Y34.6830
G01 X5.0677 Y34.6830
G01 X5.0555 Y34.6825
G01 X4.9315 Y34.6764
G01 X4.9070 Y34.6746
G01 X4.8827 Y34.6716
G01 X4.7599 Y34.6534
G01 X4.7357 Y34.6492
G01 X4.7118 Y34.6438
G01 X4.5795 Y34.6105
G01 X4.5560 Y34.6034
G01 X4.5444 Y34.5994
G01 X4.4276 Y34.5576
G01 X4.4047 Y34.5488
G01 X4.3822 Y34.5388
G01 X4.2700 Y34.4858
G01 X4.2481 Y34.4747
G01 X4.2268 Y34.4626
G01 X4.1203 Y34.3988
G01 X4.0996 Y34.3857
G01 X4.0795 Y34.3716
G01 X3.9798 Y34.2976
G01 X3.9605 Y34.2825
G01 X3.9419 Y34.2665
G01 X3.8499 Y34.1832
G01 X3.8322 Y34.1662
G01 X3.8152 Y34.1485
G01 X3.7319 Y34.0565
G01 X3.7159 Y34.0379
G01 X3.7082 Y34.0283
G01 X2.5400 Y34.0283
G01 X2.5155 Y34.0277
G01 X2.4434 Y34.0240
G01 X2.4190 Y34.0216
G01 X2.4069 Y34.0200
G01 X2.3476 Y34.0112
G01 X2.3235 Y34.0070
G01 X2.2995 Y34.0016
G01 X2.2415 Y33.9871
G01 X2.2178 Y33.9805
G01 X2.1945 Y33.9728
G01 X2.1382 Y33.9526
G01 X2.1153 Y33.9438
G01 X2.0928 Y33.9339
G01 X2.0277 Y33.9029
G01 X2.0060 Y33.8913
G01 X1.9441 Y33.8544
G01 X1.9337 Y33.8479
G01 X1.9133 Y33.8343
G01 X1.8552 Y33.7915
G01 X1.8359 Y33.7764
G01 X1.8173 Y33.7603
G01 X1.7730 Y33.7201
G01 X1.7552 Y33.7032
G01 X1.7466 Y33.6944
G01 X1.6981 Y33.6411
G01 X1.6820 Y33.6225
G01 X1.6669 Y33.6032
G01 X1.6241 Y33.5451
G01 X1.6105 Y33.5247
G01 X1.6040 Y33.5143
G01 X1.5732 Y33.4630
G01 X1.5612 Y33.4416
G01 X1.5501 Y33.4197
G01 X1.5245 Y33.3656
G01 X1.5146 Y33.3431
G01 X1.5100 Y33.3317
G01 X1.4856 Y33.2639
G01 X1.4779 Y33.2406
G01 X1.4713 Y33.2169
G01 X1.4568 Y33.1589
G01 X1.4514 Y33.1349
G01 X1.4472 Y33.1108
G01 X1.4384 Y33.0515
G01 X1.4368 Y33.0394
G01 X1.4344 Y33.0150
G01 X1.4307 Y32.9429
G01 X1.4301 Y32.9184
G01 X1.4302 Y10.0209
G01 X1.4305 Y10.0069
G01 X1.4336 Y9.9487
G01 X1.4345 Y9.9347
G01 X1.4367 Y9.9122
G01 X1.4384 Y9.8982
G01 X1.4472 Y9.8406
G01 X1.4495 Y9.8268
G01 X1.4539 Y9.8046
G01 X1.4569 Y9.7909
G01 X1.4713 Y9.7345
G01 X1.4749 Y9.7209
G01 X1.4815 Y9.6992
G01 X1.4858 Y9.6859
G01 X1.5058 Y9.6312
G01 X1.5159 Y9.6050
G01 X1.5249 Y9.5843
G01 X1.5309 Y9.5716
G01 X1.5563 Y9.5191
G01 X1.5628 Y9.5067
G01 X1.5738 Y9.4869
G01 X1.6114 Y9.4252
G01 X1.6320 Y9.3948
G01 X1.6755 Y9.3371
G01 X1.6989 Y9.3089
G01 X1.7383 Y9.2660
G01 X1.7577 Y9.2457
G01 X1.7739 Y9.2300
G01 X1.8278 Y9.1818
G01 X1.8563 Y9.1587
G01 X1.9147 Y9.1161
G01 X1.9335 Y9.1035
G01 X1.9573 Y9.0887
G01 X2.0076 Y9.0592
G01 X2.0199 Y9.0525
G01 X2.0400 Y9.0422
G01 X2.1056 Y9.0117
G01 X2.1395 Y8.9979
G01 X2.1945 Y8.9786
G01 X2.2212 Y8.9699
G01 X2.2429 Y8.9637
G01 X2.3132 Y8.9466
G01 X2.3492 Y8.9397
G01 X2.4208 Y8.9296
G01 X2.4433 Y8.9273
G01 X2.4713 Y8.9256
G01 X2.5295 Y8.9232
G01 X2.5435 Y8.9231
G01 X3.7153 Y8.9395
G01 X3.7319 Y8.9203
G01 X3.8152 Y8.8283
G01 X3.8322 Y8.8106
G01 X3.8499 Y8.7936
G01 X3.9419 Y8.7103
G01 X3.9605 Y8.6943
G01 X3.9798 Y8.6792
G01 X4.0795 Y8.6052
G01 X4.0996 Y8.5911
G01 X4.1203 Y8.5780
G01 X4.2268 Y8.5142
G01 X4.2481 Y8.5021
G01 X4.2700 Y8.4910
G01 X4.3822 Y8.4380
G01 X4.4047 Y8.4280
G01 X4.4276 Y8.4192
G01 X4.5444 Y8.3774
G01 X4.5677 Y8.3697
G01 X4.5914 Y8.3631
G01 X4.7118 Y8.3330
G01 X4.7357 Y8.3276
G01 X4.7599 Y8.3234
G01 X4.8827 Y8.3052
G01 X4.9070 Y8.3022
G01 X4.9315 Y8.3004
G01 X5.0555 Y8.2943
G01 X5.0800 Y8.2937
G01 X5.1045 Y8.2943
G01 X5.2285 Y8.3004
G01 X5.2530 Y8.3022
G01 X5.2652 Y8.3035
G01 X5.4001 Y8.3234
G01 X5.4243 Y8.3276
G01 X5.4482 Y8.3330
G01 X5.5686 Y8.3631
G01 X5.5923 Y8.3697
G01 X5.6156 Y8.3774
G01 X5.7324 Y8.4192
G01 X5.7553 Y8.4280
G01 X5.7778 Y8.4380
G01 X5.8900 Y8.4910
G01 X5.9119 Y8.5021
G01 X5.9332 Y8.5142
G01 X6.0397 Y8.5780
G01 X6.0604 Y8.5911
G01 X6.0805 Y8.6052
G01 X6.1802 Y8.6792
G01 X6.1995 Y8.6943
G01 X6.2181 Y8.7103
G01 X6.3101 Y8.7936
G01 X6.3278 Y8.8106
G01 X6.3448 Y8.8283
G01 X6.4281 Y8.9203
G01 X6.4476 Y8.9432
G01 X7.7602 Y8.9323
G01 X7.7801 Y4.9982
G01 X7.7803 Y4.9859
G01 X7.7830 Y4.9277
G01 X7.7850 Y4.9001
G01 X7.7872 Y4.8788
G01 X7.7891 Y4.8651
G01 X7.7980 Y4.8059
G01 X7.8004 Y4.7923
G01 X7.8048 Y4.7713
G01 X7.8080 Y4.7579
G01 X7.8226 Y4.6998
G01 X7.8264 Y4.6865
G01 X7.8328 Y4.6660
G01 X7.8373 Y4.6530
G01 X7.8575 Y4.5966
G01 X7.8626 Y4.5838
G01 X7.8710 Y4.5641
G01 X7.8768 Y4.5515
G01 X7.9024 Y4.4974
G01 X7.9088 Y4.4851
G01 X7.9190 Y4.4663
G01 X7.9260 Y4.4544
G01 X7.9568 Y4.4030
G01 X7.9643 Y4.3914
G01 X7.9764 Y4.3737
G01 X7.9845 Y4.3625
G01 X8.0202 Y4.3145
G01 X8.0288 Y4.3036
G01 X8.0425 Y4.2872
G01 X8.0517 Y4.2769
G01 X8.0920 Y4.2325
G01 X8.1016 Y4.2226
G01 X8.1168 Y4.2076
G01 X8.1714 Y4.1580
G01 X8.1986 Y4.1356
G01 X8.2578 Y4.0917
G01 X8.2754 Y4.0796
G01 X8.2988 Y4.0648
G01 X8.3502 Y4.0341
G01 X8.3813 Y4.0174
G01 X8.4479 Y3.9858
G01 X8.4676 Y3.9774
G01 X8.4804 Y3.9723
G01 X8.5367 Y3.9520
G01 X8.5629 Y3.9432
G01 X8.5835 Y3.9371
G01 X8.6549 Y3.9191
G01 X8.6895 Y3.9122
G01 X8.7487 Y3.9033
G01 X8.7761 Y3.8998
G01 X8.7975 Y3.8978
G01 X8.8573 Y3.8947
G01 X8.8818 Y3.8939
G01 X11.8621 Y3.8719
G01 X11.9082 Y3.8376
G01 X11.9283 Y3.8235
G01 X11.9490 Y3.8104
G01 X12.0345 Y3.7593
G01 X12.0561 Y3.7478
G01 X12.0672 Y3.7424
G01 X12.1460 Y3.7051
G01 X12.1572 Y3.7000
G01 X12.1798 Y3.6906
G01 X12.2735 Y3.6569
G01 X12.2968 Y3.6492
G01 X12.3204 Y3.6427
G01 X12.4051 Y3.6215
G01 X12.4290 Y3.6161
G01 X12.4532 Y3.6119
G01 X12.5395 Y3.5991
G01 X12.5517 Y3.5974
G01 X12.5761 Y3.5950
G01 X12.6755 Y3.5900
G01 X12.7000 Y3.5894
G01 X12.7245 Y3.5900
G01 X12.8117 Y3.5943
G01 X12.8361 Y3.5961
G01 X12.8605 Y3.5991
G01 X12.9468 Y3.6119
G01 X12.9710 Y3.6161
G01 X12.9949 Y3.6215
G01 X13.0796 Y3.6427
G01 X13.0914 Y3.6458
G01 X13.1149 Y3.6529
G01 X13.2086 Y3.6863
G01 X13.2315 Y3.6951
G01 X13.2540 Y3.7051
G01 X13.3328 Y3.7424
G01 X13.3548 Y3.7534
G01 X13.3761 Y3.7655
G01 X13.4510 Y3.8104
G01 X13.4614 Y3.8168
G01 X13.4818 Y3.8304
G01 X13.5716 Y3.8970
G01 X13.5812 Y3.9047
G01 X13.5998 Y3.9207
G01 X13.6644 Y3.9793
G01 X13.6822 Y3.9962
G01 X13.6991 Y4.0140
G01 X13.7577 Y4.0786
G01 X13.7737 Y4.0972
G01 X13.7888 Y4.1166
G01 X13.8408 Y4.1866
G01 X13.8549 Y4.2067
G01 X13.8680 Y4.2274
G01 X13.9129 Y4.3023
G01 X13.9250 Y4.3236
G01 X13.9360 Y4.3456
G01 X13.9733 Y4.4244
G01 X13.9833 Y4.4469
G01 X13.9921 Y4.4698
G01 X14.0215 Y4.5519
G01 X14.0292 Y4.5752
G01 X14.0357 Y4.5988
G01 X14.0569 Y4.6835
G01 X14.0623 Y4.7074
G01 X14.0665 Y4.7316
G01 X14.0793 Y4.8179
G01 X14.0823 Y4.8423
G01 X14.0841 Y4.8667
G01 X14.0884 Y4.9539
G01 X14.0890 Y4.9784
G01 X14.0884 Y5.0029
G01 X14.0841 Y5.0901
G01 X14.0823 Y5.1145
G01 X14.0793 Y5.1389
G01 X14.0665 Y5.2252
G01 X14.0623 Y5.2494
G01 X14.0569 Y5.2733
G01 X14.0357 Y5.3580
G01 X14.0292 Y5.3816
G01 X14.0215 Y5.4049
G01 X13.9921 Y5.4870
G01 X13.9833 Y5.5099
G01 X13.9733 Y5.5324
G01 X13.9360 Y5.6112
G01 X13.9250 Y5.6332
G01 X13.9129 Y5.6545
G01 X13.8680 Y5.7294
G01 X13.8549 Y5.7501
G01 X13.8408 Y5.7702
G01 X13.7888 Y5.8402
G01 X13.7737 Y5.8596
G01 X13.7577 Y5.8782
G01 X13.6991 Y5.9428
G01 X13.6822 Y5.9606
G01 X13.6644 Y5.9775
G01 X13.5998 Y6.0361
G01 X13.5812 Y6.0521
G01 X13.5618 Y6.0672
G01 X13.4918 Y6.1192
G01 X13.4717 Y6.1333
G01 X13.4510 Y6.1464
G01 X13.3761 Y6.1913
G01 X13.3548 Y6.2034
G01 X13.3328 Y6.2144
G01 X13.2540 Y6.2517
G01 X13.2315 Y6.2617
G01 X13.2086 Y6.2705
G01 X13.1265 Y6.2999
G01 X13.1032 Y6.3076
G01 X13.0796 Y6.3141
G01 X12.9949 Y6.3353
G01 X12.9710 Y6.3407
G01 X12.9468 Y6.3449
G01 X12.8605 Y6.3577
G01 X12.8361 Y6.3607
G01 X12.8117 Y6.3625
G01 X12.7245 Y6.3668
G01 X12.7000 Y6.3674
G01 X12.6755 Y6.3668
G01 X12.5883 Y6.3625
G01 X12.5639 Y6.3607
G01 X12.5395 Y6.3577
G01 X12.4532 Y6.3449
G01 X12.4290 Y6.3407
G01 X12.4051 Y6.3353
G01 X12.3204 Y6.3141
G01 X12.2968 Y6.3076
G01 X12.2851 Y6.3039
G01 X12.1914 Y6.2705
G01 X12.1685 Y6.2617
G01 X12.1460 Y6.2517
G01 X12.0561 Y6.2090
G01 X12.0345 Y6.1975
G01 X12.0239 Y6.1913
G01 X11.9386 Y6.1400
G01 X11.9182 Y6.1264
G01 X11.8711 Y6.0917
G01 X9.9944 Y6.1056
G01 X9.9745 Y10.0328
G01 X9.9945 Y13.7096
G01 X10.0224 Y13.7194
G01 X10.0338 Y13.7240
G01 X10.0563 Y13.7339
G01 X10.0782 Y13.7449
G01 X10.0889 Y13.7509
G01 X10.0996 Y13.7570
G01 X10.1203 Y13.7702
G01 X10.1403 Y13.7843
G01 X10.1501 Y13.7917
G01 X10.1691 Y13.8073
G01 X10.1873 Y13.8238
G01 X10.1961 Y13.8324
G01 X10.2130 Y13.8501
G01 X10.2211 Y13.8593
G01 X10.2290 Y13.8687
G01 X10.2441 Y13.8881
G01 X10.2582 Y13.9081
G01 X10.2649 Y13.9184
G01 X10.2775 Y13.9395
G01 X10.2835 Y13.9502
G01 X10.2891 Y13.9611
G01 X10.2996 Y13.9833
G01 X10.3090 Y14.0060
G01 X10.3133 Y14.0175
G01 X10.3173 Y14.0291
G01 X10.3244 Y14.0525
G01 X10.3303 Y14.0764
G01 X10.3329 Y14.0884
G01 X10.3371 Y14.1125
G01 X10.3387 Y14.1247
G01 X10.3411 Y14.1491
G01 X10.3423 Y14.1736
G01 X10.3425 Y14.1859
G01 X10.3425 Y16.0909
G01 X10.3423 Y16.1032
G01 X10.3411 Y16.1277
G01 X10.3387 Y16.1521
G01 X10.3351 Y16.1764
G01 X10.3303 Y16.2004
G01 X10.3275 Y16.2124
G01 X10.3210 Y16.2360
G01 X10.3133 Y16.2593
G01 X10.3044 Y16.2822
G01 X10.2945 Y16.3047
G01 X10.2891 Y16.3157
G01 X10.2775 Y16.3373
G01 X10.2649 Y16.3584
G01 X10.2513 Y16.3788
G01 X10.2367 Y16.3985
G01 X10.2290 Y16.4081
G01 X10.2130 Y16.4267
G01 X10.1961 Y16.4445
G01 X10.1873 Y16.4530
G01 X10.1691 Y16.4695
G01 X10.1501 Y16.4851
G01 X10.1304 Y16.4997
G01 X10.1203 Y16.5066
G01 X10.0995 Y16.5198
G01 X10.0782 Y16.5319
G01 X10.0563 Y16.5429
G01 X10.0338 Y16.5528
G01 X10.0224 Y16.5574
G01 X9.9993 Y16.5657
G01 X9.9759 Y16.5728
G01 X9.9520 Y16.5787
G01 X9.9389 Y16.5815
G01 X11.5901 Y16.5815
G01 X11.5901 Y10.8918
G01 X11.5520 Y10.8402
G01 X11.5384 Y10.8198
G01 X11.4809 Y10.7239
G01 X11.4694 Y10.7023
G01 X11.4640 Y10.6912
G01 X11.4216 Y10.6012
G01 X11.4122 Y10.5786
G01 X11.4079 Y10.5670
G01 X11.3785 Y10.4849
G01 X11.3708 Y10.4616
G01 X11.3643 Y10.4380
G01 X11.3402 Y10.3414
G01 X11.3354 Y10.3173
G01 X11.3335 Y10.3052
G01 X11.3207 Y10.2189
G01 X11.3177 Y10.1945
G01 X11.3159 Y10.1701
G01 X11.3116 Y10.0829
G01 X11.3110 Y10.0584
G01 X11.3116 Y10.0339
G01 X11.3159 Y9.9467
G01 X11.3177 Y9.9223
G01 X11.3207 Y9.8979
G01 X11.3335 Y9.8116
G01 X11.3377 Y9.7874
G01 X11.3431 Y9.7635
G01 X11.3643 Y9.6788
G01 X11.3708 Y9.6552
G01 X11.3785 Y9.6319
G01 X11.4079 Y9.5498
G01 X11.4167 Y9.5269
G01 X11.4267 Y9.5044
G01 X11.4640 Y9.4256
G01 X11.4750 Y9.4036
G01 X11.4871 Y9.3823
G01 X11.5320 Y9.3074
G01 X11.5451 Y9.2867
G01 X11.5520 Y9.2766
G01 X11.6112 Y9.1966
G01 X11.6263 Y9.1772
G01 X11.6423 Y9.1586
G01 X11.7009 Y9.0940
G01 X11.7178 Y9.0762
G01 X11.7356 Y9.0593
G01 X11.8002 Y9.0007
G01 X11.8188 Y8.9847
G01 X11.8382 Y8.9696
G01 X11.9082 Y8.9176
G01 X11.9283 Y8.9035
G01 X11.9490 Y8.8904
G01 X12.0239 Y8.8455
G01 X12.0452 Y8.8334
G01 X12.0672 Y8.8224
G01 X12.1460 Y8.7851
G01 X12.1685 Y8.7751
G01 X12.1914 Y8.7663
G01 X12.2735 Y8.7369
G01 X12.2968 Y8.7292
G01 X12.3204 Y8.7227
G01 X12.4170 Y8.6986
G01 X12.4290 Y8.6961
G01 X12.4532 Y8.6919
G01 X12.5395 Y8.6791
G01 X12.5639 Y8.6761
G01 X12.5883 Y8.6743
G01 X12.6755 Y8.6700
G01 X12.7000 Y8.6694
G01 X12.7245 Y8.6700
G01 X12.8117 Y8.6743
G01 X12.8361 Y8.6761
G01 X12.8605 Y8.6791
G01 X12.9468 Y8.6919
G01 X12.9710 Y8.6961
G01 X12.9949 Y8.7015
G01 X13.0796 Y8.7227
G01 X13.1032 Y8.7292
G01 X13.1265 Y8.7369
G01 X13.2086 Y8.7663
G01 X13.2315 Y8.7751
G01 X13.2540 Y8.7851
G01 X13.3328 Y8.8224
G01 X13.3548 Y8.8334
G01 X13.3761 Y8.8455
G01 X13.4510 Y8.8904
G01 X13.4717 Y8.9035
G01 X13.4918 Y8.9176
G01 X13.5618 Y8.9696
G01 X13.5812 Y8.9847
G01 X13.5998 Y9.0007
G01 X13.6644 Y9.0593
G01 X13.6822 Y9.0762
G01 X13.6991 Y9.0940
G01 X13.7577 Y9.1586
G01 X13.7737 Y9.1772
G01 X13.7888 Y9.1966
G01 X13.8408 Y9.2666
G01 X13.8549 Y9.2867
G01 X13.8680 Y9.3074
G01 X13.9129 Y9.3823
G01 X13.9250 Y9.4036
G01 X13.9360 Y9.4256
G01 X13.9733 Y9.5044
G01 X13.9833 Y9.5269
G01 X13.9921 Y9.5498
G01 X14.0215 Y9.6319
G01 X14.0292 Y9.6552
G01 X14.0357 Y9.6788
G01 X14.0598 Y9.7754
G01 X14.0646 Y9.7995
G01 X14.0665 Y9.8116
G01 X14.0793 Y9.8979
G01 X14.0823 Y9.9223
G01 X14.0841 Y9.9467
G01 X14.0884 Y10.0339
G01 X14.0890 Y10.0584
G01 X14.0884 Y10.0829
G01 X14.0841 Y10.1701
G01 X14.0823 Y10.1945
G01 X14.0793 Y10.2189
G01 X14.0665 Y10.3052
G01 X14.0623 Y10.3294
G01 X14.0569 Y10.3533
G01 X14.0357 Y10.4380
G01 X14.0292 Y10.4616
G01 X14.0215 Y10.4849
G01 X13.9921 Y10.5670
G01 X13.9833 Y10.5899
G01 X13.9733 Y10.6124
G01 X13.9306 Y10.7023
G01 X13.9191 Y10.7239
G01 X13.9129 Y10.7345
G01 X13.8616 Y10.8198
G01 X13.8480 Y10.8402
G01 X13.8099 Y10.8918
G01 X13.8099 Y19.1215
G01 X15.5591 Y19.1215
G01 X15.5792 Y19.1035
G01 X15.5981 Y19.0879
G01 X15.6929 Y19.0176
G01 X15.7030 Y19.0107
G01 X15.7238 Y18.9976
G01 X15.8058 Y18.9484
G01 X15.7238 Y18.8992
G01 X15.7030 Y18.8861
G01 X15.6830 Y18.8720
G01 X15.6079 Y18.8163
G01 X15.5885 Y18.8012
G01 X15.5700 Y18.7852
G01 X15.5007 Y18.7224
G01 X15.4829 Y18.7055
G01 X15.4660 Y18.6877
G01 X15.4032 Y18.6184
G01 X15.3872 Y18.5999
G01 X15.3721 Y18.5805
G01 X15.3164 Y18.5054
G01 X15.3023 Y18.4854
G01 X15.2892 Y18.4646
G01 X15.2411 Y18.3845
G01 X15.2290 Y18.3631
G01 X15.2180 Y18.3412
G01 X15.1780 Y18.2567
G01 X15.1681 Y18.2342
G01 X15.1592 Y18.2113
G01 X15.1277 Y18.1233
G01 X15.1238 Y18.1117
G01 X15.1166 Y18.0883
G01 X15.0880 Y17.9738
G01 X15.0832 Y17.9497
G01 X15.0812 Y17.9376
G01 X15.0675 Y17.8451
G01 X15.0645 Y17.8208
G01 X15.0627 Y17.7963
G01 X15.0577 Y17.6907
G01 X15.0575 Y17.6784
G01 X15.0581 Y17.6539
G01 X15.0627 Y17.5605
G01 X15.0645 Y17.5360
G01 X15.0675 Y17.5117
G01 X15.0812 Y17.4192
G01 X15.0854 Y17.3950
G01 X15.0908 Y17.3711
G01 X15.1135 Y17.2804
G01 X15.1200 Y17.2568
G01 X15.1277 Y17.2335
G01 X15.1592 Y17.1455
G01 X15.1681 Y17.1226
G01 X15.1780 Y17.1001
G01 X15.2180 Y17.0156
G01 X15.2290 Y16.9937
G01 X15.2411 Y16.9723
G01 X15.2892 Y16.8922
G01 X15.3023 Y16.8714
G01 X15.3164 Y16.8514
G01 X15.3721 Y16.7763
G01 X15.3872 Y16.7569
G01 X15.4032 Y16.7384
G01 X15.4660 Y16.6691
G01 X15.4829 Y16.6513
G01 X15.5007 Y16.6344
G01 X15.5700 Y16.5716
G01 X15.5885 Y16.5556
G01 X15.6079 Y16.5405
G01 X15.6830 Y16.4848
G01 X15.7030 Y16.4707
G01 X15.7238 Y16.4576
G01 X15.8058 Y16.4084
G01 X15.7238 Y16.3592
G01 X15.7030 Y16.3461
G01 X15.6830 Y16.3320
G01 X15.6079 Y16.2763
G01 X15.5885 Y16.2612
G01 X15.5700 Y16.2452
G01 X15.5007 Y16.1824
G01 X15.4829 Y16.1655
G01 X15.4660 Y16.1477
G01 X15.4032 Y16.0784
G01 X15.3872 Y16.0599
G01 X15.3721 Y16.0405
G01 X15.3164 Y15.9654
G01 X15.3023 Y15.9454
G01 X15.2892 Y15.9246
G01 X15.2411 Y15.8445
G01 X15.2290 Y15.8231
G01 X15.2180 Y15.8012
G01 X15.1780 Y15.7167
G01 X15.1681 Y15.6942
G01 X15.1592 Y15.6713
G01 X15.1277 Y15.5833
G01 X15.1200 Y15.5600
G01 X15.1166 Y15.5483
G01 X15.0880 Y15.4338
G01 X15.0854 Y15.4218
G01 X15.0812 Y15.3976
G01 X15.0675 Y15.3051
G01 X15.0645 Y15.2808
G01 X15.0627 Y15.2563
G01 X15.0577 Y15.1507
G01 X15.0575 Y15.1384
G01 X15.0581 Y15.1139
G01 X15.0627 Y15.0205
G01 X15.0645 Y14.9960
G01 X15.0675 Y14.9717
G01 X15.0812 Y14.8792
G01 X15.0854 Y14.8550
G01 X15.0908 Y14.8311
G01 X15.1135 Y14.7404
G01 X15.1200 Y14.7168
G01 X15.1277 Y14.6935
G01 X15.1592 Y14.6055
G01 X15.1681 Y14.5826
G01 X15.1780 Y14.5601
G01 X15.2234 Y14.4646
G01 X15.2290 Y14.4537
G01 X15.2411 Y14.4323
G01 X15.2892 Y14.3522
G01 X15.3023 Y14.3314
G01 X15.3092 Y14.3213
G01 X15.3795 Y14.2265
G01 X15.3872 Y14.2169
G01 X15.4001 Y14.2019
G01 X15.4001 Y3.5737
G01 X6.1805 Y3.5737
G01 X6.1808 Y3.5997
G01 X6.1995 Y3.6143
G01 X6.2089 Y3.6222
G01 X6.3101 Y3.7136
G01 X6.3278 Y3.7306
G01 X6.3448 Y3.7483
G01 X6.4281 Y3.8403
G01 X6.4441 Y3.8589
G01 X6.4592 Y3.8782
G01 X6.5332 Y3.9779
G01 X6.5473 Y3.9980
G01 X6.5540 Y4.0083
G01 X6.6242 Y4.1252
G01 X6.6363 Y4.1465
G01 X6.6474 Y4.1684
G01 X6.7004 Y4.2806
G01 X6.7055 Y4.2918
G01 X6.7149 Y4.3145
G01 X6.7610 Y4.4428
G01 X6.7687 Y4.4661
G01 X6.7753 Y4.4898
G01 X6.8054 Y4.6102
G01 X6.8108 Y4.6341
G01 X6.8150 Y4.6583
G01 X6.8332 Y4.7811
G01 X6.8362 Y4.8054
G01 X6.8380 Y4.8299
G01 X6.8441 Y4.9539
G01 X6.8447 Y4.9784
G01 X6.8441 Y5.0029
G01 X6.8380 Y5.1269
G01 X6.8362 Y5.1514
G01 X6.8332 Y5.1757
G01 X6.8130 Y5.3106
G01 X6.8083 Y5.3347
G01 X6.8054 Y5.3466
G01 X6.7753 Y5.4670
G01 X6.7687 Y5.4907
G01 X6.7610 Y5.5140
G01 X6.7192 Y5.6308
G01 X6.7149 Y5.6423
G01 X6.7055 Y5.6650
G01 X6.6474 Y5.7884
G01 X6.6363 Y5.8103
G01 X6.6242 Y5.8316
G01 X6.5604 Y5.9381
G01 X6.5473 Y5.9588
G01 X6.5332 Y5.9789
G01 X6.4592 Y6.0786
G01 X6.4441 Y6.0979
G01 X6.4281 Y6.1165
G01 X6.3448 Y6.2085
G01 X6.3278 Y6.2262
G01 X6.3101 Y6.2432
G01 X6.2089 Y6.3346
G01 X6.1995 Y6.3425
G01 X6.1802 Y6.3576
G01 X6.0805 Y6.4316
G01 X6.0604 Y6.4457
G01 X6.0397 Y6.4588
G01 X5.9332 Y6.5226
G01 X5.9119 Y6.5347
G01 X5.8900 Y6.5458
G01 X5.7778 Y6.5988
G01 X5.7553 Y6.6088
G01 X5.7324 Y6.6176
G01 X5.6156 Y6.6594
G01 X5.5923 Y6.6671
G01 X5.5686 Y6.6737
G01 X5.4363 Y6.7067
G01 X5.4122 Y6.7114
G01 X5.4001 Y6.7134
G01 X5.2773 Y6.7316
G01 X5.2530 Y6.7346
G01 X5.2285 Y6.7364
G01 X5.1045 Y6.7425
G01 X5.0800 Y6.7431
G01 X5.0555 Y6.7425
G01 X4.9315 Y6.7364
G01 X4.9070 Y6.7346
G01 X4.8827 Y6.7316
G01 X4.7478 Y6.7114
G01 X4.7237 Y6.7067
G01 X4.7118 Y6.7038
G01 X4.5914 Y6.6737
G01 X4.5677 Y6.6671
G01 X4.5444 Y6.6594
G01 X4.4276 Y6.6176
G01 X4.4047 Y6.6088
G01 X4.3822 Y6.5988
G01 X4.2700 Y6.5458
G01 X4.2481 Y6.5347
G01 X4.2268 Y6.5226
G01 X4.1203 Y6.4588
G01 X4.0996 Y6.4457
G01 X4.0795 Y6.4316
G01 X3.9798 Y6.3576
G01 X3.9605 Y6.3425
G01 X3.9511 Y6.3346
G01 X3.8499 Y6.2432
G01 X3.8322 Y6.2262
G01 X3.8152 Y6.2085
G01 X3.7319 Y6.1165
G01 X3.7159 Y6.0979
G01 X3.7008 Y6.0786
G01 X3.6268 Y5.9789
G01 X3.6127 Y5.9588
G01 X3.5996 Y5.9381
G01 X3.5358 Y5.8316
G01 X3.5237 Y5.8103
G01 X3.5126 Y5.7884
G01 X3.4596 Y5.6762
G01 X3.4545 Y5.6650
G01 X3.4451 Y5.6423
G01 X3.3990 Y5.5140
G01 X3.3913 Y5.4907
G01 X3.3847 Y5.4670
G01 X3.3546 Y5.3466
G01 X3.3492 Y5.3227
G01 X3.3450 Y5.2985
G01 X3.3268 Y5.1757
G01 X3.3238 Y5.1514
G01 X3.3227 Y5.1391
G01 X3.3159 Y5.0029
G01 X3.3153 Y4.9784
G01 X3.3159 Y4.9539
G01 X3.3220 Y4.8299
G01 X3.3238 Y4.8054
G01 X3.3268 Y4.7811
G01 X3.3450 Y4.6583
G01 X3.3492 Y4.6341
G01 X3.3546 Y4.6102
G01 X3.3847 Y4.4898
G01 X3.3913 Y4.4661
G01 X3.3990 Y4.4428
G01 X3.4408 Y4.3260
G01 X3.4496 Y4.3031
G01 X3.4596 Y4.2806
G01 X3.5126 Y4.1684
G01 X3.5237 Y4.1465
G01 X3.5358 Y4.1252
G01 X3.5996 Y4.0187
G01 X3.6127 Y3.9980
G01 X3.6268 Y3.9779
G01 X3.7008 Y3.8782
G01 X3.7159 Y3.8589
G01 X3.7319 Y3.8403
G01 X3.8152 Y3.7483
G01 X3.8322 Y3.7306
G01 X3.8499 Y3.7136
G01 X3.9419 Y3.6303
G01 X3.9610 Y3.6138
G01 X3.9447 Y2.4674
G01 X3.9448 Y2.4533
G01 X3.9471 Y2.3953
G01 X3.9478 Y2.3813
G01 X3.9497 Y2.3586
G01 X3.9512 Y2.3446
G01 X3.9592 Y2.2871
G01 X3.9637 Y2.2593
G01 X3.9682 Y2.2370
G01 X3.9714 Y2.2233
G01 X3.9852 Y2.1669
G01 X3.9890 Y2.1534
G01 X3.9956 Y2.1316
G01 X4.0194 Y2.0635
G01 X4.0333 Y2.0294
G01 X4.0637 Y1.9640
G01 X4.0741 Y1.9438
G01 X4.0878 Y1.9192
G01 X4.1174 Y1.8693
G01 X4.1377 Y1.8385
G01 X4.1802 Y1.7803
G01 X4.1944 Y1.7625
G01 X4.2034 Y1.7516
G01 X4.2420 Y1.7083
G01 X4.2611 Y1.6877
G01 X4.2773 Y1.6716
G01 X4.2876 Y1.6621
G01 X4.3304 Y1.6228
G01 X4.3410 Y1.6137
G01 X4.3587 Y1.5993
G01 X4.3698 Y1.5907
G01 X4.4163 Y1.5559
G01 X4.4278 Y1.5478
G01 X4.4468 Y1.5352
G01 X4.5083 Y1.4977
G01 X4.5407 Y1.4801
G01 X4.6057 Y1.4488
G01 X4.6266 Y1.4398
G01 X4.6528 Y1.4296
G01 X4.7073 Y1.4097
G01 X4.7425 Y1.3988
G01 X4.8123 Y1.3807
G01 X4.8346 Y1.3759
G01 X4.8484 Y1.3733
G01 X4.9057 Y1.3643
G01 X4.9336 Y1.3605
G01 X4.9563 Y1.3583
G01 X4.9703 Y1.3574
G01 X5.0283 Y1.3543
G01 X5.0423 Y1.3540
G01 X30.4800 Y1.3539
G01 X30.5045 Y1.3545
G01 X30.5643 Y1.3574
G01 X30.5888 Y1.3592
G01 X30.6131 Y1.3622
G01 X30.6724 Y1.3710
G01 X30.6965 Y1.3752
G01 X30.7205 Y1.3806
G01 X30.7785 Y1.3951
G01 X30.8022 Y1.4017
G01 X30.8139 Y1.4054
G01 X30.8933 Y1.4338
G01 X30.9047 Y1.4384
G01 X30.9272 Y1.4483
G01 X30.9813 Y1.4739
G01 X31.0032 Y1.4850
G01 X31.0246 Y1.4970
G01 X31.0759 Y1.5278
G01 X31.0966 Y1.5409
G01 X31.1067 Y1.5479
G01 X31.1648 Y1.5907
G01 X31.1841 Y1.6058
G01 X31.1935 Y1.6137
G01 X31.2560 Y1.6704
G01 X31.2734 Y1.6878
G01 X31.2817 Y1.6968
G01 X31.3301 Y1.7503
G01 X31.3380 Y1.7597
G01 X31.3531 Y1.7790
G01 X31.3959 Y1.8371
G01 X31.4095 Y1.8575
G01 X31.4468 Y1.9192
G01 X31.4588 Y1.9406
G01 X31.4645 Y1.9515
G01 X31.4955 Y2.0166
G01 X31.5054 Y2.0391
G01 X31.5142 Y2.0620
G01 X31.5344 Y2.1183
G01 X31.5421 Y2.1416
G01 X31.5487 Y2.1653
G01 X31.5632 Y2.2233
G01 X31.5686 Y2.2473
G01 X31.5728 Y2.2714
G01 X31.5816 Y2.3307
G01 X31.5846 Y2.3550
G01 X31.5864 Y2.3795
G01 X31.5893 Y2.4393
G01 X31.5899 Y2.4638
G01 X31.5899 Y35.4584
G01 X31.5893 Y35.4829
G01 X31.5864 Y35.5427
G01 X31.5846 Y35.5672
G01 X31.5816 Y35.5915
G01 X31.5728 Y35.6508
G01 X31.5686 Y35.6749
G01 X31.5632 Y35.6989
G01 X31.5487 Y35.7569
G01 X31.5455 Y35.7688
G01 X31.5384 Y35.7923
G01 X31.5100 Y35.8717
G01 X31.5054 Y35.8831
G01 X31.4955 Y35.9056
G01 X31.4699 Y35.9597
G01 X31.4588 Y35.9816
G01 X31.4468 Y36.0030
G01 X31.4160 Y36.0543
G01 X31.4095 Y36.0647
G01 X31.3959 Y36.0851
G01 X31.3531 Y36.1432
G01 X31.3456 Y36.1529
G01 X31.3301 Y36.1719
G01 X31.2734 Y36.2344
G01 X31.2648 Y36.2432
G01 X31.2470 Y36.2601
G01 X31.1935 Y36.3085
G01 X31.1841 Y36.3164
G01 X31.1648 Y36.3315
G01 X31.1067 Y36.3743
G01 X31.0863 Y36.3879
G01 X31.0246 Y36.4252
G01 X31.0032 Y36.4372
G01 X30.9923 Y36.4429
G01 X30.9272 Y36.4739
G01 X30.9047 Y36.4838
G01 X30.8818 Y36.4926
G01 X30.8255 Y36.5128
G01 X30.8022 Y36.5205
G01 X30.7785 Y36.5271
G01 X30.7205 Y36.5416
G01 X30.6965 Y36.5470
G01 X30.6724 Y36.5512
G01 X30.6131 Y36.5600
G01 X30.5888 Y36.5630
G01 X30.5643 Y36.5648
G01 X30.4923 Y36.5682
G01 X17.7533 Y36.5683
G01 X17.7245 Y36.5676
G01 X17.6703 Y36.5648
G01 X17.6415 Y36.5625
G01 X17.6159 Y36.5593
G01 X17.5622 Y36.5512
G01 X17.5368 Y36.5467
G01 X17.5212 Y36.5434
G01 X17.4561 Y36.5271
G01 X17.4312 Y36.5201
G01 X17.4038 Y36.5111
G01 X17.3407 Y36.4881
G01 X17.3141 Y36.4770
G01 X17.2533 Y36.4483
G01 X17.2303 Y36.4367
G01 X17.2163 Y36.4290
G01 X17.1587 Y36.3944
G01 X17.1344 Y36.3789
G01 X17.1134 Y36.3639
G01 X17.0596 Y36.3236
G01 X17.0472 Y36.3136
G01 X17.0277 Y36.2967
G01 X16.9781 Y36.2514
G01 X16.9578 Y36.2309
G01 X16.9127 Y36.1811
G01 X16.8958 Y36.1615
G01 X16.8781 Y36.1388
G01 X16.8383 Y36.0846
G01 X16.8294 Y36.0714
G01 X16.8157 Y36.0496
G01 X16.7814 Y35.9918
G01 X16.7678 Y35.9663
G01 X16.7391 Y35.9056
G01 X16.7287 Y35.8820
G01 X16.7184 Y35.8551
G01 X16.6960 Y35.7917
G01 X16.6877 Y35.7641
G01 X16.6714 Y35.6989
G01 X16.6658 Y35.6737
G01 X16.6629 Y35.6580
G01 X16.6530 Y35.5915
G01 X16.6496 Y35.5629
G01 X16.6478 Y35.5372
G01 X16.6453 Y35.4829
G01 X16.6447 Y35.4572
G01 X16.6645 Y31.4883
G01 X8.8777 Y31.4882
G01 X8.8057 Y31.4848
G01 X8.7812 Y31.4830
G01 X8.7569 Y31.4800
G01 X8.6976 Y31.4712
G01 X8.6735 Y31.4670
G01 X8.6615 Y31.4644
G01 X8.5915 Y31.4471
G01 X8.5678 Y31.4405
G01 X8.5445 Y31.4328
G01 X8.4767 Y31.4084
G01 X8.4653 Y31.4038
G01 X8.4428 Y31.3939
G01 X8.3887 Y31.3683
G01 X8.3668 Y31.3572
G01 X8.3454 Y31.3452
G01 X8.2837 Y31.3079
G01 X8.2734 Y31.3013
G01 X8.2533 Y31.2871
G01 X8.2052 Y31.2515
G01 X8.1859 Y31.2364
G01 X8.1673 Y31.2203
G01 X8.1230 Y31.1801
G01 X8.1052 Y31.1632
G01 X8.0883 Y31.1454
G01 X8.0481 Y31.1011
G01 X8.0399 Y31.0919
G01 X8.0244 Y31.0729
G01 X7.9741 Y31.0051
G01 X7.9671 Y30.9950
G01 X7.9540 Y30.9743
G01 X7.9232 Y30.9230
G01 X7.9112 Y30.9016
G01 X7.9001 Y30.8797
G01 X7.8745 Y30.8256
G01 X7.8694 Y30.8144
G01 X7.8600 Y30.7917
G01 X7.8356 Y30.7239
G01 X7.8316 Y30.7123
G01 X7.8245 Y30.6888
G01 X7.8040 Y30.6069
G01 X7.8014 Y30.5949
G01 X7.7972 Y30.5708
G01 X7.7884 Y30.5115
G01 X7.7854 Y30.4872
G01 X7.7836 Y30.4627
G01 X7.7807 Y30.4029
G01 X7.7801 Y30.3784
G01 X7.7801 Y23.6949
G01 X7.7672 Y23.6799
G01 X7.7595 Y23.6703
G01 X7.6892 Y23.5755
G01 X7.6756 Y23.5551
G01 X7.6692 Y23.5446
G01 X7.6211 Y23.4645
G01 X7.6090 Y23.4431
G01 X7.6034 Y23.4322
G01 X7.5580 Y23.3367
G01 X7.5481 Y23.3142
G01 X7.5392 Y23.2913
G01 X7.5077 Y23.2033
G01 X7.5000 Y23.1800
G01 X7.4935 Y23.1564
G01 X7.4708 Y23.0657
G01 X7.4654 Y23.0418
G01 X7.4612 Y23.0176
G01 X7.4475 Y22.9251
G01 X7.4445 Y22.9008
G01 X7.4427 Y22.8763
G01 X7.4381 Y22.7829
G01 X7.4375 Y22.7584
G01 X7.4381 Y22.7339
G01 X7.4427 Y22.6405
G01 X7.4445 Y22.6160
G01 X7.4475 Y22.5917
G01 X7.4612 Y22.4992
G01 X7.4654 Y22.4750
G01 X7.4708 Y22.4511
G01 X7.4935 Y22.3604
G01 X7.5000 Y22.3368
G01 X7.5077 Y22.3135
G01 X7.5392 Y22.2255
G01 X7.5481 Y22.2026
G01 X7.5580 Y22.1801
G01 X7.5980 Y22.0956
G01 X7.6090 Y22.0737
G01 X7.6211 Y22.0523
G01 X7.6692 Y21.9722
G01 X7.6823 Y21.9514
G01 X7.6964 Y21.9314
G01 X7.7521 Y21.8563
G01 X7.7672 Y21.8369
G01 X7.7832 Y21.8184
G01 X7.8460 Y21.7491
G01 X7.8629 Y21.7313
G01 X7.8807 Y21.7144
G01 X7.9500 Y21.6516
G01 X7.9685 Y21.6356
G01 X7.9879 Y21.6205
G01 X8.0630 Y21.5648
G01 X8.0830 Y21.5507
G01 X8.1038 Y21.5376
G01 X8.1858 Y21.4884
G00 Z2.0000
G00 X3.6499 Y26.8068
G01 F60.00
G01 Z-0.0500
G01 F120.00
G01 X3.6499 Y11.1586
G01 X3.7014 Y11.1594
G01 X3.7159 Y11.1779
G01 X3.7238 Y11.1873
G01 X3.8152 Y11.2885
G01 X3.8322 Y11.3062
G01 X3.8499 Y11.3232
G01 X3.9419 Y11.4065
G01 X3.9605 Y11.4225
G01 X3.9798 Y11.4376
G01 X4.0895 Y11.5188
G01 X4.0996 Y11.5257
G01 X4.1203 Y11.5388
G01 X4.2268 Y11.6026
G01 X4.2481 Y11.6147
G01 X4.2700 Y11.6258
G01 X4.3822 Y11.6788
G01 X4.4047 Y11.6888
G01 X4.4276 Y11.6976
G01 X4.5444 Y11.7394
G01 X4.5677 Y11.7471
G01 X4.5914 Y11.7537
G01 X4.7118 Y11.7838
G01 X4.7357 Y11.7892
G01 X4.7599 Y11.7934
G01 X4.8827 Y11.8116
G01 X4.9070 Y11.8146
G01 X4.9315 Y11.8164
G01 X5.0555 Y11.8225
G01 X5.0800 Y11.8231
G01 X5.1045 Y11.8225
G01 X5.2285 Y11.8164
G01 X5.2530 Y11.8146
G01 X5.2773 Y11.8116
G01 X5.4001 Y11.7934
G01 X5.4243 Y11.7892
G01 X5.4482 Y11.7838
G01 X5.5805 Y11.7505
G01 X5.5923 Y11.7471
G01 X5.6156 Y11.7394
G01 X5.7324 Y11.6976
G01 X5.7553 Y11.6888
G01 X5.7778 Y11.6788
G01 X5.8900 Y11.6258
G01 X5.9119 Y11.6147
G01 X5.9332 Y11.6026
G01 X6.0397 Y11.5388
G01 X6.0604 Y11.5257
G01 X6.0805 Y11.5116
G01 X6.1802 Y11.4376
G01 X6.1995 Y11.4225
G01 X6.2181 Y11.4065
G01 X6.3101 Y11.3232
G01 X6.3278 Y11.3062
G01 X6.3448 Y11.2885
G01 X6.4281 Y11.1965
G01 X6.4441 Y11.1779
G01 X6.4558 Y11.1630
G01 X7.7608 Y11.1521
G01 X7.7747 Y13.7132
G01 X7.7462 Y13.7240
G01 X7.7349 Y13.7288
G01 X7.7127 Y13.7393
G01 X7.7018 Y13.7449
G01 X7.6805 Y13.7570
G01 X7.6597 Y13.7702
G01 X7.6496 Y13.7771
G01 X7.6397 Y13.7843
G01 X7.6203 Y13.7994
G01 X7.6017 Y13.8154
G01 X7.5839 Y13.8323
G01 X7.5754 Y13.8411
G01 X7.5670 Y13.8501
G01 X7.5510 Y13.8687
G01 X7.5433 Y13.8783
G01 X7.5287 Y13.8980
G01 X7.5151 Y13.9184
G01 X7.5025 Y13.9395
G01 X7.4965 Y13.9502
G01 X7.4855 Y13.9721
G01 X7.4804 Y13.9833
G01 X7.4756 Y13.9946
G01 X7.4667 Y14.0175
G01 X7.4590 Y14.0408
G01 X7.4525 Y14.0644
G01 X7.4497 Y14.0764
G01 X7.4471 Y14.0884
G01 X7.4429 Y14.1125
G01 X7.4399 Y14.1369
G01 X7.4389 Y14.1491
G01 X7.4381 Y14.1614
G01 X7.4375 Y14.1859
G01 X7.4377 Y16.1032
G01 X7.4389 Y16.1277
G01 X7.4413 Y16.1521
G01 X7.4449 Y16.1764
G01 X7.4497 Y16.2004
G01 X7.4556 Y16.2243
G01 X7.4627 Y16.2477
G01 X7.4667 Y16.2593
G01 X7.4756 Y16.2822
G01 X7.4855 Y16.3047
G01 X7.4965 Y16.3266
G01 X7.5086 Y16.3479
G01 X7.5218 Y16.3687
G01 X7.5359 Y16.3887
G01 X7.5510 Y16.4081
G01 X7.5670 Y16.4267
G01 X7.5839 Y16.4445
G01 X7.6017 Y16.4614
G01 X7.6203 Y16.4774
G01 X7.6397 Y16.4925
G01 X7.6597 Y16.5066
G01 X7.6805 Y16.5198
G01 X7.7018 Y16.5319
G01 X7.7237 Y16.5429
G01 X7.7462 Y16.5528
G01 X7.7691 Y16.5617
G01 X7.7924 Y16.5694
G01 X7.8160 Y16.5759
G01 X7.8400 Y16.5813
G01 X7.8641 Y16.5855
G01 X7.8885 Y16.5885
G01 X7.9130 Y16.5903
G01 X7.9288 Y16.5908
G01 X7.8807 Y16.6344
G01 X7.8629 Y16.6513
G01 X7.8460 Y16.6691
G01 X7.7832 Y16.7384
G01 X7.7751 Y16.7476
G01 X7.7595 Y16.7665
G01 X7.6892 Y16.8613
G01 X7.6756 Y16.8817
G01 X7.6692 Y16.8922
G01 X7.6211 Y16.9723
G01 X7.6090 Y16.9937
G01 X7.5980 Y17.0156
G01 X7.5580 Y17.1001
G01 X7.5481 Y17.1226
G01 X7.5392 Y17.1455
G01 X7.5077 Y17.2335
G01 X7.5000 Y17.2568
G01 X7.4935 Y17.2804
G01 X7.4708 Y17.3711
G01 X7.4654 Y17.3950
G01 X7.4612 Y17.4192
G01 X7.4475 Y17.5117
G01 X7.4445 Y17.5360
G01 X7.4427 Y17.5605
G01 X7.4381 Y17.6539
G01 X7.4377 Y17.6661
G01 X7.4377 Y17.6907
G01 X7.4427 Y17.7963
G01 X7.4445 Y17.8208
G01 X7.4475 Y17.8451
G01 X7.4612 Y17.9376
G01 X7.4654 Y17.9618
G01 X7.4708 Y17.9857
G01 X7.4935 Y18.0764
G01 X7.5000 Y18.1000
G01 X7.5038 Y18.1117
G01 X7.5435 Y18.2229
G01 X7.5481 Y18.2342
G01 X7.5580 Y18.2567
G01 X7.5980 Y18.3412
G01 X7.6090 Y18.3631
G01 X7.6211 Y18.3845
G01 X7.6756 Y18.4751
G01 X7.6823 Y18.4854
G01 X7.6964 Y18.5054
G01 X7.7521 Y18.5805
G01 X7.7672 Y18.5999
G01 X7.7832 Y18.6184
G01 X7.8460 Y18.6877
G01 X7.8629 Y18.7055
G01 X7.8807 Y18.7224
G01 X7.9500 Y18.7852
G01 X7.9685 Y18.8012
G01 X7.9879 Y18.8163
G01 X8.0630 Y18.8720
G01 X8.0830 Y18.8861
G01 X8.0933 Y18.8928
G01 X8.1858 Y18.9484
G01 X8.1038 Y18.9976
G01 X8.0933 Y19.0040
G01 X8.0729 Y19.0176
G01 X7.9781 Y19.0879
G01 X7.9685 Y19.0956
G01 X7.9535 Y19.1085
G01 X5.0514 Y19.1085
G01 X5.0260 Y19.1092
G01 X4.9703 Y19.1120
G01 X4.9449 Y19.1139
G01 X4.9174 Y19.1173
G01 X4.8497 Y19.1277
G01 X4.8350 Y19.1304
G01 X4.8101 Y19.1361
G01 X4.7561 Y19.1497
G01 X4.7315 Y19.1566
G01 X4.7052 Y19.1653
G01 X4.6528 Y19.1842
G01 X4.6290 Y19.1933
G01 X4.6037 Y19.2046
G01 X4.5533 Y19.2285
G01 X4.5286 Y19.2411
G01 X4.5065 Y19.2537
G01 X4.4587 Y19.2824
G01 X4.4372 Y19.2961
G01 X4.4249 Y19.3045
G01 X4.3597 Y19.3530
G01 X4.3383 Y19.3707
G01 X4.2782 Y19.4253
G01 X4.2675 Y19.4358
G01 X4.2500 Y19.4543
G01 X4.2127 Y19.4957
G01 X4.1960 Y19.5150
G01 X4.1790 Y19.5369
G01 X4.1459 Y19.5817
G01 X4.1312 Y19.6025
G01 X4.1231 Y19.6151
G01 X4.0814 Y19.6848
G01 X4.0743 Y19.6980
G01 X4.0629 Y19.7208
G01 X4.0391 Y19.7712
G01 X4.0288 Y19.7945
G01 X4.0189 Y19.8204
G01 X4.0002 Y19.8729
G01 X3.9922 Y19.8971
G01 X3.9881 Y19.9115
G01 X3.9685 Y19.9903
G01 X3.9654 Y20.0050
G01 X3.9611 Y20.0301
G01 X3.9530 Y20.0853
G01 X3.9497 Y20.1128
G01 X3.9479 Y20.1382
G01 X3.9448 Y20.2066
G01 X3.9678 Y26.4685
G01 X3.9511 Y26.4822
G01 X3.9419 Y26.4903
G01 X3.8499 Y26.5736
G01 X3.8322 Y26.5906
G01 X3.8236 Y26.5994
G01 X3.7319 Y26.7003
G01 X3.7159 Y26.7189
G01 X3.7008 Y26.7382
G01 X3.6499 Y26.8068
G00 Z2.0000
M05
G00 Z2.0000
G00 Z15.00


