(G-CODE GENERATED BY FLATCAM v8.994 - www.flatcam.org - Version Date: 2020/11/7)

(Name: NE555_v2_drill.txt_cnc)
(Type: G-code from Geometry)
(Units: MM)

(Created on Wednesday, 16 October 2024 at 21:21)

(This preprocessor is the default preprocessor used by FlatCAM.)
(It is made to work with MACH3 compatible motion controllers.)


(TOOLS DIAMETER: )
(Tool: 1 -> Dia: 1.4710918)
(Tool: 2 -> Dia: 0.7619999999999999)
(Tool: 3 -> Dia: 1.016)
(Tool: 4 -> Dia: 0.889)
(Tool: 5 -> Dia: 1.0668)

(FEEDRATE Z: )
(Tool: 1 -> Feedrate: 300)
(Tool: 2 -> Feedrate: 300)
(Tool: 3 -> Feedrate: 300)
(Tool: 4 -> Feedrate: 300)
(Tool: 5 -> Feedrate: 300)

(FEEDRATE RAPIDS: )
(Tool: 1 -> Feedrate Rapids: 1500)
(Tool: 2 -> Feedrate Rapids: 1500)
(Tool: 3 -> Feedrate Rapids: 1500)
(Tool: 4 -> Feedrate Rapids: 1500)
(Tool: 5 -> Feedrate Rapids: 1500)

(Z_CUT: )
(Tool: 1 -> Z_Cut: -1.7)
(Tool: 2 -> Z_Cut: -1.7)
(Tool: 3 -> Z_Cut: -1.7)
(Tool: 4 -> Z_Cut: -1.7)
(Tool: 5 -> Z_Cut: -1.7)

(Tools Offset: )
(Tool: 1 -> Offset Z: 0.0)
(Tool: 2 -> Offset Z: 0.0)
(Tool: 3 -> Offset Z: 0.0)
(Tool: 4 -> Offset Z: 0.0)
(Tool: 5 -> Offset Z: 0.0)

(Z_MOVE: )
(Tool: 1 -> Z_Move: 2)
(Tool: 2 -> Z_Move: 2)
(Tool: 3 -> Z_Move: 2)
(Tool: 4 -> Z_Move: 2)
(Tool: 5 -> Z_Move: 2)

(Z Toolchange: 15 mm)
(X,Y Toolchange: 0.0000, 0.0000 mm)
(Z Start: None mm)
(Z End: 0.5 mm)
(X,Y End: None mm)
(Steps per circle: 64)
(Preprocessor Excellon: default)

(X range:    4.3517 ...   28.4755  mm)
(Y range:    4.2429 ...   33.6539  mm)

(Spindle Speed: 0 RPM)
G21
G90
G94

G01 F300.00

M5
G00 Z15.0000
T1
G00 X0.0000 Y0.0000                
M6
(MSG, Change to Tool Dia = 1.4711 ||| Total drills for tool T1 = 28)
M0
G00 Z15.0000

G01 F300.00
M03
G00 X5.0898 Y27.8384
G01 Z-1.7000
G01 Z0
G00 Z2.0000
G00 X5.0872 Y32.9184
G01 Z-1.7000
G01 Z0
G00 Z2.0000
G00 X12.7072 Y32.9184
G01 Z-1.7000
G01 Z0
G00 Z2.0000
G00 X20.3272 Y32.9184
G01 Z-1.7000
G01 Z0
G00 Z2.0000
G00 X27.9675 Y32.9235
G01 Z-1.7000
G01 Z0
G00 Z2.0000
G00 X27.9675 Y30.3835
G01 Z-1.7000
G01 Z0
G00 Z2.0000
G00 X27.9675 Y27.8435
G01 Z-1.7000
G01 Z0
G00 Z2.0000
G00 X24.1372 Y22.7584
G01 Z-1.7000
G01 Z0
G00 Z2.0000
G00 X20.3272 Y22.7584
G01 Z-1.7000
G01 Z0
G00 Z2.0000
G00 X16.5172 Y22.7584
G01 Z-1.7000
G01 Z0
G00 Z2.0000
G00 X16.5172 Y20.2184
G01 Z-1.7000
G01 Z0
G00 Z2.0000
G00 X16.5172 Y17.6784
G01 Z-1.7000
G01 Z0
G00 Z2.0000
G00 X16.5172 Y15.1384
G01 Z-1.7000
G01 Z0
G00 Z2.0000
G00 X20.3272 Y15.1384
G01 Z-1.7000
G01 Z0
G00 Z2.0000
G00 X24.1372 Y15.1892
G01 Z-1.7000
G01 Z0
G00 Z2.0000
G00 X27.9625 Y10.0584
G01 Z-1.7000
G01 Z0
G00 Z2.0000
G00 X27.9625 Y7.5184
G01 Z-1.7000
G01 Z0
G00 Z2.0000
G00 X27.9625 Y4.9784
G01 Z-1.7000
G01 Z0
G00 Z2.0000
G00 X20.3272 Y4.9784
G01 Z-1.7000
G01 Z0
G00 Z2.0000
G00 X12.7072 Y4.9784
G01 Z-1.7000
G01 Z0
G00 Z2.0000
G00 X5.0898 Y4.9784
G01 Z-1.7000
G01 Z0
G00 Z2.0000
G00 X5.0872 Y10.0584
G01 Z-1.7000
G01 Z0
G00 Z2.0000
G00 X12.7072 Y10.0584
G01 Z-1.7000
G01 Z0
G00 Z2.0000
G00 X8.8972 Y15.1384
G01 Z-1.7000
G01 Z0
G00 Z2.0000
G00 X8.8972 Y17.6784
G01 Z-1.7000
G01 Z0
G00 Z2.0000
G00 X8.8972 Y20.2184
G01 Z-1.7000
G01 Z0
G00 Z2.0000
G00 X8.8972 Y22.7584
G01 Z-1.7000
G01 Z0
G00 Z2.0000
G00 X12.7072 Y27.8384
G01 Z-1.7000
G01 Z0
G00 Z2.0000
M05
G00 Z0.50


