(G-CODE GENERATED BY FLATCAM v8.994 - www.flatcam.org - Version Date: 2020/11/7)

(Name: RECEPTOR AM_copperBottom.gbl_iso_combined_1_cnc)
(Type: G-code from Geometry)
(Units: MM)

(Created on Tuesday, 10 September 2024 at 14:03)

(This preprocessor is the default preprocessor used by FlatCAM.)
(It is made to work with MACH3 compatible motion controllers.)

(TOOL DIAMETER: 1.0 mm)
(Feedrate_XY: 120.0 mm/min)
(Feedrate_Z: 60.0 mm/min)
(Feedrate rapids 1500.0 mm/min)

(Z_Cut: -0.05 mm)
(Z_Move: 2.0 mm)
(Z Start: None mm)
(Z End: 15.0 mm)
(X,Y End: None mm)
(Steps per circle: 64)
(Preprocessor Geometry: default)

(X range:    1.6588 ...   42.0925  mm)
(Y range:    1.6334 ...   41.5720  mm)

(Spindle Speed: 0.0 RPM)
G21
G90
G94

G01 F120.00

M5
G00 Z15.0000
G00 X0.0000 Y0.0000
T1
M6    
(MSG, Change to Tool Dia = 1.0000)
M0
G00 Z15.0000

M03
G01 F120.00
G00 X4.8127 Y2.2910
G01 F60.00
G01 Z-0.0500
G01 F120.00
G01 X4.8300 Y2.2422
G01 X4.8388 Y2.2193
G01 X4.8487 Y2.1969
G01 X4.8711 Y2.1497
G01 X4.8826 Y2.1281
G01 X4.9093 Y2.0832
G01 X4.9224 Y2.0625
G01 X4.9365 Y2.0424
G01 X4.9602 Y2.0103
G01 X4.9753 Y1.9910
G01 X4.9913 Y1.9724
G01 X5.0181 Y1.9428
G01 X5.0350 Y1.9250
G01 X5.0527 Y1.9080
G01 X5.0823 Y1.8812
G01 X5.1009 Y1.8652
G01 X5.1202 Y1.8500
G01 X5.1522 Y1.8262
G01 X5.1723 Y1.8121
G01 X5.1930 Y1.7989
G01 X5.2378 Y1.7722
G01 X5.2594 Y1.7606
G01 X5.3065 Y1.7381
G01 X5.3289 Y1.7282
G01 X5.3518 Y1.7193
G01 X5.4010 Y1.7018
G01 X5.4244 Y1.6947
G01 X5.4750 Y1.6818
G01 X5.4989 Y1.6764
G01 X5.5110 Y1.6741
G01 X5.5626 Y1.6663
G01 X5.5869 Y1.6633
G01 X5.6114 Y1.6614
G01 X5.6635 Y1.6590
G01 X31.0250 Y1.6334
G01 X31.0495 Y1.6340
G01 X31.0980 Y1.6363
G01 X31.1255 Y1.6389
G01 X31.1735 Y1.6458
G01 X31.2007 Y1.6504
G01 X31.2258 Y1.6560
G01 X31.2729 Y1.6678
G01 X31.2871 Y1.6718
G01 X31.3115 Y1.6798
G01 X31.3452 Y1.6918
G01 X31.3692 Y1.7009
G01 X31.3944 Y1.7120
G01 X31.4383 Y1.7327
G01 X31.4627 Y1.7456
G01 X31.5045 Y1.7703
G01 X31.5279 Y1.7850
G01 X31.5489 Y1.7998
G01 X31.5879 Y1.8287
G01 X31.6093 Y1.8461
G01 X31.6455 Y1.8785
G01 X31.6633 Y1.8953
G01 X33.4481 Y3.6600
G01 X33.4734 Y3.6581
G01 X33.5668 Y3.6535
G01 X33.5913 Y3.6529
G01 X33.6158 Y3.6535
G01 X33.7092 Y3.6581
G01 X33.7337 Y3.6599
G01 X33.7580 Y3.6629
G01 X33.8505 Y3.6766
G01 X33.8747 Y3.6808
G01 X33.8986 Y3.6862
G01 X33.9893 Y3.7089
G01 X34.0129 Y3.7154
G01 X34.0362 Y3.7231
G01 X34.1242 Y3.7546
G01 X34.1471 Y3.7635
G01 X34.1696 Y3.7734
G01 X34.2541 Y3.8134
G01 X34.2760 Y3.8244
G01 X34.2974 Y3.8365
G01 X34.3775 Y3.8846
G01 X34.3983 Y3.8977
G01 X34.4183 Y3.9118
G01 X34.5032 Y3.9749
G01 X34.5128 Y3.9826
G01 X34.5313 Y3.9986
G01 X34.6006 Y4.0614
G01 X34.6184 Y4.0783
G01 X34.6353 Y4.0961
G01 X34.6981 Y4.1654
G01 X34.7141 Y4.1839
G01 X34.7292 Y4.2033
G01 X34.7849 Y4.2784
G01 X34.7990 Y4.2984
G01 X34.8121 Y4.3192
G01 X34.8602 Y4.3993
G01 X34.8723 Y4.4207
G01 X34.8833 Y4.4426
G01 X34.9233 Y4.5271
G01 X34.9332 Y4.5496
G01 X34.9421 Y4.5725
G01 X34.9775 Y4.6721
G01 X34.9847 Y4.6955
G01 X34.9878 Y4.7074
G01 X35.0105 Y4.7981
G01 X35.0159 Y4.8220
G01 X35.0201 Y4.8462
G01 X35.0338 Y4.9387
G01 X35.0368 Y4.9630
G01 X35.0386 Y4.9875
G01 X35.0432 Y5.0809
G01 X35.0438 Y5.1054
G01 X35.0432 Y5.1299
G01 X35.0386 Y5.2233
G01 X35.0379 Y5.2355
G01 X35.0354 Y5.2600
G01 X35.0181 Y5.3767
G01 X35.0159 Y5.3888
G01 X35.0105 Y5.4127
G01 X34.9878 Y5.5034
G01 X34.9813 Y5.5270
G01 X34.9736 Y5.5503
G01 X34.9421 Y5.6383
G01 X34.9332 Y5.6612
G01 X34.9233 Y5.6837
G01 X34.8833 Y5.7682
G01 X34.8723 Y5.7901
G01 X34.8602 Y5.8115
G01 X34.8121 Y5.8916
G01 X34.7990 Y5.9124
G01 X34.7921 Y5.9225
G01 X34.7292 Y6.0075
G01 X34.7141 Y6.0269
G01 X34.6981 Y6.0454
G01 X34.6353 Y6.1147
G01 X34.6184 Y6.1325
G01 X34.6006 Y6.1494
G01 X34.5313 Y6.2122
G01 X34.5128 Y6.2282
G01 X34.5032 Y6.2359
G01 X34.4084 Y6.3062
G01 X34.3983 Y6.3131
G01 X34.3775 Y6.3262
G01 X34.2974 Y6.3743
G01 X34.2760 Y6.3864
G01 X34.2541 Y6.3974
G01 X34.1696 Y6.4374
G01 X34.1471 Y6.4473
G01 X34.1242 Y6.4562
G01 X34.0362 Y6.4877
G01 X34.0129 Y6.4954
G01 X33.9893 Y6.5019
G01 X33.8986 Y6.5246
G01 X33.8747 Y6.5300
G01 X33.8505 Y6.5342
G01 X33.7580 Y6.5479
G01 X33.7337 Y6.5509
G01 X33.7092 Y6.5527
G01 X33.6158 Y6.5573
G01 X33.5913 Y6.5579
G01 X33.5668 Y6.5573
G01 X33.4734 Y6.5527
G01 X33.4489 Y6.5509
G01 X33.4246 Y6.5479
G01 X33.3321 Y6.5342
G01 X33.3079 Y6.5300
G01 X33.2840 Y6.5246
G01 X33.1933 Y6.5019
G01 X33.1697 Y6.4954
G01 X33.1464 Y6.4877
G01 X33.0583 Y6.4562
G01 X33.0468 Y6.4519
G01 X33.0242 Y6.4425
G01 X32.9285 Y6.3974
G01 X32.9066 Y6.3864
G01 X32.8852 Y6.3743
G01 X32.8051 Y6.3262
G01 X32.7843 Y6.3131
G01 X32.7643 Y6.2990
G01 X32.6892 Y6.2433
G01 X32.6698 Y6.2282
G01 X32.6513 Y6.2122
G01 X32.5820 Y6.1494
G01 X32.5730 Y6.1410
G01 X32.5557 Y6.1237
G01 X32.4845 Y6.0454
G01 X32.4764 Y6.0362
G01 X32.4608 Y6.0173
G01 X32.3905 Y5.9225
G01 X32.3769 Y5.9021
G01 X32.3705 Y5.8916
G01 X32.3224 Y5.8115
G01 X32.3103 Y5.7901
G01 X32.2993 Y5.7682
G01 X32.2593 Y5.6837
G01 X32.2494 Y5.6612
G01 X32.2448 Y5.6499
G01 X32.2050 Y5.5387
G01 X32.2013 Y5.5270
G01 X32.1948 Y5.5034
G01 X32.1721 Y5.4127
G01 X32.1667 Y5.3888
G01 X32.1625 Y5.3646
G01 X32.1488 Y5.2721
G01 X32.1458 Y5.2478
G01 X32.1440 Y5.2233
G01 X32.1394 Y5.1299
G01 X32.1388 Y5.1054
G01 X32.1389 Y5.0931
G01 X32.1447 Y4.9753
G01 X32.1471 Y4.9508
G01 X32.1505 Y4.9269
G01 X30.6537 Y3.4470
G01 X5.9087 Y3.4718
G01 X3.9162 Y5.4642
G01 X3.9162 Y8.7329
G01 X4.0638 Y8.7329
G01 X4.0883 Y8.7335
G01 X4.1128 Y8.7353
G01 X4.1372 Y8.7383
G01 X4.1613 Y8.7425
G01 X4.1733 Y8.7451
G01 X4.1972 Y8.7510
G01 X4.2089 Y8.7544
G01 X4.2322 Y8.7621
G01 X4.2551 Y8.7710
G01 X4.2776 Y8.7809
G01 X4.2995 Y8.7919
G01 X4.3208 Y8.8040
G01 X4.3416 Y8.8172
G01 X4.3616 Y8.8313
G01 X4.3714 Y8.8387
G01 X4.3904 Y8.8543
G01 X4.4086 Y8.8708
G01 X4.4259 Y8.8881
G01 X4.4424 Y8.9063
G01 X4.4580 Y8.9253
G01 X4.4654 Y8.9351
G01 X4.4795 Y8.9551
G01 X4.4862 Y8.9654
G01 X4.4988 Y8.9865
G01 X4.5104 Y9.0081
G01 X4.5209 Y9.0303
G01 X4.5303 Y9.0530
G01 X4.5386 Y9.0761
G01 X4.5457 Y9.0995
G01 X4.5488 Y9.1114
G01 X4.5542 Y9.1354
G01 X4.5564 Y9.1474
G01 X4.5600 Y9.1717
G01 X4.5624 Y9.1961
G01 X4.5637 Y9.2242
G01 X4.6073 Y9.1761
G01 X4.6242 Y9.1583
G01 X4.6420 Y9.1414
G01 X4.7113 Y9.0786
G01 X4.7205 Y9.0705
G01 X4.7394 Y9.0549
G01 X4.8342 Y8.9846
G01 X4.8546 Y8.9710
G01 X4.8651 Y8.9646
G01 X4.9452 Y8.9165
G01 X4.9666 Y8.9044
G01 X4.9885 Y8.8934
G01 X5.0842 Y8.8483
G01 X5.0954 Y8.8435
G01 X5.1183 Y8.8346
G01 X5.2064 Y8.8031
G01 X5.2297 Y8.7954
G01 X5.2533 Y8.7889
G01 X5.3440 Y8.7662
G01 X5.3679 Y8.7608
G01 X5.3921 Y8.7566
G01 X5.4846 Y8.7429
G01 X5.5089 Y8.7399
G01 X5.5334 Y8.7381
G01 X5.6268 Y8.7335
G01 X5.6513 Y8.7329
G01 X5.6636 Y8.7331
G01 X5.7814 Y8.7388
G01 X5.8059 Y8.7412
G01 X5.8180 Y8.7429
G01 X5.9105 Y8.7566
G01 X5.9347 Y8.7608
G01 X5.9586 Y8.7662
G01 X6.0493 Y8.7889
G01 X6.0729 Y8.7954
G01 X6.0846 Y8.7992
G01 X6.1957 Y8.8389
G01 X6.2184 Y8.8483
G01 X6.2296 Y8.8534
G01 X6.3251 Y8.8988
G01 X6.3360 Y8.9044
G01 X6.3574 Y8.9165
G01 X6.4375 Y8.9646
G01 X6.4583 Y8.9777
G01 X6.4783 Y8.9918
G01 X6.5534 Y9.0475
G01 X6.5728 Y9.0626
G01 X6.5913 Y9.0786
G01 X6.6606 Y9.1414
G01 X6.6784 Y9.1583
G01 X6.6953 Y9.1761
G01 X6.7581 Y9.2454
G01 X6.7741 Y9.2639
G01 X6.7887 Y9.2826
G01 X9.8451 Y9.2992
G01 X9.8285 Y6.2428
G01 X9.8098 Y6.2282
G01 X9.8005 Y6.2203
G01 X9.7220 Y6.1494
G01 X9.7042 Y6.1325
G01 X9.6873 Y6.1147
G01 X9.6245 Y6.0454
G01 X9.6085 Y6.0269
G01 X9.5934 Y6.0075
G01 X9.5377 Y5.9324
G01 X9.5236 Y5.9124
G01 X9.5105 Y5.8916
G01 X9.4624 Y5.8115
G01 X9.4503 Y5.7901
G01 X9.4393 Y5.7682
G01 X9.3993 Y5.6837
G01 X9.3894 Y5.6612
G01 X9.3805 Y5.6383
G01 X9.3490 Y5.5503
G01 X9.3413 Y5.5270
G01 X9.3348 Y5.5034
G01 X9.3121 Y5.4127
G01 X9.3067 Y5.3888
G01 X9.3025 Y5.3646
G01 X9.2888 Y5.2721
G01 X9.2858 Y5.2478
G01 X9.2840 Y5.2233
G01 X9.2794 Y5.1299
G01 X9.2788 Y5.1054
G01 X9.2794 Y5.0809
G01 X9.2840 Y4.9875
G01 X9.2858 Y4.9630
G01 X9.2888 Y4.9387
G01 X9.3025 Y4.8462
G01 X9.3067 Y4.8220
G01 X9.3121 Y4.7981
G01 X9.3348 Y4.7074
G01 X9.3413 Y4.6838
G01 X9.3490 Y4.6605
G01 X9.3805 Y4.5725
G01 X9.3894 Y4.5496
G01 X9.3993 Y4.5271
G01 X9.4393 Y4.4426
G01 X9.4503 Y4.4207
G01 X9.4624 Y4.3993
G01 X9.5105 Y4.3192
G01 X9.5236 Y4.2984
G01 X9.5377 Y4.2784
G01 X9.5934 Y4.2033
G01 X9.6085 Y4.1839
G01 X9.6245 Y4.1654
G01 X9.6873 Y4.0961
G01 X9.7042 Y4.0783
G01 X9.7220 Y4.0614
G01 X9.7913 Y3.9986
G01 X9.8098 Y3.9826
G01 X9.8292 Y3.9675
G01 X9.9043 Y3.9118
G01 X9.9243 Y3.8977
G01 X9.9451 Y3.8846
G01 X10.0252 Y3.8365
G01 X10.0466 Y3.8244
G01 X10.0685 Y3.8134
G01 X10.1530 Y3.7734
G01 X10.1754 Y3.7635
G01 X10.1868 Y3.7589
G01 X10.2864 Y3.7231
G01 X10.3097 Y3.7154
G01 X10.3333 Y3.7089
G01 X10.4240 Y3.6862
G01 X10.4479 Y3.6808
G01 X10.4721 Y3.6766
G01 X10.5646 Y3.6629
G01 X10.5889 Y3.6599
G01 X10.6134 Y3.6581
G01 X10.7068 Y3.6535
G01 X10.7313 Y3.6529
G01 X10.7558 Y3.6535
G01 X10.8492 Y3.6581
G01 X10.8737 Y3.6599
G01 X10.8980 Y3.6629
G01 X10.9905 Y3.6766
G01 X11.0147 Y3.6808
G01 X11.0386 Y3.6862
G01 X11.1293 Y3.7089
G01 X11.1529 Y3.7154
G01 X11.1646 Y3.7192
G01 X11.2642 Y3.7546
G01 X11.2871 Y3.7635
G01 X11.3096 Y3.7734
G01 X11.3941 Y3.8134
G01 X11.4160 Y3.8244
G01 X11.4374 Y3.8365
G01 X11.5175 Y3.8846
G01 X11.5383 Y3.8977
G01 X11.5583 Y3.9118
G01 X11.6334 Y3.9675
G01 X11.6528 Y3.9826
G01 X11.6713 Y3.9986
G01 X11.7406 Y4.0614
G01 X11.7584 Y4.0783
G01 X11.7753 Y4.0961
G01 X11.8381 Y4.1654
G01 X11.8541 Y4.1839
G01 X11.8692 Y4.2033
G01 X11.9249 Y4.2784
G01 X11.9390 Y4.2984
G01 X11.9521 Y4.3192
G01 X12.0002 Y4.3993
G01 X12.0123 Y4.4207
G01 X12.0233 Y4.4426
G01 X12.0633 Y4.5271
G01 X12.0732 Y4.5496
G01 X12.0821 Y4.5725
G01 X12.1136 Y4.6605
G01 X12.1213 Y4.6838
G01 X12.1278 Y4.7074
G01 X12.1505 Y4.7981
G01 X12.1559 Y4.8220
G01 X12.1601 Y4.8462
G01 X12.1738 Y4.9387
G01 X12.1768 Y4.9630
G01 X12.1779 Y4.9753
G01 X12.1836 Y5.0931
G01 X12.1836 Y5.1177
G01 X12.1832 Y5.1299
G01 X12.1786 Y5.2233
G01 X12.1768 Y5.2478
G01 X12.1738 Y5.2721
G01 X12.1601 Y5.3646
G01 X12.1559 Y5.3888
G01 X12.1505 Y5.4127
G01 X12.1247 Y5.5153
G01 X12.1175 Y5.5387
G01 X12.1136 Y5.5503
G01 X12.0821 Y5.6383
G01 X12.0732 Y5.6612
G01 X12.0633 Y5.6837
G01 X12.0233 Y5.7682
G01 X12.0123 Y5.7901
G01 X12.0002 Y5.8115
G01 X11.9521 Y5.8916
G01 X11.9390 Y5.9124
G01 X11.9249 Y5.9324
G01 X11.8692 Y6.0075
G01 X11.8541 Y6.0269
G01 X11.8381 Y6.0454
G01 X11.7753 Y6.1147
G01 X11.7584 Y6.1325
G01 X11.7406 Y6.1494
G01 X11.6713 Y6.2122
G01 X11.6528 Y6.2282
G01 X11.6417 Y6.2370
G01 X11.6613 Y9.8332
G01 X13.6468 Y11.8188
G01 X14.6768 Y11.8188
G01 X14.6885 Y11.8039
G01 X14.7045 Y11.7854
G01 X14.7673 Y11.7161
G01 X14.7842 Y11.6983
G01 X14.8020 Y11.6814
G01 X14.8805 Y11.6105
G01 X14.8994 Y11.5949
G01 X14.9092 Y11.5875
G01 X14.9843 Y11.5318
G01 X15.0043 Y11.5177
G01 X15.0251 Y11.5046
G01 X15.1071 Y11.4554
G01 X15.0146 Y11.3998
G01 X15.0043 Y11.3931
G01 X14.9843 Y11.3790
G01 X14.9092 Y11.3233
G01 X14.8898 Y11.3082
G01 X14.8713 Y11.2922
G01 X14.8020 Y11.2294
G01 X14.7842 Y11.2125
G01 X14.7673 Y11.1947
G01 X14.7045 Y11.1254
G01 X14.6885 Y11.1069
G01 X14.6734 Y11.0875
G01 X14.6177 Y11.0124
G01 X14.6036 Y10.9924
G01 X14.5905 Y10.9716
G01 X14.5424 Y10.8915
G01 X14.5303 Y10.8701
G01 X14.5193 Y10.8482
G01 X14.4793 Y10.7637
G01 X14.4694 Y10.7412
G01 X14.4605 Y10.7183
G01 X14.4290 Y10.6303
G01 X14.4213 Y10.6070
G01 X14.4148 Y10.5834
G01 X14.3921 Y10.4927
G01 X14.3867 Y10.4688
G01 X14.3825 Y10.4446
G01 X14.3688 Y10.3521
G01 X14.3658 Y10.3278
G01 X14.3647 Y10.3155
G01 X14.3594 Y10.2099
G01 X14.3588 Y10.1854
G01 X14.3594 Y10.1609
G01 X14.3640 Y10.0675
G01 X14.3658 Y10.0430
G01 X14.3688 Y10.0187
G01 X14.3825 Y9.9262
G01 X14.3867 Y9.9020
G01 X14.3921 Y9.8781
G01 X14.4148 Y9.7874
G01 X14.4213 Y9.7638
G01 X14.4290 Y9.7405
G01 X14.4605 Y9.6525
G01 X14.4694 Y9.6296
G01 X14.4793 Y9.6071
G01 X14.5193 Y9.5226
G01 X14.5303 Y9.5007
G01 X14.5424 Y9.4793
G01 X14.5905 Y9.3992
G01 X14.6036 Y9.3784
G01 X14.6177 Y9.3584
G01 X14.6734 Y9.2833
G01 X14.6885 Y9.2639
G01 X14.7045 Y9.2454
G01 X14.7673 Y9.1761
G01 X14.7842 Y9.1583
G01 X14.8020 Y9.1414
G01 X14.8713 Y9.0786
G01 X14.8898 Y9.0626
G01 X14.9092 Y9.0475
G01 X14.9843 Y8.9918
G01 X15.0043 Y8.9777
G01 X15.0251 Y8.9646
G01 X15.1071 Y8.9154
G01 X15.0146 Y8.8598
G01 X15.0043 Y8.8531
G01 X14.9843 Y8.8390
G01 X14.9092 Y8.7833
G01 X14.8898 Y8.7682
G01 X14.8713 Y8.7522
G01 X14.8020 Y8.6894
G01 X14.7930 Y8.6810
G01 X14.7757 Y8.6637
G01 X14.6964 Y8.5762
G01 X14.6885 Y8.5669
G01 X14.6734 Y8.5475
G01 X14.6105 Y8.4625
G01 X14.5969 Y8.4421
G01 X14.5905 Y8.4316
G01 X14.5424 Y8.3515
G01 X14.5303 Y8.3301
G01 X14.5193 Y8.3082
G01 X14.4793 Y8.2237
G01 X14.4694 Y8.2012
G01 X14.4605 Y8.1783
G01 X14.4290 Y8.0903
G01 X14.4213 Y8.0670
G01 X14.4148 Y8.0434
G01 X14.3921 Y7.9527
G01 X14.3867 Y7.9288
G01 X14.3825 Y7.9046
G01 X14.3688 Y7.8121
G01 X14.3658 Y7.7878
G01 X14.3640 Y7.7633
G01 X14.3594 Y7.6699
G01 X14.3588 Y7.6454
G01 X14.3589 Y7.6331
G01 X14.3640 Y7.5275
G01 X14.3658 Y7.5030
G01 X14.3688 Y7.4787
G01 X14.3825 Y7.3862
G01 X14.3867 Y7.3620
G01 X14.3921 Y7.3381
G01 X14.4148 Y7.2474
G01 X14.4213 Y7.2238
G01 X14.4290 Y7.2005
G01 X14.4605 Y7.1125
G01 X14.4694 Y7.0896
G01 X14.4793 Y7.0671
G01 X14.5193 Y6.9826
G01 X14.5303 Y6.9607
G01 X14.5424 Y6.9393
G01 X14.5969 Y6.8487
G01 X14.6105 Y6.8283
G01 X14.6177 Y6.8184
G01 X14.6734 Y6.7433
G01 X14.6885 Y6.7239
G01 X14.7045 Y6.7054
G01 X14.7673 Y6.6361
G01 X14.7842 Y6.6183
G01 X14.8020 Y6.6014
G01 X14.8713 Y6.5386
G01 X14.8898 Y6.5226
G01 X14.9092 Y6.5075
G01 X14.9843 Y6.4518
G01 X15.0043 Y6.4377
G01 X15.0251 Y6.4246
G01 X15.1052 Y6.3765
G01 X15.1266 Y6.3644
G01 X15.1485 Y6.3534
G01 X15.2330 Y6.3134
G01 X15.2554 Y6.3035
G01 X15.2783 Y6.2946
G01 X15.3664 Y6.2631
G01 X15.3897 Y6.2554
G01 X15.4133 Y6.2489
G01 X15.5040 Y6.2262
G01 X15.5279 Y6.2208
G01 X15.5521 Y6.2166
G01 X15.6446 Y6.2029
G01 X15.6689 Y6.1999
G01 X15.6934 Y6.1981
G01 X15.7868 Y6.1935
G01 X15.8113 Y6.1929
G01 X15.8358 Y6.1935
G01 X15.9292 Y6.1981
G01 X15.9537 Y6.1999
G01 X15.9780 Y6.2029
G01 X16.0705 Y6.2166
G01 X16.0947 Y6.2208
G01 X16.1186 Y6.2262
G01 X16.2093 Y6.2489
G01 X16.2329 Y6.2554
G01 X16.2562 Y6.2631
G01 X16.3442 Y6.2946
G01 X16.3671 Y6.3035
G01 X16.3896 Y6.3134
G01 X16.4741 Y6.3534
G01 X16.4960 Y6.3644
G01 X16.5174 Y6.3765
G01 X16.5975 Y6.4246
G01 X16.6183 Y6.4377
G01 X16.6383 Y6.4518
G01 X16.7134 Y6.5075
G01 X16.7328 Y6.5226
G01 X16.7513 Y6.5386
G01 X16.8206 Y6.6014
G01 X16.8384 Y6.6183
G01 X16.8553 Y6.6361
G01 X16.9181 Y6.7054
G01 X16.9341 Y6.7239
G01 X16.9492 Y6.7433
G01 X17.0049 Y6.8184
G01 X17.0190 Y6.8384
G01 X17.0321 Y6.8592
G01 X17.0802 Y6.9393
G01 X17.0923 Y6.9607
G01 X17.1033 Y6.9826
G01 X17.1433 Y7.0671
G01 X17.1484 Y7.0783
G01 X17.1578 Y7.1009
G01 X17.1936 Y7.2005
G01 X17.2013 Y7.2238
G01 X17.2078 Y7.2474
G01 X17.2305 Y7.3381
G01 X17.2359 Y7.3620
G01 X17.2401 Y7.3862
G01 X17.2538 Y7.4787
G01 X17.2568 Y7.5030
G01 X17.2586 Y7.5275
G01 X17.2632 Y7.6209
G01 X17.2638 Y7.6454
G01 X17.2632 Y7.6699
G01 X17.2586 Y7.7633
G01 X17.2568 Y7.7878
G01 X17.2538 Y7.8121
G01 X17.2401 Y7.9046
G01 X17.2359 Y7.9288
G01 X17.2305 Y7.9527
G01 X17.2078 Y8.0434
G01 X17.2013 Y8.0670
G01 X17.1975 Y8.0787
G01 X17.1621 Y8.1783
G01 X17.1532 Y8.2012
G01 X17.1433 Y8.2237
G01 X17.1033 Y8.3082
G01 X17.0923 Y8.3301
G01 X17.0802 Y8.3515
G01 X17.0321 Y8.4316
G01 X17.0190 Y8.4524
G01 X17.0049 Y8.4724
G01 X16.9492 Y8.5475
G01 X16.9341 Y8.5669
G01 X16.9181 Y8.5854
G01 X16.8553 Y8.6547
G01 X16.8384 Y8.6725
G01 X16.8206 Y8.6894
G01 X16.7513 Y8.7522
G01 X16.7328 Y8.7682
G01 X16.7134 Y8.7833
G01 X16.6383 Y8.8390
G01 X16.6183 Y8.8531
G01 X16.6080 Y8.8598
G01 X16.5155 Y8.9154
G01 X16.5975 Y8.9646
G01 X16.6183 Y8.9777
G01 X16.6383 Y8.9918
G01 X16.7134 Y9.0475
G01 X16.7328 Y9.0626
G01 X16.7513 Y9.0786
G01 X16.8206 Y9.1414
G01 X16.8384 Y9.1583
G01 X16.8553 Y9.1761
G01 X16.9181 Y9.2454
G01 X16.9262 Y9.2546
G01 X16.9391 Y9.2702
G01 X17.4282 Y9.2643
G01 X17.4447 Y7.6109
G01 X17.4456 Y7.5864
G01 X17.4485 Y7.5382
G01 X17.4499 Y7.5234
G01 X17.4532 Y7.4978
G01 X17.4608 Y7.4501
G01 X17.4637 Y7.4355
G01 X17.4695 Y7.4104
G01 X17.4784 Y7.3761
G01 X17.4854 Y7.3513
G01 X17.4900 Y7.3371
G01 X17.5065 Y7.2917
G01 X17.5159 Y7.2677
G01 X17.5219 Y7.2540
G01 X17.5427 Y7.2105
G01 X17.5545 Y7.1876
G01 X17.5618 Y7.1745
G01 X17.5936 Y7.1223
G01 X17.6019 Y7.1098
G01 X17.6169 Y7.0889
G01 X17.6382 Y7.0607
G01 X17.6542 Y7.0404
G01 X17.6725 Y7.0195
G01 X17.6964 Y6.9934
G01 X17.7134 Y6.9758
G01 X20.2877 Y4.4272
G01 X20.3348 Y4.3849
G01 X20.3448 Y4.3766
G01 X20.3645 Y4.3613
G01 X20.3956 Y4.3385
G01 X20.4160 Y4.3242
G01 X20.4376 Y4.3107
G01 X20.4708 Y4.2910
G01 X20.4925 Y4.2788
G01 X20.5041 Y4.2728
G01 X20.5616 Y4.2459
G01 X20.5736 Y4.2408
G01 X20.5969 Y4.2320
G01 X20.6333 Y4.2191
G01 X20.6575 Y4.2112
G01 X20.6815 Y4.2047
G01 X20.7312 Y4.1927
G01 X20.7439 Y4.1900
G01 X20.7685 Y4.1859
G01 X20.8067 Y4.1804
G01 X20.8320 Y4.1774
G01 X20.8568 Y4.1757
G01 X20.8954 Y4.1739
G01 X20.9199 Y4.1734
G01 X27.3787 Y4.1964
G01 X27.3885 Y4.1839
G01 X27.4045 Y4.1654
G01 X27.4673 Y4.0961
G01 X27.4842 Y4.0783
G01 X27.5020 Y4.0614
G01 X27.5713 Y3.9986
G01 X27.5898 Y3.9826
G01 X27.6092 Y3.9675
G01 X27.6843 Y3.9118
G01 X27.7043 Y3.8977
G01 X27.7251 Y3.8846
G01 X27.8052 Y3.8365
G01 X27.8266 Y3.8244
G01 X27.8485 Y3.8134
G01 X27.9330 Y3.7734
G01 X27.9554 Y3.7635
G01 X27.9783 Y3.7546
G01 X28.0664 Y3.7231
G01 X28.0897 Y3.7154
G01 X28.1014 Y3.7120
G01 X28.2040 Y3.6862
G01 X28.2279 Y3.6808
G01 X28.2521 Y3.6766
G01 X28.3446 Y3.6629
G01 X28.3689 Y3.6599
G01 X28.3934 Y3.6581
G01 X28.4868 Y3.6535
G01 X28.5113 Y3.6529
G01 X28.5358 Y3.6535
G01 X28.6292 Y3.6581
G01 X28.6537 Y3.6599
G01 X28.6780 Y3.6629
G01 X28.7705 Y3.6766
G01 X28.7947 Y3.6808
G01 X28.8186 Y3.6862
G01 X28.9211 Y3.7120
G01 X28.9329 Y3.7154
G01 X28.9562 Y3.7231
G01 X29.0442 Y3.7546
G01 X29.0671 Y3.7635
G01 X29.0896 Y3.7734
G01 X29.1741 Y3.8134
G01 X29.1960 Y3.8244
G01 X29.2174 Y3.8365
G01 X29.2975 Y3.8846
G01 X29.3183 Y3.8977
G01 X29.3383 Y3.9118
G01 X29.4134 Y3.9675
G01 X29.4328 Y3.9826
G01 X29.4513 Y3.9986
G01 X29.5206 Y4.0614
G01 X29.5384 Y4.0783
G01 X29.5553 Y4.0961
G01 X29.6181 Y4.1654
G01 X29.6262 Y4.1746
G01 X29.6418 Y4.1935
G01 X29.7121 Y4.2883
G01 X29.7190 Y4.2984
G01 X29.7321 Y4.3192
G01 X29.7802 Y4.3993
G01 X29.7923 Y4.4207
G01 X29.8033 Y4.4426
G01 X29.8433 Y4.5271
G01 X29.8532 Y4.5496
G01 X29.8621 Y4.5725
G01 X29.8936 Y4.6605
G01 X29.9013 Y4.6838
G01 X29.9078 Y4.7074
G01 X29.9305 Y4.7981
G01 X29.9359 Y4.8220
G01 X29.9401 Y4.8462
G01 X29.9538 Y4.9387
G01 X29.9568 Y4.9630
G01 X29.9586 Y4.9875
G01 X29.9632 Y5.0809
G01 X29.9638 Y5.1054
G01 X29.9632 Y5.1299
G01 X29.9586 Y5.2233
G01 X29.9568 Y5.2478
G01 X29.9538 Y5.2721
G01 X29.9401 Y5.3646
G01 X29.9359 Y5.3888
G01 X29.9305 Y5.4127
G01 X29.9078 Y5.5034
G01 X29.9013 Y5.5270
G01 X29.8936 Y5.5503
G01 X29.8621 Y5.6383
G01 X29.8532 Y5.6612
G01 X29.8433 Y5.6837
G01 X29.8033 Y5.7682
G01 X29.7923 Y5.7901
G01 X29.7802 Y5.8115
G01 X29.7321 Y5.8916
G01 X29.7190 Y5.9124
G01 X29.7049 Y5.9324
G01 X29.6492 Y6.0075
G01 X29.6341 Y6.0269
G01 X29.6181 Y6.0454
G01 X29.5553 Y6.1147
G01 X29.5384 Y6.1325
G01 X29.5206 Y6.1494
G01 X29.4513 Y6.2122
G01 X29.4328 Y6.2282
G01 X29.4134 Y6.2433
G01 X29.3383 Y6.2990
G01 X29.3183 Y6.3131
G01 X29.2975 Y6.3262
G01 X29.2174 Y6.3743
G01 X29.1960 Y6.3864
G01 X29.1741 Y6.3974
G01 X29.0896 Y6.4374
G01 X29.0671 Y6.4473
G01 X29.0442 Y6.4562
G01 X28.9562 Y6.4877
G01 X28.9329 Y6.4954
G01 X28.9093 Y6.5019
G01 X28.8186 Y6.5246
G01 X28.7947 Y6.5300
G01 X28.7705 Y6.5342
G01 X28.6780 Y6.5479
G01 X28.6537 Y6.5509
G01 X28.6292 Y6.5527
G01 X28.5358 Y6.5573
G01 X28.5113 Y6.5579
G01 X28.4868 Y6.5573
G01 X28.3934 Y6.5527
G01 X28.3689 Y6.5509
G01 X28.3446 Y6.5479
G01 X28.2521 Y6.5342
G01 X28.2279 Y6.5300
G01 X28.2040 Y6.5246
G01 X28.1133 Y6.5019
G01 X28.0897 Y6.4954
G01 X28.0664 Y6.4877
G01 X27.9783 Y6.4562
G01 X27.9555 Y6.4473
G01 X27.9330 Y6.4374
G01 X27.8485 Y6.3974
G01 X27.8266 Y6.3864
G01 X27.8052 Y6.3743
G01 X27.7251 Y6.3262
G01 X27.7043 Y6.3131
G01 X27.6843 Y6.2990
G01 X27.6092 Y6.2433
G01 X27.5898 Y6.2282
G01 X27.5713 Y6.2122
G01 X27.5020 Y6.1494
G01 X27.4842 Y6.1325
G01 X27.4673 Y6.1147
G01 X27.3964 Y6.0362
G01 X27.3885 Y6.0269
G01 X27.3750 Y6.0096
G01 X21.2882 Y5.9879
G01 X20.3698 Y6.8973
G01 X20.4058 Y6.8712
G01 X20.4202 Y6.8614
G01 X20.4431 Y6.8472
G01 X20.4816 Y6.8247
G01 X20.5090 Y6.8103
G01 X20.5494 Y6.7914
G01 X20.5741 Y6.7806
G01 X20.5903 Y6.7742
G01 X20.6451 Y6.7551
G01 X20.6618 Y6.7500
G01 X20.6879 Y6.7430
G01 X20.7312 Y6.7326
G01 X20.7483 Y6.7292
G01 X20.7749 Y6.7248
G01 X20.8191 Y6.7187
G01 X20.8364 Y6.7170
G01 X20.8499 Y6.7159
G01 X20.8944 Y6.7139
G01 X20.9253 Y6.7134
G01 X22.3035 Y6.7302
G01 X22.3164 Y6.7146
G01 X22.3245 Y6.7054
G01 X22.3873 Y6.6361
G01 X22.4042 Y6.6183
G01 X22.4220 Y6.6014
G01 X22.4913 Y6.5386
G01 X22.5098 Y6.5226
G01 X22.5292 Y6.5075
G01 X22.6043 Y6.4518
G01 X22.6243 Y6.4377
G01 X22.6451 Y6.4246
G01 X22.7252 Y6.3765
G01 X22.7466 Y6.3644
G01 X22.7685 Y6.3534
G01 X22.8530 Y6.3134
G01 X22.8754 Y6.3035
G01 X22.8983 Y6.2946
G01 X22.9864 Y6.2631
G01 X23.0097 Y6.2554
G01 X23.0333 Y6.2489
G01 X23.1240 Y6.2262
G01 X23.1479 Y6.2208
G01 X23.1721 Y6.2166
G01 X23.2646 Y6.2029
G01 X23.2767 Y6.2012
G01 X23.3012 Y6.1988
G01 X23.4068 Y6.1935
G01 X23.4313 Y6.1929
G01 X23.4558 Y6.1935
G01 X23.5492 Y6.1981
G01 X23.5737 Y6.1999
G01 X23.5980 Y6.2029
G01 X23.6905 Y6.2166
G01 X23.7147 Y6.2208
G01 X23.7386 Y6.2262
G01 X23.8293 Y6.2489
G01 X23.8529 Y6.2554
G01 X23.8762 Y6.2631
G01 X23.9642 Y6.2946
G01 X23.9871 Y6.3035
G01 X24.0096 Y6.3134
G01 X24.0941 Y6.3534
G01 X24.1160 Y6.3644
G01 X24.1267 Y6.3703
G01 X24.2280 Y6.4310
G01 X24.2383 Y6.4377
G01 X24.2583 Y6.4518
G01 X24.3334 Y6.5075
G01 X24.3528 Y6.5226
G01 X24.3713 Y6.5386
G01 X24.4406 Y6.6014
G01 X24.4584 Y6.6183
G01 X24.4669 Y6.6271
G01 X24.5462 Y6.7146
G01 X24.5618 Y6.7335
G01 X24.5692 Y6.7433
G01 X24.6321 Y6.8283
G01 X24.6390 Y6.8384
G01 X24.6521 Y6.8592
G01 X24.7002 Y6.9393
G01 X24.7123 Y6.9607
G01 X24.7233 Y6.9826
G01 X24.7633 Y7.0671
G01 X24.7732 Y7.0896
G01 X24.7821 Y7.1125
G01 X24.8136 Y7.2005
G01 X24.8213 Y7.2238
G01 X24.8278 Y7.2474
G01 X24.8505 Y7.3381
G01 X24.8559 Y7.3620
G01 X24.8601 Y7.3862
G01 X24.8738 Y7.4787
G01 X24.8768 Y7.5030
G01 X24.8786 Y7.5275
G01 X24.8836 Y7.6331
G01 X24.8836 Y7.6577
G01 X24.8832 Y7.6699
G01 X24.8786 Y7.7633
G01 X24.8768 Y7.7878
G01 X24.8738 Y7.8121
G01 X24.8601 Y7.9046
G01 X24.8559 Y7.9288
G01 X24.8505 Y7.9527
G01 X24.8278 Y8.0434
G01 X24.8213 Y8.0670
G01 X24.8136 Y8.0903
G01 X24.7821 Y8.1783
G01 X24.7732 Y8.2012
G01 X24.7633 Y8.2237
G01 X24.7233 Y8.3082
G01 X24.7123 Y8.3301
G01 X24.7002 Y8.3515
G01 X24.6521 Y8.4316
G01 X24.6457 Y8.4421
G01 X24.6321 Y8.4625
G01 X24.5692 Y8.5475
G01 X24.5541 Y8.5669
G01 X24.5381 Y8.5854
G01 X24.4669 Y8.6637
G01 X24.4584 Y8.6725
G01 X24.4406 Y8.6894
G01 X24.3713 Y8.7522
G01 X24.3528 Y8.7682
G01 X24.3334 Y8.7833
G01 X24.2583 Y8.8390
G01 X24.2383 Y8.8531
G01 X24.2175 Y8.8662
G01 X24.1355 Y8.9154
G01 X24.2175 Y8.9646
G01 X24.2383 Y8.9777
G01 X24.2583 Y8.9918
G01 X24.3334 Y9.0475
G01 X24.3528 Y9.0626
G01 X24.3621 Y9.0705
G01 X24.4406 Y9.1414
G01 X24.4584 Y9.1583
G01 X24.4753 Y9.1761
G01 X24.5381 Y9.2454
G01 X24.5541 Y9.2639
G01 X24.5647 Y9.2773
G01 X35.7576 Y9.2542
G01 X37.7855 Y7.2464
G01 X37.7733 Y6.2463
G01 X37.7594 Y6.2359
G01 X37.7405 Y6.2203
G01 X37.6620 Y6.1494
G01 X37.6442 Y6.1325
G01 X37.6273 Y6.1147
G01 X37.5645 Y6.0454
G01 X37.5485 Y6.0269
G01 X37.5334 Y6.0075
G01 X37.4777 Y5.9324
G01 X37.4636 Y5.9124
G01 X37.4505 Y5.8916
G01 X37.4024 Y5.8115
G01 X37.3903 Y5.7901
G01 X37.3793 Y5.7682
G01 X37.3393 Y5.6837
G01 X37.3294 Y5.6612
G01 X37.3205 Y5.6383
G01 X37.2890 Y5.5503
G01 X37.2813 Y5.5270
G01 X37.2748 Y5.5034
G01 X37.2521 Y5.4127
G01 X37.2467 Y5.3888
G01 X37.2425 Y5.3646
G01 X37.2288 Y5.2721
G01 X37.2271 Y5.2600
G01 X37.2247 Y5.2355
G01 X37.2194 Y5.1299
G01 X37.2188 Y5.1054
G01 X37.2194 Y5.0809
G01 X37.2240 Y4.9875
G01 X37.2258 Y4.9630
G01 X37.2288 Y4.9387
G01 X37.2425 Y4.8462
G01 X37.2467 Y4.8220
G01 X37.2521 Y4.7981
G01 X37.2748 Y4.7074
G01 X37.2813 Y4.6838
G01 X37.2890 Y4.6605
G01 X37.3205 Y4.5725
G01 X37.3294 Y4.5496
G01 X37.3393 Y4.5271
G01 X37.3793 Y4.4426
G01 X37.3903 Y4.4207
G01 X37.4024 Y4.3993
G01 X37.4505 Y4.3192
G01 X37.4636 Y4.2984
G01 X37.4777 Y4.2784
G01 X37.5408 Y4.1935
G01 X37.5485 Y4.1839
G01 X37.5645 Y4.1654
G01 X37.6273 Y4.0961
G01 X37.6442 Y4.0783
G01 X37.6620 Y4.0614
G01 X37.7313 Y3.9986
G01 X37.7498 Y3.9826
G01 X37.7692 Y3.9675
G01 X37.8443 Y3.9118
G01 X37.8643 Y3.8977
G01 X37.8851 Y3.8846
G01 X37.9652 Y3.8365
G01 X37.9866 Y3.8244
G01 X38.0085 Y3.8134
G01 X38.0930 Y3.7734
G01 X38.1154 Y3.7635
G01 X38.1383 Y3.7546
G01 X38.2264 Y3.7231
G01 X38.2497 Y3.7154
G01 X38.2733 Y3.7089
G01 X38.3640 Y3.6862
G01 X38.3879 Y3.6808
G01 X38.4121 Y3.6766
G01 X38.5046 Y3.6629
G01 X38.5289 Y3.6599
G01 X38.5534 Y3.6581
G01 X38.6590 Y3.6531
G01 X38.6713 Y3.6529
G01 X38.6958 Y3.6535
G01 X38.7892 Y3.6581
G01 X38.8137 Y3.6599
G01 X38.8380 Y3.6629
G01 X38.9305 Y3.6766
G01 X38.9547 Y3.6808
G01 X38.9667 Y3.6834
G01 X39.0811 Y3.7120
G01 X39.0929 Y3.7154
G01 X39.1162 Y3.7231
G01 X39.2157 Y3.7589
G01 X39.2271 Y3.7635
G01 X39.2496 Y3.7734
G01 X39.3341 Y3.8134
G01 X39.3560 Y3.8244
G01 X39.3774 Y3.8365
G01 X39.4575 Y3.8846
G01 X39.4783 Y3.8977
G01 X39.4983 Y3.9118
G01 X39.5734 Y3.9675
G01 X39.5928 Y3.9826
G01 X39.6113 Y3.9986
G01 X39.6806 Y4.0614
G01 X39.6984 Y4.0783
G01 X39.7069 Y4.0871
G01 X39.7781 Y4.1654
G01 X39.7941 Y4.1839
G01 X39.8092 Y4.2033
G01 X39.8649 Y4.2784
G01 X39.8790 Y4.2984
G01 X39.8921 Y4.3192
G01 X39.9402 Y4.3993
G01 X39.9523 Y4.4207
G01 X39.9633 Y4.4426
G01 X40.0033 Y4.5271
G01 X40.0132 Y4.5496
G01 X40.0178 Y4.5609
G01 X40.0536 Y4.6605
G01 X40.0613 Y4.6838
G01 X40.0678 Y4.7074
G01 X40.0905 Y4.7981
G01 X40.0933 Y4.8100
G01 X40.0981 Y4.8341
G01 X40.1138 Y4.9387
G01 X40.1154 Y4.9508
G01 X40.1179 Y4.9753
G01 X40.1236 Y5.0931
G01 X40.1238 Y5.1054
G01 X40.1232 Y5.1299
G01 X40.1186 Y5.2233
G01 X40.1179 Y5.2355
G01 X40.1154 Y5.2600
G01 X40.0981 Y5.3767
G01 X40.0933 Y5.4008
G01 X40.0905 Y5.4127
G01 X40.0678 Y5.5034
G01 X40.0613 Y5.5270
G01 X40.0536 Y5.5503
G01 X40.0221 Y5.6383
G01 X40.0178 Y5.6499
G01 X40.0084 Y5.6725
G01 X39.9633 Y5.7682
G01 X39.9523 Y5.7901
G01 X39.9402 Y5.8115
G01 X39.8921 Y5.8916
G01 X39.8790 Y5.9124
G01 X39.8649 Y5.9324
G01 X39.8092 Y6.0075
G01 X39.7941 Y6.0269
G01 X39.7781 Y6.0454
G01 X39.7153 Y6.1147
G01 X39.6984 Y6.1325
G01 X39.6806 Y6.1494
G01 X39.6113 Y6.2122
G01 X39.6021 Y6.2203
G01 X39.5865 Y6.2332
G01 X39.6032 Y7.6089
G01 X39.6031 Y7.6368
G01 X39.6007 Y7.6878
G01 X39.5973 Y7.7234
G01 X39.5897 Y7.7760
G01 X39.5829 Y7.8112
G01 X39.5701 Y7.8628
G01 X39.5599 Y7.8971
G01 X39.5421 Y7.9473
G01 X39.5285 Y7.9804
G01 X39.5060 Y8.0286
G01 X39.4961 Y8.0476
G01 X39.4892 Y8.0602
G01 X39.4695 Y8.0936
G01 X39.4620 Y8.1059
G01 X39.4504 Y8.1239
G01 X39.4422 Y8.1358
G01 X39.4193 Y8.1670
G01 X39.4107 Y8.1786
G01 X39.3974 Y8.1953
G01 X39.3881 Y8.2064
G01 X39.3622 Y8.2352
G01 X39.3525 Y8.2459
G01 X39.3376 Y8.2612
G01 X36.7692 Y10.8042
G01 X36.7603 Y10.8128
G01 X36.7264 Y10.8436
G01 X36.7065 Y10.8607
G01 X36.6835 Y10.8787
G01 X36.6459 Y10.9063
G01 X36.6216 Y10.9225
G01 X36.5816 Y10.9465
G01 X36.5562 Y10.9608
G01 X36.5327 Y10.9726
G01 X36.4904 Y10.9924
G01 X36.4757 Y10.9986
G01 X36.4635 Y11.0035
G01 X36.4196 Y11.0193
G01 X36.3946 Y11.0275
G01 X36.3792 Y11.0320
G01 X36.3211 Y11.0464
G01 X36.3055 Y11.0497
G01 X36.2795 Y11.0541
G01 X36.2333 Y11.0608
G01 X36.2203 Y11.0622
G01 X36.1912 Y11.0643
G01 X36.1454 Y11.0664
G01 X36.1332 Y11.0666
G01 X24.5669 Y11.0905
G01 X24.5541 Y11.1069
G01 X24.5381 Y11.1254
G01 X24.4753 Y11.1947
G01 X24.4584 Y11.2125
G01 X24.4406 Y11.2294
G01 X24.3621 Y11.3003
G01 X24.3432 Y11.3159
G01 X24.3334 Y11.3233
G01 X24.2583 Y11.3790
G01 X24.2383 Y11.3931
G01 X24.2175 Y11.4062
G01 X24.1355 Y11.4554
G01 X24.2175 Y11.5046
G01 X24.2383 Y11.5177
G01 X24.2583 Y11.5318
G01 X24.3334 Y11.5875
G01 X24.3528 Y11.6026
G01 X24.3621 Y11.6105
G01 X24.4406 Y11.6814
G01 X24.4584 Y11.6983
G01 X24.4753 Y11.7161
G01 X24.5381 Y11.7854
G01 X24.5541 Y11.8039
G01 X24.5658 Y11.8188
G01 X25.9459 Y11.8188
G01 X25.9704 Y11.8194
G01 X26.0103 Y11.8214
G01 X26.0225 Y11.8221
G01 X26.0470 Y11.8245
G01 X26.1107 Y11.8340
G01 X26.1348 Y11.8388
G01 X26.1973 Y11.8544
G01 X26.2091 Y11.8578
G01 X26.2324 Y11.8655
G01 X26.2699 Y11.8790
G01 X26.2928 Y11.8878
G01 X26.3153 Y11.8978
G01 X26.3513 Y11.9148
G01 X26.3733 Y11.9258
G01 X26.3946 Y11.9379
G01 X26.4393 Y11.9649
G01 X26.4496 Y11.9716
G01 X26.4696 Y11.9857
G01 X26.5017 Y12.0095
G01 X26.5210 Y12.0246
G01 X26.5396 Y12.0406
G01 X26.5782 Y12.0758
G01 X28.3280 Y13.8254
G01 X28.3567 Y13.8212
G01 X28.3812 Y13.8188
G01 X28.4868 Y13.8135
G01 X28.5113 Y13.8129
G01 X28.5358 Y13.8135
G01 X28.6292 Y13.8181
G01 X28.6414 Y13.8188
G01 X28.6659 Y13.8212
G01 X28.7705 Y13.8366
G01 X28.7947 Y13.8408
G01 X28.8186 Y13.8462
G01 X28.9093 Y13.8689
G01 X28.9329 Y13.8754
G01 X28.9562 Y13.8831
G01 X29.0442 Y13.9146
G01 X29.0671 Y13.9235
G01 X29.0896 Y13.9334
G01 X29.1741 Y13.9734
G01 X29.1960 Y13.9844
G01 X29.2174 Y13.9965
G01 X29.2975 Y14.0446
G01 X29.3183 Y14.0577
G01 X29.3383 Y14.0718
G01 X29.4134 Y14.1275
G01 X29.4328 Y14.1426
G01 X29.4513 Y14.1586
G01 X29.5206 Y14.2214
G01 X29.5384 Y14.2383
G01 X29.5553 Y14.2561
G01 X29.6181 Y14.3254
G01 X29.6341 Y14.3439
G01 X29.6458 Y14.3588
G01 X32.4568 Y14.3588
G01 X32.4685 Y14.3439
G01 X32.4845 Y14.3254
G01 X32.5473 Y14.2561
G01 X32.5642 Y14.2383
G01 X32.5820 Y14.2214
G01 X32.6513 Y14.1586
G01 X32.6698 Y14.1426
G01 X32.6892 Y14.1275
G01 X32.7643 Y14.0718
G01 X32.7843 Y14.0577
G01 X32.8051 Y14.0446
G01 X32.8852 Y13.9965
G01 X32.9066 Y13.9844
G01 X32.9175 Y13.9788
G01 X33.0130 Y13.9334
G01 X33.0242 Y13.9283
G01 X33.0468 Y13.9189
G01 X33.1580 Y13.8792
G01 X33.1814 Y13.8720
G01 X33.1933 Y13.8689
G01 X33.2959 Y13.8434
G01 X33.3200 Y13.8386
G01 X33.3321 Y13.8366
G01 X33.4246 Y13.8229
G01 X33.4489 Y13.8199
G01 X33.4734 Y13.8181
G01 X33.5668 Y13.8135
G01 X33.5913 Y13.8129
G01 X33.6036 Y13.8131
G01 X33.7092 Y13.8181
G01 X33.7337 Y13.8199
G01 X33.7580 Y13.8229
G01 X33.8505 Y13.8366
G01 X33.8626 Y13.8386
G01 X33.8867 Y13.8434
G01 X34.0011 Y13.8720
G01 X34.0129 Y13.8754
G01 X34.0362 Y13.8831
G01 X34.1242 Y13.9146
G01 X34.1471 Y13.9235
G01 X34.1696 Y13.9334
G01 X34.2541 Y13.9734
G01 X34.2760 Y13.9844
G01 X34.2974 Y13.9965
G01 X34.3775 Y14.0446
G01 X34.3983 Y14.0577
G01 X34.4183 Y14.0718
G01 X34.4934 Y14.1275
G01 X34.5128 Y14.1426
G01 X34.5313 Y14.1586
G01 X34.6006 Y14.2214
G01 X34.6184 Y14.2383
G01 X34.6353 Y14.2561
G01 X34.6981 Y14.3254
G01 X34.7141 Y14.3439
G01 X34.7292 Y14.3633
G01 X34.7849 Y14.4384
G01 X34.7990 Y14.4584
G01 X34.8121 Y14.4792
G01 X34.8602 Y14.5593
G01 X34.8723 Y14.5807
G01 X34.8833 Y14.6026
G01 X34.9233 Y14.6871
G01 X34.9332 Y14.7096
G01 X34.9421 Y14.7325
G01 X34.9736 Y14.8205
G01 X34.9813 Y14.8438
G01 X34.9878 Y14.8674
G01 X35.0105 Y14.9581
G01 X35.0159 Y14.9820
G01 X35.0201 Y15.0062
G01 X35.0338 Y15.0987
G01 X35.0368 Y15.1230
G01 X35.0386 Y15.1475
G01 X35.0432 Y15.2409
G01 X35.0438 Y15.2654
G01 X35.0432 Y15.2899
G01 X35.0386 Y15.3833
G01 X35.0368 Y15.4078
G01 X35.0339 Y15.4315
G01 X36.7591 Y17.1768
G01 X36.7993 Y17.2214
G01 X36.8091 Y17.2332
G01 X36.8250 Y17.2537
G01 X36.8532 Y17.2922
G01 X36.8618 Y17.3048
G01 X36.8756 Y17.3268
G01 X36.8934 Y17.3567
G01 X36.9061 Y17.3793
G01 X36.9131 Y17.3929
G01 X36.9389 Y17.4478
G01 X36.9497 Y17.4740
G01 X36.9700 Y17.5312
G01 X36.9781 Y17.5583
G01 X36.9897 Y17.6046
G01 X36.9958 Y17.6322
G01 X37.0001 Y17.6578
G01 X37.0069 Y17.7050
G01 X37.0085 Y17.7203
G01 X37.0103 Y17.7462
G01 X37.0119 Y17.7809
G01 X37.0125 Y17.8054
G01 X37.0125 Y21.9826
G01 X37.3750 Y21.9741
G01 X37.3787 Y21.9491
G01 X37.3809 Y21.9371
G01 X37.3863 Y21.9131
G01 X37.3928 Y21.8895
G01 X37.3965 Y21.8778
G01 X37.4005 Y21.8662
G01 X37.4094 Y21.8433
G01 X37.4142 Y21.8320
G01 X37.4247 Y21.8098
G01 X37.4363 Y21.7882
G01 X37.4489 Y21.7671
G01 X37.4556 Y21.7568
G01 X37.4625 Y21.7467
G01 X37.4771 Y21.7270
G01 X37.4848 Y21.7174
G01 X37.5008 Y21.6988
G01 X37.5092 Y21.6898
G01 X37.5265 Y21.6725
G01 X37.5355 Y21.6641
G01 X37.5541 Y21.6481
G01 X37.5735 Y21.6330
G01 X37.5935 Y21.6189
G01 X37.6143 Y21.6057
G01 X37.6249 Y21.5996
G01 X37.6356 Y21.5936
G01 X37.6575 Y21.5826
G01 X37.6800 Y21.5727
G01 X37.6914 Y21.5681
G01 X37.7145 Y21.5598
G01 X37.7262 Y21.5561
G01 X37.7498 Y21.5496
G01 X37.7618 Y21.5468
G01 X37.7858 Y21.5420
G01 X37.7979 Y21.5400
G01 X37.8223 Y21.5370
G01 X37.8345 Y21.5360
G01 X37.8468 Y21.5352
G01 X37.8713 Y21.5346
G01 X38.1474 Y21.5346
G01 X38.0804 Y21.5029
G01 X38.0585 Y21.4919
G01 X38.0371 Y21.4798
G01 X37.9698 Y21.4394
G01 X37.9491 Y21.4263
G01 X37.9290 Y21.4122
G01 X37.8659 Y21.3654
G01 X37.8466 Y21.3503
G01 X37.8280 Y21.3343
G01 X37.7698 Y21.2816
G01 X37.7521 Y21.2646
G01 X37.7351 Y21.2469
G01 X37.6824 Y21.1887
G01 X37.6664 Y21.1701
G01 X37.6513 Y21.1508
G01 X37.6045 Y21.0877
G01 X37.5904 Y21.0676
G01 X37.5773 Y21.0469
G01 X37.5369 Y20.9796
G01 X37.5248 Y20.9582
G01 X37.5138 Y20.9363
G01 X37.4802 Y20.8653
G01 X37.4703 Y20.8429
G01 X37.4657 Y20.8315
G01 X37.4350 Y20.7461
G01 X37.4273 Y20.7228
G01 X37.4207 Y20.6991
G01 X37.4017 Y20.6230
G01 X37.3988 Y20.6110
G01 X37.3940 Y20.5870
G01 X37.3789 Y20.4850
G01 X37.3765 Y20.4606
G01 X37.3758 Y20.4483
G01 X37.3719 Y20.3699
G01 X37.3713 Y20.3454
G01 X37.3719 Y20.3209
G01 X37.3758 Y20.2425
G01 X37.3776 Y20.2180
G01 X37.3789 Y20.2058
G01 X37.3940 Y20.1038
G01 X37.3988 Y20.0798
G01 X37.4017 Y20.0678
G01 X37.4207 Y19.9917
G01 X37.4273 Y19.9680
G01 X37.4350 Y19.9447
G01 X37.4614 Y19.8708
G01 X37.4703 Y19.8479
G01 X37.4802 Y19.8255
G01 X37.5138 Y19.7545
G01 X37.5248 Y19.7326
G01 X37.5369 Y19.7112
G01 X37.5773 Y19.6439
G01 X37.5904 Y19.6232
G01 X37.6045 Y19.6031
G01 X37.6513 Y19.5400
G01 X37.6664 Y19.5207
G01 X37.6824 Y19.5021
G01 X37.7351 Y19.4439
G01 X37.7521 Y19.4262
G01 X37.7647 Y19.4140
G01 X37.7647 Y16.3999
G01 X37.7405 Y16.3803
G01 X37.6620 Y16.3094
G01 X37.6442 Y16.2925
G01 X37.6273 Y16.2747
G01 X37.5645 Y16.2054
G01 X37.5485 Y16.1869
G01 X37.5334 Y16.1675
G01 X37.4777 Y16.0924
G01 X37.4636 Y16.0724
G01 X37.4505 Y16.0516
G01 X37.4024 Y15.9715
G01 X37.3903 Y15.9501
G01 X37.3793 Y15.9282
G01 X37.3393 Y15.8437
G01 X37.3294 Y15.8212
G01 X37.3248 Y15.8099
G01 X37.2890 Y15.7103
G01 X37.2813 Y15.6870
G01 X37.2748 Y15.6634
G01 X37.2521 Y15.5727
G01 X37.2467 Y15.5488
G01 X37.2425 Y15.5246
G01 X37.2288 Y15.4321
G01 X37.2258 Y15.4078
G01 X37.2240 Y15.3833
G01 X37.2194 Y15.2899
G01 X37.2188 Y15.2654
G01 X37.2194 Y15.2409
G01 X37.2240 Y15.1475
G01 X37.2258 Y15.1230
G01 X37.2288 Y15.0987
G01 X37.2425 Y15.0062
G01 X37.2445 Y14.9941
G01 X37.2493 Y14.9700
G01 X37.2748 Y14.8674
G01 X37.2813 Y14.8438
G01 X37.2890 Y14.8205
G01 X37.3248 Y14.7209
G01 X37.3342 Y14.6983
G01 X37.3393 Y14.6871
G01 X37.3793 Y14.6026
G01 X37.3903 Y14.5807
G01 X37.4024 Y14.5593
G01 X37.4505 Y14.4792
G01 X37.4636 Y14.4584
G01 X37.4777 Y14.4384
G01 X37.5408 Y14.3535
G01 X37.5485 Y14.3439
G01 X37.5645 Y14.3254
G01 X37.6273 Y14.2561
G01 X37.6442 Y14.2383
G01 X37.6620 Y14.2214
G01 X37.7313 Y14.1586
G01 X37.7498 Y14.1426
G01 X37.7692 Y14.1275
G01 X37.8443 Y14.0718
G01 X37.8643 Y14.0577
G01 X37.8851 Y14.0446
G01 X37.9652 Y13.9965
G01 X37.9866 Y13.9844
G01 X38.0085 Y13.9734
G01 X38.0930 Y13.9334
G01 X38.1154 Y13.9235
G01 X38.1383 Y13.9146
G01 X38.2264 Y13.8831
G01 X38.2497 Y13.8754
G01 X38.2733 Y13.8689
G01 X38.3759 Y13.8434
G01 X38.3879 Y13.8408
G01 X38.4121 Y13.8366
G01 X38.5046 Y13.8229
G01 X38.5289 Y13.8199
G01 X38.5534 Y13.8181
G01 X38.6468 Y13.8135
G01 X38.6713 Y13.8129
G01 X38.6958 Y13.8135
G01 X38.7892 Y13.8181
G01 X38.8137 Y13.8199
G01 X38.8380 Y13.8229
G01 X38.9305 Y13.8366
G01 X38.9547 Y13.8408
G01 X38.9786 Y13.8462
G01 X39.0693 Y13.8689
G01 X39.0929 Y13.8754
G01 X39.1162 Y13.8831
G01 X39.2042 Y13.9146
G01 X39.2271 Y13.9235
G01 X39.2496 Y13.9334
G01 X39.3341 Y13.9734
G01 X39.3560 Y13.9844
G01 X39.3774 Y13.9965
G01 X39.4575 Y14.0446
G01 X39.4783 Y14.0577
G01 X39.4983 Y14.0718
G01 X39.5734 Y14.1275
G01 X39.5928 Y14.1426
G01 X39.6113 Y14.1586
G01 X39.6806 Y14.2214
G01 X39.6984 Y14.2383
G01 X39.7153 Y14.2561
G01 X39.7781 Y14.3254
G01 X39.7941 Y14.3439
G01 X39.8092 Y14.3633
G01 X39.8649 Y14.4384
G01 X39.8790 Y14.4584
G01 X39.8921 Y14.4792
G01 X39.9464 Y14.5699
G01 X39.9579 Y14.5916
G01 X39.9633 Y14.6026
G01 X40.0033 Y14.6871
G01 X40.0132 Y14.7096
G01 X40.0221 Y14.7325
G01 X40.0536 Y14.8205
G01 X40.0613 Y14.8438
G01 X40.0678 Y14.8674
G01 X40.0905 Y14.9581
G01 X40.0959 Y14.9820
G01 X40.1001 Y15.0062
G01 X40.1138 Y15.0987
G01 X40.1168 Y15.1230
G01 X40.1186 Y15.1475
G01 X40.1232 Y15.2409
G01 X40.1238 Y15.2654
G01 X40.1232 Y15.2899
G01 X40.1179 Y15.3955
G01 X40.1154 Y15.4200
G01 X40.1138 Y15.4321
G01 X40.1001 Y15.5246
G01 X40.0959 Y15.5488
G01 X40.0905 Y15.5727
G01 X40.0678 Y15.6634
G01 X40.0613 Y15.6870
G01 X40.0536 Y15.7103
G01 X40.0221 Y15.7983
G01 X40.0132 Y15.8212
G01 X40.0033 Y15.8437
G01 X39.9633 Y15.9282
G01 X39.9523 Y15.9501
G01 X39.9402 Y15.9715
G01 X39.8921 Y16.0516
G01 X39.8790 Y16.0724
G01 X39.8649 Y16.0924
G01 X39.8092 Y16.1675
G01 X39.7941 Y16.1869
G01 X39.7781 Y16.2054
G01 X39.7153 Y16.2747
G01 X39.6984 Y16.2925
G01 X39.6806 Y16.3094
G01 X39.6113 Y16.3722
G01 X39.5928 Y16.3882
G01 X39.5779 Y16.3999
G01 X39.5779 Y19.4140
G01 X39.5967 Y19.4325
G01 X41.1750 Y19.4135
G01 X41.1967 Y19.4135
G01 X41.2531 Y19.4159
G01 X41.2718 Y19.4175
G01 X41.2991 Y19.4208
G01 X41.3414 Y19.4269
G01 X41.3733 Y19.4330
G01 X41.4149 Y19.4431
G01 X41.4415 Y19.4502
G01 X41.4593 Y19.4557
G01 X41.5127 Y19.4744
G01 X41.5301 Y19.4813
G01 X41.5553 Y19.4924
G01 X41.5940 Y19.5105
G01 X41.6227 Y19.5256
G01 X41.6714 Y19.5544
G01 X41.6871 Y19.5645
G01 X41.6985 Y19.5723
G01 X41.7330 Y19.5974
G01 X41.7549 Y19.6142
G01 X41.7693 Y19.6261
G01 X41.8012 Y19.6546
G01 X41.8213 Y19.6734
G01 X41.8345 Y19.6866
G01 X41.8727 Y19.7283
G01 X41.8848 Y19.7425
G01 X41.8934 Y19.7533
G01 X41.9192 Y19.7874
G01 X41.9353 Y19.8098
G01 X41.9456 Y19.8253
G01 X41.9679 Y19.8618
G01 X41.9817 Y19.8857
G01 X41.9904 Y19.9022
G01 X42.0090 Y19.9407
G01 X42.0204 Y19.9658
G01 X42.0275 Y19.9830
G01 X42.0469 Y20.0362
G01 X42.0565 Y20.0672
G01 X42.0705 Y20.1219
G01 X42.0745 Y20.1402
G01 X42.0793 Y20.1673
G01 X42.0857 Y20.2096
G01 X42.0878 Y20.2281
G01 X42.0899 Y20.2556
G01 X42.0922 Y20.2983
G01 X42.0925 Y20.3200
G01 X42.0925 Y30.4800
G01 X42.0919 Y30.5045
G01 X42.0903 Y30.5387
G01 X42.0883 Y30.5673
G01 X42.0869 Y30.5803
G01 X42.0802 Y30.6271
G01 X42.0754 Y30.6553
G01 X42.0727 Y30.6681
G01 X42.0615 Y30.7140
G01 X42.0539 Y30.7417
G01 X42.0500 Y30.7541
G01 X42.0343 Y30.7987
G01 X42.0241 Y30.8255
G01 X42.0190 Y30.8375
G01 X41.9990 Y30.8803
G01 X41.9874 Y30.9037
G01 X41.9734 Y30.9287
G01 X41.9491 Y30.9693
G01 X41.9420 Y30.9802
G01 X41.9256 Y31.0037
G01 X41.8974 Y31.0417
G01 X41.8893 Y31.0519
G01 X41.8707 Y31.0737
G01 X41.8395 Y31.1082
G01 X40.3752 Y32.5912
G01 X40.3967 Y32.6772
G01 X40.4021 Y32.7011
G01 X40.4063 Y32.7253
G01 X40.4245 Y32.8481
G01 X40.4275 Y32.8724
G01 X40.4286 Y32.8847
G01 X40.4354 Y33.0209
G01 X40.4360 Y33.0454
G01 X40.4354 Y33.0699
G01 X40.4293 Y33.1939
G01 X40.4275 Y33.2184
G01 X40.4245 Y33.2427
G01 X40.4043 Y33.3776
G01 X40.4021 Y33.3897
G01 X40.3967 Y33.4136
G01 X40.3666 Y33.5340
G01 X40.3600 Y33.5577
G01 X40.3523 Y33.5810
G01 X40.3105 Y33.6978
G01 X40.3017 Y33.7207
G01 X40.2917 Y33.7432
G01 X40.2387 Y33.8554
G01 X40.2276 Y33.8773
G01 X40.2155 Y33.8986
G01 X40.1517 Y34.0051
G01 X40.1386 Y34.0258
G01 X40.1245 Y34.0459
G01 X40.0505 Y34.1456
G01 X40.0354 Y34.1649
G01 X40.0194 Y34.1835
G01 X39.9361 Y34.2755
G01 X39.9191 Y34.2932
G01 X39.9014 Y34.3102
G01 X39.8094 Y34.3935
G01 X39.7908 Y34.4095
G01 X39.7715 Y34.4246
G01 X39.6718 Y34.4986
G01 X39.6618 Y34.5058
G01 X39.6414 Y34.5194
G01 X39.5245 Y34.5896
G01 X39.5032 Y34.6017
G01 X39.4813 Y34.6128
G01 X39.3691 Y34.6658
G01 X39.3466 Y34.6758
G01 X39.3237 Y34.6846
G01 X39.2069 Y34.7264
G01 X39.1836 Y34.7341
G01 X39.1599 Y34.7407
G01 X39.0395 Y34.7708
G01 X39.0156 Y34.7762
G01 X38.9914 Y34.7804
G01 X38.8686 Y34.7986
G01 X38.8443 Y34.8016
G01 X38.8198 Y34.8034
G01 X38.6836 Y34.8100
G01 X38.6590 Y34.8100
G01 X38.6468 Y34.8095
G01 X38.5228 Y34.8034
G01 X38.4983 Y34.8016
G01 X38.4740 Y34.7986
G01 X38.3512 Y34.7804
G01 X38.3270 Y34.7762
G01 X38.3031 Y34.7708
G01 X38.1827 Y34.7407
G01 X38.1590 Y34.7341
G01 X38.1357 Y34.7264
G01 X38.0074 Y34.6803
G01 X37.9847 Y34.6709
G01 X37.9735 Y34.6658
G01 X37.8613 Y34.6128
G01 X37.8394 Y34.6017
G01 X37.8181 Y34.5896
G01 X37.7116 Y34.5258
G01 X37.6909 Y34.5127
G01 X37.6708 Y34.4986
G01 X37.5711 Y34.4246
G01 X37.5518 Y34.4095
G01 X37.5424 Y34.4016
G01 X37.4412 Y34.3102
G01 X37.4235 Y34.2932
G01 X37.4065 Y34.2755
G01 X37.3151 Y34.1743
G01 X37.3072 Y34.1649
G01 X37.2921 Y34.1456
G01 X37.2109 Y34.0359
G01 X37.1973 Y34.0155
G01 X37.1591 Y33.9520
G01 X31.9436 Y33.9520
G01 X31.9458 Y34.1329
G01 X32.0161 Y34.1331
G01 X32.0406 Y34.1343
G01 X32.0528 Y34.1353
G01 X32.0772 Y34.1383
G01 X32.1013 Y34.1425
G01 X32.1253 Y34.1479
G01 X32.1489 Y34.1544
G01 X32.1722 Y34.1621
G01 X32.1951 Y34.1710
G01 X32.2176 Y34.1809
G01 X32.2395 Y34.1919
G01 X32.2608 Y34.2040
G01 X32.2816 Y34.2172
G01 X32.3016 Y34.2313
G01 X32.3210 Y34.2464
G01 X32.3396 Y34.2624
G01 X32.3573 Y34.2794
G01 X32.3743 Y34.2971
G01 X32.3903 Y34.3157
G01 X32.4054 Y34.3351
G01 X32.4195 Y34.3551
G01 X32.4327 Y34.3759
G01 X32.4448 Y34.3972
G01 X32.4558 Y34.4191
G01 X32.4657 Y34.4416
G01 X32.4746 Y34.4645
G01 X32.4823 Y34.4878
G01 X32.4857 Y34.4995
G01 X32.4916 Y34.5234
G01 X32.4964 Y34.5474
G01 X32.5000 Y34.5717
G01 X32.5024 Y34.5961
G01 X32.5036 Y34.6206
G01 X32.5038 Y34.6329
G01 X32.5038 Y36.5379
G01 X32.5032 Y36.5624
G01 X32.5014 Y36.5869
G01 X32.5000 Y36.5991
G01 X32.4964 Y36.6234
G01 X32.4916 Y36.6474
G01 X32.4857 Y36.6713
G01 X32.4823 Y36.6830
G01 X32.4746 Y36.7063
G01 X32.4657 Y36.7292
G01 X32.4609 Y36.7405
G01 X32.4504 Y36.7627
G01 X32.4388 Y36.7843
G01 X32.4262 Y36.8054
G01 X32.4126 Y36.8258
G01 X32.3980 Y36.8455
G01 X32.3824 Y36.8645
G01 X32.3743 Y36.8737
G01 X32.3573 Y36.8915
G01 X32.3396 Y36.9084
G01 X32.3210 Y36.9244
G01 X32.3016 Y36.9395
G01 X32.2816 Y36.9536
G01 X32.2713 Y36.9603
G01 X32.2502 Y36.9729
G01 X32.2286 Y36.9845
G01 X32.2064 Y36.9950
G01 X32.1837 Y37.0044
G01 X32.1722 Y37.0087
G01 X32.1489 Y37.0164
G01 X32.1253 Y37.0229
G01 X32.1013 Y37.0283
G01 X32.0772 Y37.0325
G01 X32.0528 Y37.0355
G01 X32.0283 Y37.0373
G01 X32.0125 Y37.0378
G01 X32.0696 Y37.0898
G01 X32.0869 Y37.1071
G01 X32.1581 Y37.1854
G01 X32.1741 Y37.2039
G01 X32.1858 Y37.2188
G01 X37.1591 Y37.2188
G01 X37.1973 Y37.1553
G01 X37.2109 Y37.1349
G01 X37.2921 Y37.0252
G01 X37.2995 Y37.0155
G01 X37.3151 Y36.9965
G01 X37.4065 Y36.8953
G01 X37.4235 Y36.8776
G01 X37.4412 Y36.8606
G01 X37.5424 Y36.7692
G01 X37.5518 Y36.7613
G01 X37.5711 Y36.7462
G01 X37.6708 Y36.6722
G01 X37.6909 Y36.6581
G01 X37.7116 Y36.6450
G01 X37.8181 Y36.5812
G01 X37.8394 Y36.5691
G01 X37.8613 Y36.5580
G01 X37.9735 Y36.5050
G01 X37.9847 Y36.4999
G01 X38.0074 Y36.4905
G01 X38.1357 Y36.4444
G01 X38.1590 Y36.4367
G01 X38.1827 Y36.4301
G01 X38.3031 Y36.4000
G01 X38.3150 Y36.3971
G01 X38.3391 Y36.3924
G01 X38.4740 Y36.3722
G01 X38.4983 Y36.3692
G01 X38.5228 Y36.3674
G01 X38.6468 Y36.3613
G01 X38.6713 Y36.3607
G01 X38.6958 Y36.3613
G01 X38.8198 Y36.3674
G01 X38.8443 Y36.3692
G01 X38.8686 Y36.3722
G01 X38.9914 Y36.3904
G01 X39.0156 Y36.3946
G01 X39.0395 Y36.4000
G01 X39.1718 Y36.4333
G01 X39.1836 Y36.4367
G01 X39.2069 Y36.4444
G01 X39.3237 Y36.4862
G01 X39.3466 Y36.4950
G01 X39.3691 Y36.5050
G01 X39.4813 Y36.5580
G01 X39.5032 Y36.5691
G01 X39.5245 Y36.5812
G01 X39.6310 Y36.6450
G01 X39.6517 Y36.6581
G01 X39.6718 Y36.6722
G01 X39.7715 Y36.7462
G01 X39.7908 Y36.7613
G01 X39.8094 Y36.7773
G01 X39.9014 Y36.8606
G01 X39.9191 Y36.8776
G01 X39.9361 Y36.8953
G01 X40.0194 Y36.9873
G01 X40.0354 Y37.0059
G01 X40.0505 Y37.0252
G01 X40.1245 Y37.1249
G01 X40.1386 Y37.1450
G01 X40.1517 Y37.1657
G01 X40.2155 Y37.2722
G01 X40.2276 Y37.2935
G01 X40.2387 Y37.3154
G01 X40.2917 Y37.4276
G01 X40.3017 Y37.4501
G01 X40.3105 Y37.4730
G01 X40.3523 Y37.5898
G01 X40.3600 Y37.6131
G01 X40.3666 Y37.6368
G01 X40.3967 Y37.7572
G01 X40.4021 Y37.7811
G01 X40.4063 Y37.8053
G01 X40.4245 Y37.9281
G01 X40.4275 Y37.9524
G01 X40.4293 Y37.9769
G01 X40.4354 Y38.1009
G01 X40.4360 Y38.1254
G01 X40.4354 Y38.1499
G01 X40.4293 Y38.2739
G01 X40.4275 Y38.2984
G01 X40.4245 Y38.3227
G01 X40.4063 Y38.4455
G01 X40.4021 Y38.4697
G01 X40.3967 Y38.4936
G01 X40.3666 Y38.6140
G01 X40.3600 Y38.6377
G01 X40.3523 Y38.6610
G01 X40.3105 Y38.7778
G01 X40.3017 Y38.8007
G01 X40.2917 Y38.8232
G01 X40.2387 Y38.9354
G01 X40.2276 Y38.9573
G01 X40.2155 Y38.9786
G01 X40.1517 Y39.0851
G01 X40.1386 Y39.1058
G01 X40.1245 Y39.1259
G01 X40.0505 Y39.2256
G01 X40.0354 Y39.2449
G01 X40.0194 Y39.2635
G01 X39.9361 Y39.3555
G01 X39.9191 Y39.3732
G01 X39.9103 Y39.3818
G01 X39.8094 Y39.4735
G01 X39.7908 Y39.4895
G01 X39.7715 Y39.5046
G01 X39.6718 Y39.5786
G01 X39.6517 Y39.5927
G01 X39.6310 Y39.6058
G01 X39.5245 Y39.6696
G01 X39.5032 Y39.6817
G01 X39.4813 Y39.6928
G01 X39.3691 Y39.7458
G01 X39.3466 Y39.7558
G01 X39.3237 Y39.7646
G01 X39.2069 Y39.8064
G01 X39.1836 Y39.8141
G01 X39.1599 Y39.8207
G01 X39.0395 Y39.8508
G01 X39.0156 Y39.8562
G01 X38.9914 Y39.8604
G01 X38.8686 Y39.8786
G01 X38.8443 Y39.8816
G01 X38.8198 Y39.8834
G01 X38.6958 Y39.8895
G01 X38.6836 Y39.8900
G01 X38.6590 Y39.8900
G01 X38.5228 Y39.8834
G01 X38.4983 Y39.8816
G01 X38.4740 Y39.8786
G01 X38.3512 Y39.8604
G01 X38.3270 Y39.8562
G01 X38.3031 Y39.8508
G01 X38.1827 Y39.8207
G01 X38.1590 Y39.8141
G01 X38.1357 Y39.8064
G01 X38.0189 Y39.7646
G01 X37.9960 Y39.7558
G01 X37.9735 Y39.7458
G01 X37.8613 Y39.6928
G01 X37.8503 Y39.6874
G01 X37.8287 Y39.6758
G01 X37.7116 Y39.6058
G01 X37.6909 Y39.5927
G01 X37.6708 Y39.5786
G01 X37.5711 Y39.5046
G01 X37.5518 Y39.4895
G01 X37.5332 Y39.4735
G01 X37.4322 Y39.3818
G01 X37.4149 Y39.3644
G01 X37.4065 Y39.3555
G01 X37.3232 Y39.2635
G01 X37.3151 Y39.2543
G01 X37.2995 Y39.2353
G01 X37.2109 Y39.1159
G01 X37.1973 Y39.0955
G01 X37.1591 Y39.0320
G01 X32.1858 Y39.0320
G01 X32.1741 Y39.0469
G01 X32.1581 Y39.0654
G01 X32.0953 Y39.1347
G01 X32.0784 Y39.1525
G01 X32.0606 Y39.1694
G01 X31.9913 Y39.2322
G01 X31.9728 Y39.2482
G01 X31.9534 Y39.2633
G01 X31.8783 Y39.3190
G01 X31.8583 Y39.3331
G01 X31.8375 Y39.3462
G01 X31.7574 Y39.3943
G01 X31.7360 Y39.4064
G01 X31.7141 Y39.4174
G01 X31.6184 Y39.4625
G01 X31.5957 Y39.4719
G01 X31.5842 Y39.4762
G01 X31.4962 Y39.5077
G01 X31.4729 Y39.5154
G01 X31.4493 Y39.5219
G01 X31.3586 Y39.5446
G01 X31.3347 Y39.5500
G01 X31.3105 Y39.5542
G01 X31.2180 Y39.5679
G01 X31.1937 Y39.5709
G01 X31.1692 Y39.5727
G01 X31.0758 Y39.5773
G01 X31.0513 Y39.5779
G01 X31.0268 Y39.5773
G01 X30.9334 Y39.5727
G01 X30.9089 Y39.5709
G01 X30.8846 Y39.5679
G01 X30.7921 Y39.5542
G01 X30.7679 Y39.5500
G01 X30.7440 Y39.5446
G01 X30.6414 Y39.5188
G01 X30.6297 Y39.5154
G01 X30.6064 Y39.5077
G01 X30.5183 Y39.4762
G01 X30.4955 Y39.4673
G01 X30.4730 Y39.4574
G01 X30.3885 Y39.4174
G01 X30.3666 Y39.4064
G01 X30.3452 Y39.3943
G01 X30.2651 Y39.3462
G01 X30.2443 Y39.3331
G01 X30.2243 Y39.3190
G01 X30.1492 Y39.2633
G01 X30.1298 Y39.2482
G01 X30.1113 Y39.2322
G01 X30.0420 Y39.1694
G01 X30.0242 Y39.1525
G01 X30.0073 Y39.1347
G01 X29.9445 Y39.0654
G01 X29.9285 Y39.0469
G01 X29.9168 Y39.0320
G01 X28.9069 Y39.0320
G01 X26.6059 Y41.2874
G01 X26.5880 Y41.3042
G01 X26.5549 Y41.3337
G01 X26.5307 Y41.3533
G01 X26.4841 Y41.3876
G01 X26.4695 Y41.3974
G01 X26.4466 Y41.4117
G01 X26.4083 Y41.4342
G01 X26.3808 Y41.4488
G01 X26.3284 Y41.4733
G01 X26.3122 Y41.4801
G01 X26.2996 Y41.4850
G01 X26.2578 Y41.4999
G01 X26.2321 Y41.5083
G01 X26.2152 Y41.5131
G01 X26.1590 Y41.5269
G01 X26.1284 Y41.5328
G01 X26.0845 Y41.5392
G01 X26.0577 Y41.5425
G01 X26.0401 Y41.5439
G01 X25.9958 Y41.5460
G01 X25.9713 Y41.5466
G01 X20.8922 Y41.5466
G01 X8.1656 Y41.5720
G01 X8.1357 Y41.5712
G01 X8.0900 Y41.5688
G01 X8.0768 Y41.5676
G01 X8.0470 Y41.5639
G01 X8.0019 Y41.5570
G01 X7.9725 Y41.5511
G01 X7.9153 Y41.5366
G01 X7.8866 Y41.5278
G01 X7.8435 Y41.5125
G01 X7.8156 Y41.5016
G01 X7.7913 Y41.4907
G01 X7.7501 Y41.4710
G01 X7.7237 Y41.4568
G01 X7.6845 Y41.4333
G01 X7.6592 Y41.4172
G01 X7.6483 Y41.4096
G01 X7.6115 Y41.3824
G01 X7.5880 Y41.3639
G01 X7.5778 Y41.3553
G01 X7.5439 Y41.3246
G01 X7.5223 Y41.3039
G01 X6.0739 Y39.8372
G01 X6.0076 Y39.8537
G01 X5.9835 Y39.8584
G01 X5.8365 Y39.8803
G01 X5.8120 Y39.8827
G01 X5.7998 Y39.8834
G01 X5.6758 Y39.8895
G01 X5.6636 Y39.8900
G01 X5.6390 Y39.8900
G01 X5.5028 Y39.8834
G01 X5.4783 Y39.8816
G01 X5.4540 Y39.8786
G01 X5.3312 Y39.8604
G01 X5.3070 Y39.8562
G01 X5.2831 Y39.8508
G01 X5.1508 Y39.8175
G01 X5.1273 Y39.8104
G01 X5.1157 Y39.8064
G01 X4.9989 Y39.7646
G01 X4.9760 Y39.7558
G01 X4.9535 Y39.7458
G01 X4.8413 Y39.6928
G01 X4.8194 Y39.6817
G01 X4.7981 Y39.6696
G01 X4.6916 Y39.6058
G01 X4.6709 Y39.5927
G01 X4.6508 Y39.5786
G01 X4.5511 Y39.5046
G01 X4.5318 Y39.4895
G01 X4.5132 Y39.4735
G01 X4.4212 Y39.3902
G01 X4.4035 Y39.3732
G01 X4.3949 Y39.3644
G01 X4.3032 Y39.2635
G01 X4.2872 Y39.2449
G01 X4.2721 Y39.2256
G01 X4.1981 Y39.1259
G01 X4.1840 Y39.1058
G01 X4.1709 Y39.0851
G01 X4.1071 Y38.9786
G01 X4.0950 Y38.9573
G01 X4.0839 Y38.9354
G01 X4.0309 Y38.8232
G01 X4.0209 Y38.8007
G01 X4.0121 Y38.7778
G01 X3.9703 Y38.6610
G01 X3.9626 Y38.6377
G01 X3.9592 Y38.6259
G01 X3.9259 Y38.4936
G01 X3.9205 Y38.4697
G01 X3.9163 Y38.4455
G01 X3.8981 Y38.3227
G01 X3.8951 Y38.2984
G01 X3.8933 Y38.2739
G01 X3.8867 Y38.1377
G01 X3.8866 Y38.1254
G01 X3.8872 Y38.1009
G01 X3.8933 Y37.9769
G01 X3.8940 Y37.9647
G01 X3.8964 Y37.9402
G01 X3.9183 Y37.7932
G01 X3.9230 Y37.7691
G01 X3.9409 Y37.6971
G01 X2.4448 Y36.2011
G01 X2.4279 Y36.1833
G01 X2.3930 Y36.1445
G01 X2.3774 Y36.1256
G01 X2.3462 Y36.0837
G01 X2.3321 Y36.0637
G01 X2.3254 Y36.0534
G01 X2.2984 Y36.0087
G01 X2.2863 Y35.9874
G01 X2.2753 Y35.9654
G01 X2.2531 Y35.9182
G01 X2.2483 Y35.9069
G01 X2.2395 Y35.8840
G01 X2.2220 Y35.8349
G01 X2.2149 Y35.8114
G01 X2.2021 Y35.7608
G01 X2.1967 Y35.7369
G01 X2.1925 Y35.7127
G01 X2.1850 Y35.6611
G01 X2.1837 Y35.6489
G01 X2.1819 Y35.6244
G01 X2.1799 Y35.5845
G01 X2.1793 Y35.5600
G01 X2.1793 Y20.3200
G01 X2.1795 Y20.3038
G01 X2.1819 Y20.2556
G01 X2.1838 Y20.2299
G01 X2.1855 Y20.2151
G01 X2.1925 Y20.1673
G01 X2.1974 Y20.1399
G01 X2.2031 Y20.1148
G01 X2.2151 Y20.0680
G01 X2.2232 Y20.0414
G01 X2.2395 Y19.9960
G01 X2.2496 Y19.9700
G01 X2.2601 Y19.9465
G01 X2.2810 Y19.9030
G01 X2.2942 Y19.8785
G01 X2.3190 Y19.8371
G01 X2.3339 Y19.8136
G01 X2.3488 Y19.7926
G01 X2.3700 Y19.7642
G01 X2.3859 Y19.7439
G01 X2.4041 Y19.7229
G01 X2.4367 Y19.6873
G01 X7.5534 Y14.6211
G01 X7.5713 Y14.6043
G01 X7.5976 Y14.5806
G01 X7.6187 Y14.5625
G01 X7.6391 Y14.5467
G01 X7.6676 Y14.5257
G01 X7.6903 Y14.5098
G01 X7.7122 Y14.4961
G01 X7.7426 Y14.4779
G01 X7.7668 Y14.4643
G01 X7.7899 Y14.4528
G01 X7.8219 Y14.4378
G01 X7.8455 Y14.4273
G01 X7.8594 Y14.4218
G01 X7.9048 Y14.4055
G01 X7.9313 Y14.3969
G01 X7.9562 Y14.3901
G01 X7.9905 Y14.3816
G01 X8.0157 Y14.3760
G01 X8.0431 Y14.3713
G01 X8.0781 Y14.3662
G01 X8.1037 Y14.3630
G01 X8.1314 Y14.3610
G01 X8.1790 Y14.3589
G01 X9.5968 Y14.3588
G01 X9.6164 Y14.3346
G01 X9.6873 Y14.2561
G01 X9.7042 Y14.2383
G01 X9.7220 Y14.2214
G01 X9.7913 Y14.1586
G01 X9.8098 Y14.1426
G01 X9.8292 Y14.1275
G01 X9.9043 Y14.0718
G01 X9.9243 Y14.0577
G01 X9.9451 Y14.0446
G01 X10.0252 Y13.9965
G01 X10.0466 Y13.9844
G01 X10.0685 Y13.9734
G01 X10.1530 Y13.9334
G01 X10.1754 Y13.9235
G01 X10.1983 Y13.9146
G01 X10.2864 Y13.8831
G01 X10.3097 Y13.8754
G01 X10.3333 Y13.8689
G01 X10.4240 Y13.8462
G01 X10.4479 Y13.8408
G01 X10.4721 Y13.8366
G01 X10.5646 Y13.8229
G01 X10.5889 Y13.8199
G01 X10.6134 Y13.8181
G01 X10.7068 Y13.8135
G01 X10.7313 Y13.8129
G01 X10.7558 Y13.8135
G01 X10.8492 Y13.8181
G01 X10.8737 Y13.8199
G01 X10.8980 Y13.8229
G01 X10.9905 Y13.8366
G01 X11.0147 Y13.8408
G01 X11.0386 Y13.8462
G01 X11.1411 Y13.8720
G01 X11.1646 Y13.8792
G01 X11.1762 Y13.8831
G01 X11.2642 Y13.9146
G01 X11.2871 Y13.9235
G01 X11.3096 Y13.9334
G01 X11.3941 Y13.9734
G01 X11.4160 Y13.9844
G01 X11.4374 Y13.9965
G01 X11.5175 Y14.0446
G01 X11.5383 Y14.0577
G01 X11.5583 Y14.0718
G01 X11.6432 Y14.1349
G01 X11.6621 Y14.1505
G01 X11.6713 Y14.1586
G01 X11.7406 Y14.2214
G01 X11.7584 Y14.2383
G01 X11.7753 Y14.2561
G01 X11.8381 Y14.3254
G01 X11.8541 Y14.3439
G01 X11.8692 Y14.3633
G01 X11.9249 Y14.4384
G01 X11.9390 Y14.4584
G01 X11.9521 Y14.4792
G01 X12.0002 Y14.5593
G01 X12.0064 Y14.5699
G01 X12.0179 Y14.5916
G01 X12.0684 Y14.6983
G01 X12.0732 Y14.7096
G01 X12.0821 Y14.7325
G01 X12.1136 Y14.8205
G01 X12.1213 Y14.8438
G01 X12.1247 Y14.8555
G01 X12.1505 Y14.9581
G01 X12.1559 Y14.9820
G01 X12.1601 Y15.0062
G01 X12.1738 Y15.0987
G01 X12.1768 Y15.1230
G01 X12.1786 Y15.1475
G01 X12.1832 Y15.2409
G01 X12.1838 Y15.2654
G01 X12.1832 Y15.2899
G01 X12.1786 Y15.3833
G01 X12.1768 Y15.4078
G01 X12.1738 Y15.4321
G01 X12.1601 Y15.5246
G01 X12.1559 Y15.5488
G01 X12.1533 Y15.5608
G01 X12.1278 Y15.6634
G01 X12.1213 Y15.6870
G01 X12.1136 Y15.7103
G01 X12.0821 Y15.7983
G01 X12.0732 Y15.8212
G01 X12.0633 Y15.8437
G01 X12.0233 Y15.9282
G01 X12.0123 Y15.9501
G01 X12.0002 Y15.9715
G01 X11.9521 Y16.0516
G01 X11.9390 Y16.0724
G01 X11.9249 Y16.0924
G01 X11.8692 Y16.1675
G01 X11.8541 Y16.1869
G01 X11.8381 Y16.2054
G01 X11.7753 Y16.2747
G01 X11.7584 Y16.2925
G01 X11.7406 Y16.3094
G01 X11.6713 Y16.3722
G01 X11.6528 Y16.3882
G01 X11.6334 Y16.4033
G01 X11.5583 Y16.4590
G01 X11.5383 Y16.4731
G01 X11.5175 Y16.4862
G01 X11.4374 Y16.5343
G01 X11.4160 Y16.5464
G01 X11.3941 Y16.5574
G01 X11.3096 Y16.5974
G01 X11.2871 Y16.6073
G01 X11.2642 Y16.6162
G01 X11.1762 Y16.6477
G01 X11.1529 Y16.6554
G01 X11.1293 Y16.6619
G01 X11.0386 Y16.6846
G01 X11.0267 Y16.6874
G01 X11.0026 Y16.6922
G01 X10.8980 Y16.7079
G01 X10.8737 Y16.7109
G01 X10.8492 Y16.7127
G01 X10.7558 Y16.7173
G01 X10.7313 Y16.7179
G01 X10.7068 Y16.7173
G01 X10.6134 Y16.7127
G01 X10.5889 Y16.7109
G01 X10.5646 Y16.7079
G01 X10.4721 Y16.6942
G01 X10.4479 Y16.6900
G01 X10.4240 Y16.6846
G01 X10.3333 Y16.6619
G01 X10.3097 Y16.6554
G01 X10.2864 Y16.6477
G01 X10.1983 Y16.6162
G01 X10.1755 Y16.6073
G01 X10.1530 Y16.5974
G01 X10.0685 Y16.5574
G01 X10.0466 Y16.5464
G01 X10.0252 Y16.5343
G01 X9.9451 Y16.4862
G01 X9.9243 Y16.4731
G01 X9.9043 Y16.4590
G01 X9.8292 Y16.4033
G01 X9.8098 Y16.3882
G01 X9.7913 Y16.3722
G01 X9.7130 Y16.3010
G01 X9.6957 Y16.2837
G01 X9.6873 Y16.2747
G01 X9.6245 Y16.2054
G01 X9.6085 Y16.1869
G01 X9.5968 Y16.1720
G01 X8.5642 Y16.1720
G01 X3.9925 Y20.6982
G01 X3.9925 Y32.4477
G01 X4.0164 Y32.3815
G01 X4.0258 Y32.3588
G01 X4.0839 Y32.2354
G01 X4.0950 Y32.2135
G01 X4.1009 Y32.2028
G01 X4.1709 Y32.0857
G01 X4.1840 Y32.0650
G01 X4.1981 Y32.0449
G01 X4.2721 Y31.9452
G01 X4.2872 Y31.9259
G01 X4.3032 Y31.9073
G01 X4.3865 Y31.8153
G01 X4.4035 Y31.7976
G01 X4.4212 Y31.7806
G01 X4.5224 Y31.6892
G01 X4.5318 Y31.6813
G01 X4.5511 Y31.6662
G01 X4.6608 Y31.5850
G01 X4.6812 Y31.5714
G01 X4.7418 Y31.5349
G01 X4.7193 Y25.4226
G01 X4.7201 Y25.3957
G01 X4.7224 Y25.3509
G01 X4.7239 Y25.3338
G01 X4.7273 Y25.3071
G01 X4.7341 Y25.2627
G01 X4.7373 Y25.2458
G01 X4.7432 Y25.2196
G01 X4.7543 Y25.1761
G01 X4.7591 Y25.1596
G01 X4.7677 Y25.1341
G01 X4.7829 Y25.0919
G01 X4.7894 Y25.0759
G01 X4.8004 Y25.0514
G01 X4.8197 Y25.0109
G01 X4.8342 Y24.9838
G01 X4.8642 Y24.9338
G01 X4.8736 Y24.9194
G01 X4.8892 Y24.8975
G01 X4.9161 Y24.8615
G01 X4.9269 Y24.8481
G01 X4.9445 Y24.8278
G01 X4.9747 Y24.7947
G01 X4.9885 Y24.7807
G01 X6.7388 Y23.0501
G01 X6.7388 Y21.9329
G01 X6.7394 Y21.9084
G01 X6.7412 Y21.8839
G01 X6.7426 Y21.8717
G01 X6.7442 Y21.8595
G01 X6.7484 Y21.8354
G01 X6.7538 Y21.8114
G01 X6.7569 Y21.7995
G01 X6.7640 Y21.7761
G01 X6.7723 Y21.7530
G01 X6.7769 Y21.7416
G01 X6.7868 Y21.7191
G01 X6.7978 Y21.6972
G01 X6.8038 Y21.6865
G01 X6.8164 Y21.6654
G01 X6.8300 Y21.6450
G01 X6.8446 Y21.6253
G01 X6.8602 Y21.6063
G01 X6.8683 Y21.5971
G01 X6.8852 Y21.5793
G01 X6.9030 Y21.5624
G01 X6.9216 Y21.5464
G01 X6.9312 Y21.5387
G01 X6.9509 Y21.5241
G01 X6.9610 Y21.5172
G01 X6.9817 Y21.5040
G01 X7.0031 Y21.4919
G01 X7.0250 Y21.4809
G01 X7.0475 Y21.4710
G01 X7.0704 Y21.4621
G01 X7.0820 Y21.4581
G01 X7.1054 Y21.4510
G01 X7.1292 Y21.4451
G01 X7.1533 Y21.4403
G01 X7.1776 Y21.4367
G01 X7.1898 Y21.4353
G01 X7.2143 Y21.4335
G01 X7.2388 Y21.4329
G01 X9.1438 Y21.4329
G01 X9.1683 Y21.4335
G01 X9.1928 Y21.4353
G01 X9.2172 Y21.4383
G01 X9.2413 Y21.4425
G01 X9.2653 Y21.4479
G01 X9.2889 Y21.4544
G01 X9.3122 Y21.4621
G01 X9.3351 Y21.4710
G01 X9.3464 Y21.4758
G01 X9.3686 Y21.4863
G01 X9.3902 Y21.4979
G01 X9.4113 Y21.5105
G01 X9.4317 Y21.5241
G01 X9.4416 Y21.5313
G01 X9.4610 Y21.5464
G01 X9.4796 Y21.5624
G01 X9.4973 Y21.5793
G01 X9.5143 Y21.5971
G01 X9.5303 Y21.6157
G01 X9.5454 Y21.6351
G01 X9.5595 Y21.6551
G01 X9.5727 Y21.6759
G01 X9.5848 Y21.6972
G01 X9.5958 Y21.7191
G01 X9.6009 Y21.7303
G01 X9.6103 Y21.7530
G01 X9.6146 Y21.7645
G01 X9.6223 Y21.7878
G01 X9.6288 Y21.8114
G01 X9.6342 Y21.8354
G01 X9.6384 Y21.8595
G01 X9.6414 Y21.8839
G01 X9.6432 Y21.9084
G01 X9.6437 Y21.9242
G01 X9.6873 Y21.8761
G01 X9.7042 Y21.8583
G01 X9.7220 Y21.8414
G01 X9.7913 Y21.7786
G01 X9.8005 Y21.7705
G01 X9.8194 Y21.7549
G01 X9.9142 Y21.6846
G01 X9.9243 Y21.6777
G01 X9.9451 Y21.6646
G01 X10.0252 Y21.6165
G01 X10.0466 Y21.6044
G01 X10.0685 Y21.5934
G01 X10.1530 Y21.5534
G01 X10.1754 Y21.5435
G01 X10.1983 Y21.5346
G01 X10.2864 Y21.5031
G01 X10.3097 Y21.4954
G01 X10.3333 Y21.4889
G01 X10.4240 Y21.4662
G01 X10.4479 Y21.4608
G01 X10.4721 Y21.4566
G01 X10.5767 Y21.4412
G01 X10.6012 Y21.4388
G01 X10.6134 Y21.4381
G01 X10.7068 Y21.4335
G01 X10.7313 Y21.4329
G01 X10.7558 Y21.4335
G01 X10.8492 Y21.4381
G01 X10.8737 Y21.4399
G01 X10.8859 Y21.4412
G01 X11.0026 Y21.4586
G01 X11.0147 Y21.4608
G01 X11.0386 Y21.4662
G01 X11.1293 Y21.4889
G01 X11.1529 Y21.4954
G01 X11.1762 Y21.5031
G01 X11.2757 Y21.5389
G01 X11.2984 Y21.5483
G01 X11.3096 Y21.5534
G01 X11.3941 Y21.5934
G01 X11.4160 Y21.6044
G01 X11.4374 Y21.6165
G01 X11.5175 Y21.6646
G01 X11.5383 Y21.6777
G01 X11.5583 Y21.6918
G01 X11.6334 Y21.7475
G01 X11.6528 Y21.7626
G01 X11.6713 Y21.7786
G01 X11.7406 Y21.8414
G01 X11.7584 Y21.8583
G01 X11.7669 Y21.8671
G01 X11.8381 Y21.9454
G01 X11.8541 Y21.9639
G01 X11.8618 Y21.9735
G01 X11.9321 Y22.0683
G01 X11.9390 Y22.0784
G01 X11.9521 Y22.0992
G01 X12.0064 Y22.1899
G01 X12.0179 Y22.2116
G01 X12.0233 Y22.2226
G01 X12.0633 Y22.3071
G01 X12.0732 Y22.3296
G01 X12.0821 Y22.3525
G01 X12.1136 Y22.4405
G01 X12.1213 Y22.4638
G01 X12.1278 Y22.4874
G01 X12.1505 Y22.5781
G01 X12.1559 Y22.6020
G01 X12.1601 Y22.6262
G01 X12.1738 Y22.7187
G01 X12.1768 Y22.7430
G01 X12.1786 Y22.7675
G01 X12.1832 Y22.8609
G01 X12.1838 Y22.8854
G01 X12.1832 Y22.9099
G01 X12.1786 Y23.0033
G01 X12.1768 Y23.0278
G01 X12.1742 Y23.0489
G01 X16.4541 Y27.3514
G01 X16.4709 Y27.3693
G01 X16.4961 Y27.3971
G01 X16.5125 Y27.4162
G01 X16.5287 Y27.4369
G01 X16.5510 Y27.4671
G01 X16.5655 Y27.4877
G01 X16.5729 Y27.4991
G01 X16.5988 Y27.5421
G01 X16.6112 Y27.5640
G01 X16.6230 Y27.5875
G01 X16.6389 Y27.6214
G01 X16.6496 Y27.6455
G01 X16.6586 Y27.6690
G01 X16.6712 Y27.7043
G01 X16.6791 Y27.7283
G01 X16.6829 Y27.7414
G01 X16.6980 Y27.8022
G01 X16.7031 Y27.8280
G01 X16.7122 Y27.8901
G01 X16.7137 Y27.9037
G01 X16.7155 Y27.9288
G01 X16.7173 Y27.9663
G01 X16.7179 Y27.9908
G01 X16.7179 Y29.3709
G01 X16.7328 Y29.3826
G01 X16.7513 Y29.3986
G01 X16.8206 Y29.4614
G01 X16.8384 Y29.4783
G01 X16.8553 Y29.4961
G01 X16.9181 Y29.5654
G01 X16.9341 Y29.5839
G01 X16.9492 Y29.6033
G01 X17.0049 Y29.6784
G01 X17.0190 Y29.6984
G01 X17.0321 Y29.7192
G01 X17.0802 Y29.7993
G01 X17.0923 Y29.8207
G01 X17.1033 Y29.8426
G01 X17.1484 Y29.9383
G01 X17.1532 Y29.9496
G01 X17.1621 Y29.9725
G01 X17.1936 Y30.0605
G01 X17.2013 Y30.0838
G01 X17.2078 Y30.1074
G01 X17.2305 Y30.1981
G01 X17.2359 Y30.2220
G01 X17.2401 Y30.2462
G01 X17.2538 Y30.3387
G01 X17.2568 Y30.3630
G01 X17.2586 Y30.3875
G01 X17.2632 Y30.4809
G01 X17.2636 Y30.4931
G01 X17.2636 Y30.5177
G01 X17.2579 Y30.6355
G01 X17.2568 Y30.6478
G01 X17.2538 Y30.6721
G01 X17.2401 Y30.7646
G01 X17.2359 Y30.7888
G01 X17.2305 Y30.8127
G01 X17.2047 Y30.9153
G01 X17.1975 Y30.9387
G01 X17.1936 Y30.9503
G01 X17.1621 Y31.0383
G01 X17.1532 Y31.0612
G01 X17.1433 Y31.0837
G01 X17.1033 Y31.1682
G01 X17.0923 Y31.1901
G01 X17.0802 Y31.2115
G01 X17.0321 Y31.2916
G01 X17.0190 Y31.3124
G01 X17.0049 Y31.3324
G01 X16.9492 Y31.4075
G01 X16.9341 Y31.4269
G01 X16.9181 Y31.4454
G01 X16.8553 Y31.5147
G01 X16.8384 Y31.5325
G01 X16.8206 Y31.5494
G01 X16.7513 Y31.6122
G01 X16.7328 Y31.6282
G01 X16.7134 Y31.6433
G01 X16.6383 Y31.6990
G01 X16.6183 Y31.7131
G01 X16.5975 Y31.7262
G01 X16.5155 Y31.7754
G01 X16.5975 Y31.8246
G01 X16.6183 Y31.8377
G01 X16.6383 Y31.8518
G01 X16.7134 Y31.9075
G01 X16.7328 Y31.9226
G01 X16.7513 Y31.9386
G01 X16.8206 Y32.0014
G01 X16.8384 Y32.0183
G01 X16.8553 Y32.0361
G01 X16.9181 Y32.1054
G01 X16.9262 Y32.1146
G01 X16.9393 Y32.1304
G01 X18.3659 Y32.1135
G01 X18.3875 Y32.1135
G01 X18.4012 Y32.1140
G01 X18.4441 Y32.1160
G01 X18.4626 Y32.1175
G01 X18.4763 Y32.1189
G01 X18.5187 Y32.1249
G01 X18.5459 Y32.1293
G01 X18.5641 Y32.1330
G01 X18.6058 Y32.1431
G01 X18.6324 Y32.1502
G01 X18.6502 Y32.1557
G01 X18.7036 Y32.1744
G01 X18.7336 Y32.1866
G01 X18.7725 Y32.2046
G01 X18.7972 Y32.2168
G01 X18.8135 Y32.2256
G01 X18.8623 Y32.2545
G01 X18.8893 Y32.2723
G01 X18.9239 Y32.2975
G01 X18.9458 Y32.3143
G01 X18.9601 Y32.3261
G01 X19.0023 Y32.3639
G01 X19.0178 Y32.3789
G01 X20.0727 Y33.4338
G01 X20.0596 Y33.4060
G01 X20.0493 Y33.3813
G01 X20.0282 Y33.3227
G01 X20.0204 Y33.2972
G01 X20.0052 Y33.2368
G01 X20.0023 Y33.2231
G01 X19.9979 Y33.1981
G01 X19.9924 Y33.1616
G01 X19.9893 Y33.1364
G01 X19.9873 Y33.1098
G01 X19.9854 Y33.0729
G01 X19.9847 Y33.0484
G01 X19.9600 Y25.6131
G01 X19.3065 Y24.2896
G01 X19.2270 Y24.2697
G01 X19.2033 Y24.2632
G01 X19.1800 Y24.2555
G01 X19.0932 Y24.2244
G01 X19.0817 Y24.2202
G01 X19.0590 Y24.2108
G01 X18.9645 Y24.1662
G01 X18.9535 Y24.1608
G01 X18.9318 Y24.1493
G01 X18.8317 Y24.0892
G01 X18.8113 Y24.0756
G01 X18.8013 Y24.0684
G01 X18.7272 Y24.0135
G01 X18.7079 Y23.9984
G01 X18.6893 Y23.9823
G01 X18.6210 Y23.9204
G01 X18.6032 Y23.9035
G01 X18.5863 Y23.8857
G01 X18.5243 Y23.8174
G01 X18.5083 Y23.7988
G01 X18.4932 Y23.7795
G01 X18.4383 Y23.7054
G01 X18.4241 Y23.6853
G01 X18.4110 Y23.6646
G01 X18.3636 Y23.5855
G01 X18.3513 Y23.5637
G01 X18.3390 Y23.5855
G01 X18.2916 Y23.6646
G01 X18.2784 Y23.6853
G01 X18.2643 Y23.7054
G01 X18.2094 Y23.7795
G01 X18.1943 Y23.7988
G01 X18.1782 Y23.8174
G01 X18.1163 Y23.8857
G01 X18.0994 Y23.9035
G01 X18.0816 Y23.9204
G01 X18.0133 Y23.9823
G01 X17.9947 Y23.9984
G01 X17.9753 Y24.0135
G01 X17.9013 Y24.0684
G01 X17.8812 Y24.0825
G01 X17.8605 Y24.0957
G01 X17.7708 Y24.1493
G01 X17.7491 Y24.1608
G01 X17.7381 Y24.1662
G01 X17.6547 Y24.2057
G01 X17.6323 Y24.2156
G01 X17.6094 Y24.2244
G01 X17.5226 Y24.2555
G01 X17.4992 Y24.2632
G01 X17.4756 Y24.2697
G01 X17.3861 Y24.2922
G01 X17.3622 Y24.2975
G01 X17.3380 Y24.3017
G01 X17.2468 Y24.3153
G01 X17.2224 Y24.3183
G01 X17.2102 Y24.3193
G01 X17.1058 Y24.3246
G01 X17.0813 Y24.3252
G01 X17.0568 Y24.3246
G01 X16.9646 Y24.3201
G01 X16.9402 Y24.3183
G01 X16.9158 Y24.3153
G01 X16.8246 Y24.3017
G01 X16.8004 Y24.2975
G01 X16.7765 Y24.2922
G01 X16.6870 Y24.2697
G01 X16.6633 Y24.2632
G01 X16.6400 Y24.2555
G01 X16.5532 Y24.2244
G01 X16.5303 Y24.2156
G01 X16.5079 Y24.2057
G01 X16.4245 Y24.1662
G01 X16.4026 Y24.1552
G01 X16.3812 Y24.1431
G01 X16.3021 Y24.0957
G01 X16.2814 Y24.0825
G01 X16.2613 Y24.0684
G01 X16.1872 Y24.0135
G01 X16.1679 Y23.9984
G01 X16.1585 Y23.9905
G01 X16.0810 Y23.9204
G01 X16.0632 Y23.9035
G01 X16.0463 Y23.8857
G01 X15.9843 Y23.8174
G01 X15.9683 Y23.7988
G01 X15.9532 Y23.7795
G01 X15.8983 Y23.7054
G01 X15.8841 Y23.6853
G01 X15.8710 Y23.6646
G01 X15.8236 Y23.5855
G01 X15.8115 Y23.5641
G01 X15.8005 Y23.5422
G01 X15.7610 Y23.4588
G01 X15.7511 Y23.4364
G01 X15.7423 Y23.4135
G01 X15.7112 Y23.3267
G01 X15.7072 Y23.3150
G01 X15.7001 Y23.2916
G01 X15.6745 Y23.1902
G01 X15.6692 Y23.1663
G01 X15.6650 Y23.1421
G01 X15.6498 Y23.0387
G01 X15.6484 Y23.0265
G01 X15.6466 Y23.0021
G01 X15.6421 Y22.9099
G01 X15.6415 Y22.8854
G01 X15.6421 Y22.8609
G01 X15.6466 Y22.7687
G01 X15.6484 Y22.7443
G01 X15.6498 Y22.7321
G01 X15.6650 Y22.6287
G01 X15.6692 Y22.6045
G01 X15.6745 Y22.5806
G01 X15.6970 Y22.4911
G01 X15.7035 Y22.4674
G01 X15.7112 Y22.4441
G01 X15.7423 Y22.3573
G01 X15.7511 Y22.3344
G01 X15.7610 Y22.3120
G01 X15.8005 Y22.2286
G01 X15.8115 Y22.2067
G01 X15.8236 Y22.1853
G01 X15.8775 Y22.0958
G01 X15.8841 Y22.0855
G01 X15.8983 Y22.0654
G01 X15.9532 Y21.9913
G01 X15.9683 Y21.9720
G01 X15.9843 Y21.9534
G01 X16.0463 Y21.8851
G01 X16.0632 Y21.8673
G01 X16.0810 Y21.8504
G01 X16.1493 Y21.7885
G01 X16.1679 Y21.7724
G01 X16.1872 Y21.7573
G01 X16.2713 Y21.6952
G01 X16.2917 Y21.6816
G01 X16.3021 Y21.6751
G01 X16.3812 Y21.6277
G01 X16.4026 Y21.6156
G01 X16.4245 Y21.6046
G01 X16.5190 Y21.5600
G01 X16.5417 Y21.5506
G01 X16.5532 Y21.5464
G01 X16.6516 Y21.5113
G01 X16.6633 Y21.5076
G01 X16.6870 Y21.5011
G01 X16.7703 Y21.4802
G01 X17.4442 Y20.1324
G01 X17.4216 Y11.0777
G01 X16.9522 Y11.0834
G01 X16.9418 Y11.0973
G01 X16.9262 Y11.1162
G01 X16.8469 Y11.2037
G01 X16.8384 Y11.2125
G01 X16.8206 Y11.2294
G01 X16.7421 Y11.3003
G01 X16.7232 Y11.3159
G01 X16.7134 Y11.3233
G01 X16.6383 Y11.3790
G01 X16.6183 Y11.3931
G01 X16.5975 Y11.4062
G01 X16.5155 Y11.4554
G01 X16.5975 Y11.5046
G01 X16.6080 Y11.5110
G01 X16.6284 Y11.5246
G01 X16.7232 Y11.5949
G01 X16.7421 Y11.6105
G01 X16.7513 Y11.6186
G01 X16.8296 Y11.6898
G01 X16.8384 Y11.6983
G01 X16.8553 Y11.7161
G01 X16.9181 Y11.7854
G01 X16.9341 Y11.8039
G01 X16.9492 Y11.8233
G01 X17.0049 Y11.8984
G01 X17.0190 Y11.9184
G01 X17.0321 Y11.9392
G01 X17.0802 Y12.0193
G01 X17.0923 Y12.0407
G01 X17.1033 Y12.0626
G01 X17.1433 Y12.1471
G01 X17.1532 Y12.1696
G01 X17.1621 Y12.1925
G01 X17.1936 Y12.2805
G01 X17.2013 Y12.3038
G01 X17.2078 Y12.3274
G01 X17.2305 Y12.4181
G01 X17.2359 Y12.4420
G01 X17.2381 Y12.4541
G01 X17.2538 Y12.5587
G01 X17.2568 Y12.5830
G01 X17.2586 Y12.6075
G01 X17.2632 Y12.7009
G01 X17.2638 Y12.7254
G01 X17.2632 Y12.7499
G01 X17.2586 Y12.8433
G01 X17.2568 Y12.8678
G01 X17.2554 Y12.8800
G01 X17.2401 Y12.9846
G01 X17.2359 Y13.0088
G01 X17.2305 Y13.0327
G01 X17.2047 Y13.1353
G01 X17.2013 Y13.1470
G01 X17.1936 Y13.1703
G01 X17.1621 Y13.2583
G01 X17.1532 Y13.2812
G01 X17.1433 Y13.3037
G01 X17.1033 Y13.3882
G01 X17.0923 Y13.4101
G01 X17.0802 Y13.4315
G01 X17.0321 Y13.5116
G01 X17.0190 Y13.5324
G01 X17.0049 Y13.5524
G01 X16.9492 Y13.6275
G01 X16.9341 Y13.6469
G01 X16.9181 Y13.6654
G01 X16.8553 Y13.7347
G01 X16.8384 Y13.7525
G01 X16.8206 Y13.7694
G01 X16.7513 Y13.8322
G01 X16.7421 Y13.8403
G01 X16.7232 Y13.8559
G01 X16.6383 Y13.9190
G01 X16.6183 Y13.9331
G01 X16.5975 Y13.9462
G01 X16.5155 Y13.9954
G01 X16.5975 Y14.0446
G01 X16.6183 Y14.0577
G01 X16.6383 Y14.0718
G01 X16.7134 Y14.1275
G01 X16.7328 Y14.1426
G01 X16.7513 Y14.1586
G01 X16.8206 Y14.2214
G01 X16.8384 Y14.2383
G01 X16.8553 Y14.2561
G01 X16.9181 Y14.3254
G01 X16.9262 Y14.3346
G01 X16.9418 Y14.3535
G01 X17.0049 Y14.4384
G01 X17.0190 Y14.4584
G01 X17.0321 Y14.4792
G01 X17.0802 Y14.5593
G01 X17.0923 Y14.5807
G01 X17.1033 Y14.6026
G01 X17.1433 Y14.6871
G01 X17.1532 Y14.7096
G01 X17.1621 Y14.7325
G01 X17.1936 Y14.8205
G01 X17.2013 Y14.8438
G01 X17.2078 Y14.8674
G01 X17.2305 Y14.9581
G01 X17.2359 Y14.9820
G01 X17.2401 Y15.0062
G01 X17.2554 Y15.1108
G01 X17.2579 Y15.1353
G01 X17.2586 Y15.1475
G01 X17.2632 Y15.2409
G01 X17.2638 Y15.2654
G01 X17.2632 Y15.2899
G01 X17.2586 Y15.3833
G01 X17.2568 Y15.4078
G01 X17.2538 Y15.4321
G01 X17.2401 Y15.5246
G01 X17.2359 Y15.5488
G01 X17.2305 Y15.5727
G01 X17.2047 Y15.6753
G01 X17.2013 Y15.6870
G01 X17.1936 Y15.7103
G01 X17.1621 Y15.7983
G01 X17.1532 Y15.8212
G01 X17.1433 Y15.8437
G01 X17.1033 Y15.9282
G01 X17.0923 Y15.9501
G01 X17.0802 Y15.9715
G01 X17.0321 Y16.0516
G01 X17.0190 Y16.0724
G01 X17.0049 Y16.0924
G01 X16.9492 Y16.1675
G01 X16.9341 Y16.1869
G01 X16.9181 Y16.2054
G01 X16.8553 Y16.2747
G01 X16.8384 Y16.2925
G01 X16.8296 Y16.3010
G01 X16.7513 Y16.3722
G01 X16.7328 Y16.3882
G01 X16.7134 Y16.4033
G01 X16.6383 Y16.4590
G01 X16.6183 Y16.4731
G01 X16.5975 Y16.4862
G01 X16.5174 Y16.5343
G01 X16.4960 Y16.5464
G01 X16.4741 Y16.5574
G01 X16.3896 Y16.5974
G01 X16.3671 Y16.6073
G01 X16.3442 Y16.6162
G01 X16.2562 Y16.6477
G01 X16.2329 Y16.6554
G01 X16.2093 Y16.6619
G01 X16.1186 Y16.6846
G01 X16.1067 Y16.6874
G01 X16.0826 Y16.6922
G01 X15.9780 Y16.7079
G01 X15.9537 Y16.7109
G01 X15.9292 Y16.7127
G01 X15.8236 Y16.7177
G01 X15.8113 Y16.7179
G01 X15.7868 Y16.7173
G01 X15.6934 Y16.7127
G01 X15.6689 Y16.7109
G01 X15.6446 Y16.7079
G01 X15.5521 Y16.6942
G01 X15.5279 Y16.6900
G01 X15.5040 Y16.6846
G01 X15.4133 Y16.6619
G01 X15.3897 Y16.6554
G01 X15.3780 Y16.6516
G01 X15.2783 Y16.6162
G01 X15.2555 Y16.6073
G01 X15.2330 Y16.5974
G01 X15.1485 Y16.5574
G01 X15.1266 Y16.5464
G01 X15.1052 Y16.5343
G01 X15.0251 Y16.4862
G01 X15.0043 Y16.4731
G01 X14.9843 Y16.4590
G01 X14.9092 Y16.4033
G01 X14.8994 Y16.3959
G01 X14.8805 Y16.3803
G01 X14.8020 Y16.3094
G01 X14.7842 Y16.2925
G01 X14.7673 Y16.2747
G01 X14.7045 Y16.2054
G01 X14.6885 Y16.1869
G01 X14.6734 Y16.1675
G01 X14.6177 Y16.0924
G01 X14.6036 Y16.0724
G01 X14.5905 Y16.0516
G01 X14.5424 Y15.9715
G01 X14.5303 Y15.9501
G01 X14.5193 Y15.9282
G01 X14.4793 Y15.8437
G01 X14.4742 Y15.8325
G01 X14.4648 Y15.8099
G01 X14.4290 Y15.7103
G01 X14.4213 Y15.6870
G01 X14.4148 Y15.6634
G01 X14.3921 Y15.5727
G01 X14.3867 Y15.5488
G01 X14.3825 Y15.5246
G01 X14.3688 Y15.4321
G01 X14.3658 Y15.4078
G01 X14.3640 Y15.3833
G01 X14.3594 Y15.2899
G01 X14.3588 Y15.2654
G01 X14.3594 Y15.2409
G01 X14.3640 Y15.1475
G01 X14.3647 Y15.1353
G01 X14.3671 Y15.1108
G01 X14.3825 Y15.0062
G01 X14.3867 Y14.9820
G01 X14.3921 Y14.9581
G01 X14.4148 Y14.8674
G01 X14.4213 Y14.8438
G01 X14.4290 Y14.8205
G01 X14.4605 Y14.7325
G01 X14.4694 Y14.7096
G01 X14.4793 Y14.6871
G01 X14.5193 Y14.6026
G01 X14.5303 Y14.5807
G01 X14.5424 Y14.5593
G01 X14.5905 Y14.4792
G01 X14.5969 Y14.4687
G01 X14.6105 Y14.4483
G01 X14.6734 Y14.3633
G01 X14.6885 Y14.3439
G01 X14.7045 Y14.3254
G01 X14.7673 Y14.2561
G01 X14.7842 Y14.2383
G01 X14.8020 Y14.2214
G01 X14.8713 Y14.1586
G01 X14.8898 Y14.1426
G01 X14.9092 Y14.1275
G01 X14.9843 Y14.0718
G01 X15.0043 Y14.0577
G01 X15.0251 Y14.0446
G01 X15.1071 Y13.9954
G01 X15.0251 Y13.9462
G01 X15.0043 Y13.9331
G01 X14.9843 Y13.9190
G01 X14.9092 Y13.8633
G01 X14.8898 Y13.8482
G01 X14.8805 Y13.8403
G01 X14.8020 Y13.7694
G01 X14.7842 Y13.7525
G01 X14.7673 Y13.7347
G01 X14.7045 Y13.6654
G01 X14.6885 Y13.6469
G01 X14.6768 Y13.6320
G01 X13.2713 Y13.6320
G01 X13.2468 Y13.6314
G01 X13.1947 Y13.6287
G01 X13.1702 Y13.6263
G01 X13.1581 Y13.6246
G01 X13.1186 Y13.6188
G01 X13.0944 Y13.6146
G01 X13.0705 Y13.6092
G01 X13.0318 Y13.5995
G01 X13.0081 Y13.5930
G01 X12.9964 Y13.5893
G01 X12.9357 Y13.5675
G01 X12.9131 Y13.5582
G01 X12.9019 Y13.5530
G01 X12.8658 Y13.5360
G01 X12.8439 Y13.5250
G01 X12.8226 Y13.5129
G01 X12.7884 Y13.4923
G01 X12.7676 Y13.4792
G01 X12.7575 Y13.4723
G01 X12.7057 Y13.4339
G01 X12.6868 Y13.4183
G01 X12.6776 Y13.4102
G01 X12.6480 Y13.3834
G01 X12.6302 Y13.3665
G01 X10.3791 Y11.1154
G01 X6.7829 Y11.0958
G01 X6.7741 Y11.1069
G01 X6.7581 Y11.1254
G01 X6.6953 Y11.1947
G01 X6.6784 Y11.2125
G01 X6.6606 Y11.2294
G01 X6.5913 Y11.2922
G01 X6.5728 Y11.3082
G01 X6.5534 Y11.3233
G01 X6.4783 Y11.3790
G01 X6.4583 Y11.3931
G01 X6.4375 Y11.4062
G01 X6.3574 Y11.4543
G01 X6.3360 Y11.4664
G01 X6.3141 Y11.4774
G01 X6.2296 Y11.5174
G01 X6.2071 Y11.5273
G01 X6.1842 Y11.5362
G01 X6.0962 Y11.5677
G01 X6.0729 Y11.5754
G01 X6.0493 Y11.5819
G01 X5.9586 Y11.6046
G01 X5.9347 Y11.6100
G01 X5.9105 Y11.6142
G01 X5.8180 Y11.6279
G01 X5.7937 Y11.6309
G01 X5.7692 Y11.6327
G01 X5.6636 Y11.6377
G01 X5.6390 Y11.6377
G01 X5.6268 Y11.6373
G01 X5.5334 Y11.6327
G01 X5.5089 Y11.6309
G01 X5.4846 Y11.6279
G01 X5.3921 Y11.6142
G01 X5.3679 Y11.6100
G01 X5.3440 Y11.6046
G01 X5.2533 Y11.5819
G01 X5.2297 Y11.5754
G01 X5.2064 Y11.5677
G01 X5.1183 Y11.5362
G01 X5.0955 Y11.5273
G01 X5.0730 Y11.5174
G01 X4.9885 Y11.4774
G01 X4.9666 Y11.4664
G01 X4.9452 Y11.4543
G01 X4.8651 Y11.4062
G01 X4.8443 Y11.3931
G01 X4.8342 Y11.3862
G01 X4.7394 Y11.3159
G01 X4.7298 Y11.3082
G01 X4.7113 Y11.2922
G01 X4.6420 Y11.2294
G01 X4.6242 Y11.2125
G01 X4.6073 Y11.1947
G01 X4.5637 Y11.1466
G01 X4.5632 Y11.1624
G01 X4.5614 Y11.1869
G01 X4.5584 Y11.2113
G01 X4.5542 Y11.2354
G01 X4.5488 Y11.2594
G01 X4.5423 Y11.2830
G01 X4.5346 Y11.3063
G01 X4.5303 Y11.3178
G01 X4.5257 Y11.3292
G01 X4.5158 Y11.3517
G01 X4.5048 Y11.3736
G01 X4.4927 Y11.3949
G01 X4.4862 Y11.4054
G01 X4.4726 Y11.4258
G01 X4.4580 Y11.4455
G01 X4.4424 Y11.4645
G01 X4.4259 Y11.4827
G01 X4.4086 Y11.5000
G01 X4.3996 Y11.5084
G01 X4.3810 Y11.5244
G01 X4.3714 Y11.5321
G01 X4.3517 Y11.5467
G01 X4.3313 Y11.5603
G01 X4.3102 Y11.5729
G01 X4.2886 Y11.5845
G01 X4.2664 Y11.5950
G01 X4.2437 Y11.6044
G01 X4.2322 Y11.6087
G01 X4.2089 Y11.6164
G01 X4.1853 Y11.6229
G01 X4.1613 Y11.6283
G01 X4.1372 Y11.6325
G01 X4.1250 Y11.6341
G01 X4.1006 Y11.6365
G01 X4.0761 Y11.6377
G01 X4.0638 Y11.6379
G01 X2.1588 Y11.6379
G01 X2.1343 Y11.6373
G01 X2.1098 Y11.6355
G01 X2.0976 Y11.6341
G01 X2.0854 Y11.6325
G01 X2.0613 Y11.6283
G01 X2.0492 Y11.6257
G01 X2.0254 Y11.6198
G01 X2.0020 Y11.6127
G01 X1.9904 Y11.6087
G01 X1.9789 Y11.6044
G01 X1.9562 Y11.5950
G01 X1.9340 Y11.5845
G01 X1.9231 Y11.5789
G01 X1.9017 Y11.5668
G01 X1.8913 Y11.5603
G01 X1.8709 Y11.5467
G01 X1.8512 Y11.5321
G01 X1.8322 Y11.5165
G01 X1.8140 Y11.5000
G01 X1.7967 Y11.4827
G01 X1.7802 Y11.4645
G01 X1.7723 Y11.4551
G01 X1.7572 Y11.4357
G01 X1.7431 Y11.4157
G01 X1.7299 Y11.3949
G01 X1.7238 Y11.3843
G01 X1.7122 Y11.3627
G01 X1.7017 Y11.3405
G01 X1.6923 Y11.3178
G01 X1.6840 Y11.2947
G01 X1.6769 Y11.2713
G01 X1.6709 Y11.2474
G01 X1.6684 Y11.2354
G01 X1.6642 Y11.2113
G01 X1.6612 Y11.1869
G01 X1.6594 Y11.1624
G01 X1.6588 Y11.1379
G01 X1.6588 Y9.2329
G01 X1.6589 Y9.2206
G01 X1.6602 Y9.1961
G01 X1.6626 Y9.1717
G01 X1.6662 Y9.1474
G01 X1.6709 Y9.1234
G01 X1.6738 Y9.1114
G01 X1.6803 Y9.0878
G01 X1.6880 Y9.0645
G01 X1.6969 Y9.0416
G01 X1.7017 Y9.0303
G01 X1.7122 Y9.0081
G01 X1.7238 Y8.9865
G01 X1.7364 Y8.9654
G01 X1.7500 Y8.9450
G01 X1.7646 Y8.9253
G01 X1.7723 Y8.9157
G01 X1.7883 Y8.8971
G01 X1.8052 Y8.8793
G01 X1.8230 Y8.8624
G01 X1.8322 Y8.8543
G01 X1.8512 Y8.8387
G01 X1.8709 Y8.8241
G01 X1.8913 Y8.8105
G01 X1.9124 Y8.7979
G01 X1.9340 Y8.7863
G01 X1.9450 Y8.7809
G01 X1.9675 Y8.7710
G01 X1.9904 Y8.7621
G01 X2.0137 Y8.7544
G01 X2.0373 Y8.7479
G01 X2.0613 Y8.7425
G01 X2.0854 Y8.7383
G01 X2.0976 Y8.7367
G01 X2.1220 Y8.7343
G01 X2.1343 Y8.7335
G01 X2.1588 Y8.7329
G01 X2.3063 Y8.7329
G01 X2.3063 Y5.1308
G01 X2.3069 Y5.1063
G01 X2.3092 Y5.0641
G01 X2.3116 Y5.0397
G01 X2.3176 Y4.9979
G01 X2.3218 Y4.9738
G01 X2.3272 Y4.9498
G01 X2.3376 Y4.9089
G01 X2.3447 Y4.8854
G01 X2.3631 Y4.8342
G01 X2.3676 Y4.8228
G01 X2.3776 Y4.8003
G01 X2.3904 Y4.7733
G01 X2.4014 Y4.7513
G01 X2.4135 Y4.7300
G01 X2.4289 Y4.7043
G01 X2.4353 Y4.6939
G01 X2.4489 Y4.6735
G01 X2.4814 Y4.6297
G01 X2.4970 Y4.6108
G01 X2.5335 Y4.5704
G01 X4.8127 Y2.2910
G00 Z2.0000
G00 X22.7271 Y8.9154
G01 F60.00
G01 Z-0.0500
G01 F120.00
G01 X22.6346 Y8.9710
G01 X22.6142 Y8.9846
G01 X22.6043 Y8.9918
G01 X22.5292 Y9.0475
G01 X22.5098 Y9.0626
G01 X22.4913 Y9.0786
G01 X22.4220 Y9.1414
G01 X22.4042 Y9.1583
G01 X22.3873 Y9.1761
G01 X22.3245 Y9.2454
G01 X22.3085 Y9.2639
G01 X22.2934 Y9.2833
G01 X22.2377 Y9.3584
G01 X22.2236 Y9.3784
G01 X22.2105 Y9.3992
G01 X22.1624 Y9.4793
G01 X22.1503 Y9.5007
G01 X22.1393 Y9.5226
G01 X22.0993 Y9.6071
G01 X22.0894 Y9.6296
G01 X22.0805 Y9.6525
G01 X22.0490 Y9.7405
G01 X22.0413 Y9.7638
G01 X22.0348 Y9.7874
G01 X22.0121 Y9.8781
G01 X22.0067 Y9.9020
G01 X22.0025 Y9.9262
G01 X21.9888 Y10.0187
G01 X21.9858 Y10.0430
G01 X21.9847 Y10.0553
G01 X21.9794 Y10.1609
G01 X21.9788 Y10.1854
G01 X21.9794 Y10.2099
G01 X21.9840 Y10.3033
G01 X21.9858 Y10.3278
G01 X21.9888 Y10.3521
G01 X22.0025 Y10.4446
G01 X22.0067 Y10.4688
G01 X22.0121 Y10.4927
G01 X22.0348 Y10.5834
G01 X22.0413 Y10.6070
G01 X22.0490 Y10.6303
G01 X22.0805 Y10.7183
G01 X22.0894 Y10.7412
G01 X22.0993 Y10.7637
G01 X22.1393 Y10.8482
G01 X22.1503 Y10.8701
G01 X22.1624 Y10.8915
G01 X22.2105 Y10.9716
G01 X22.2236 Y10.9924
G01 X22.2377 Y11.0124
G01 X22.2934 Y11.0875
G01 X22.3085 Y11.1069
G01 X22.3245 Y11.1254
G01 X22.3873 Y11.1947
G01 X22.4042 Y11.2125
G01 X22.4220 Y11.2294
G01 X22.4913 Y11.2922
G01 X22.5098 Y11.3082
G01 X22.5292 Y11.3233
G01 X22.6043 Y11.3790
G01 X22.6243 Y11.3931
G01 X22.6451 Y11.4062
G01 X22.7271 Y11.4554
G01 X22.6346 Y11.5110
G01 X22.6142 Y11.5246
G01 X22.6043 Y11.5318
G01 X22.5292 Y11.5875
G01 X22.5098 Y11.6026
G01 X22.4913 Y11.6186
G01 X22.4220 Y11.6814
G01 X22.4042 Y11.6983
G01 X22.3873 Y11.7161
G01 X22.3245 Y11.7854
G01 X22.3085 Y11.8039
G01 X22.2934 Y11.8233
G01 X22.2377 Y11.8984
G01 X22.2236 Y11.9184
G01 X22.2105 Y11.9392
G01 X22.1624 Y12.0193
G01 X22.1503 Y12.0407
G01 X22.1393 Y12.0626
G01 X22.0993 Y12.1471
G01 X22.0894 Y12.1696
G01 X22.0805 Y12.1925
G01 X22.0490 Y12.2805
G01 X22.0413 Y12.3038
G01 X22.0348 Y12.3274
G01 X22.0121 Y12.4181
G01 X22.0093 Y12.4300
G01 X22.0045 Y12.4541
G01 X21.9871 Y12.5708
G01 X21.9858 Y12.5830
G01 X21.9840 Y12.6075
G01 X21.9794 Y12.7009
G01 X21.9788 Y12.7254
G01 X21.9794 Y12.7499
G01 X21.9840 Y12.8433
G01 X21.9858 Y12.8678
G01 X21.9888 Y12.8921
G01 X22.0025 Y12.9846
G01 X22.0067 Y13.0088
G01 X22.0121 Y13.0327
G01 X22.0348 Y13.1234
G01 X22.0379 Y13.1353
G01 X22.0450 Y13.1587
G01 X22.0848 Y13.2699
G01 X22.0942 Y13.2925
G01 X22.0993 Y13.3037
G01 X22.1393 Y13.3882
G01 X22.1503 Y13.4101
G01 X22.1624 Y13.4315
G01 X22.2105 Y13.5116
G01 X22.2236 Y13.5324
G01 X22.2305 Y13.5425
G01 X22.3008 Y13.6373
G01 X22.3085 Y13.6469
G01 X22.3245 Y13.6654
G01 X22.3873 Y13.7347
G01 X22.4042 Y13.7525
G01 X22.4220 Y13.7694
G01 X22.4701 Y13.8130
G01 X22.4543 Y13.8135
G01 X22.4298 Y13.8153
G01 X22.4054 Y13.8183
G01 X22.3813 Y13.8225
G01 X22.3573 Y13.8279
G01 X22.3454 Y13.8310
G01 X22.3220 Y13.8381
G01 X22.2989 Y13.8464
G01 X22.2762 Y13.8558
G01 X22.2650 Y13.8609
G01 X22.2431 Y13.8719
G01 X22.2217 Y13.8840
G01 X22.2010 Y13.8972
G01 X22.1809 Y13.9113
G01 X22.1616 Y13.9264
G01 X22.1430 Y13.9424
G01 X22.1252 Y13.9593
G01 X22.1083 Y13.9771
G01 X22.0923 Y13.9957
G01 X22.0772 Y14.0151
G01 X22.0631 Y14.0351
G01 X22.0499 Y14.0559
G01 X22.0378 Y14.0772
G01 X22.0322 Y14.0881
G01 X22.0217 Y14.1103
G01 X22.0123 Y14.1330
G01 X22.0080 Y14.1445
G01 X22.0003 Y14.1678
G01 X21.9938 Y14.1914
G01 X21.9884 Y14.2154
G01 X21.9842 Y14.2395
G01 X21.9826 Y14.2517
G01 X21.9812 Y14.2639
G01 X21.9794 Y14.2884
G01 X21.9788 Y14.3129
G01 X21.9788 Y16.2179
G01 X21.9794 Y16.2424
G01 X21.9802 Y16.2547
G01 X21.9826 Y16.2791
G01 X21.9862 Y16.3034
G01 X21.9909 Y16.3274
G01 X21.9969 Y16.3513
G01 X22.0040 Y16.3747
G01 X22.0123 Y16.3978
G01 X22.0169 Y16.4092
G01 X22.0268 Y16.4317
G01 X22.0378 Y16.4536
G01 X22.0499 Y16.4749
G01 X22.0631 Y16.4957
G01 X22.0772 Y16.5157
G01 X22.0923 Y16.5351
G01 X22.1002 Y16.5445
G01 X22.1167 Y16.5627
G01 X22.1340 Y16.5800
G01 X22.1522 Y16.5965
G01 X22.1712 Y16.6121
G01 X22.1909 Y16.6267
G01 X22.2113 Y16.6403
G01 X22.2324 Y16.6529
G01 X22.2540 Y16.6645
G01 X22.2762 Y16.6750
G01 X22.2989 Y16.6844
G01 X22.3220 Y16.6927
G01 X22.3454 Y16.6998
G01 X22.3692 Y16.7057
G01 X22.3933 Y16.7105
G01 X22.4176 Y16.7141
G01 X22.4420 Y16.7165
G01 X22.4665 Y16.7177
G01 X24.3838 Y16.7179
G01 X24.4083 Y16.7173
G01 X24.4328 Y16.7155
G01 X24.4450 Y16.7141
G01 X24.4693 Y16.7105
G01 X24.4933 Y16.7057
G01 X24.5172 Y16.6998
G01 X24.5289 Y16.6964
G01 X24.5406 Y16.6927
G01 X24.5637 Y16.6844
G01 X24.5751 Y16.6798
G01 X24.5976 Y16.6699
G01 X24.6195 Y16.6589
G01 X24.6408 Y16.6468
G01 X24.6616 Y16.6336
G01 X24.6717 Y16.6267
G01 X24.6914 Y16.6121
G01 X24.7104 Y16.5965
G01 X24.7286 Y16.5800
G01 X24.7459 Y16.5627
G01 X24.7624 Y16.5445
G01 X24.7780 Y16.5255
G01 X24.7926 Y16.5058
G01 X24.8062 Y16.4854
G01 X24.8188 Y16.4643
G01 X24.8304 Y16.4427
G01 X24.8409 Y16.4205
G01 X24.8503 Y16.3978
G01 X24.8586 Y16.3747
G01 X24.8657 Y16.3513
G01 X24.8716 Y16.3274
G01 X24.8764 Y16.3034
G01 X24.8800 Y16.2791
G01 X24.8824 Y16.2547
G01 X24.8832 Y16.2424
G01 X24.8838 Y16.2179
G01 X24.8838 Y14.3129
G01 X24.8832 Y14.2884
G01 X24.8814 Y14.2639
G01 X24.8800 Y14.2517
G01 X24.8764 Y14.2274
G01 X24.8716 Y14.2034
G01 X24.8657 Y14.1795
G01 X24.8586 Y14.1561
G01 X24.8503 Y14.1330
G01 X24.8457 Y14.1216
G01 X24.8358 Y14.0991
G01 X24.8248 Y14.0772
G01 X24.8127 Y14.0559
G01 X24.7995 Y14.0351
G01 X24.7926 Y14.0250
G01 X24.7780 Y14.0053
G01 X24.7624 Y13.9863
G01 X24.7459 Y13.9681
G01 X24.7286 Y13.9508
G01 X24.7196 Y13.9424
G01 X24.7104 Y13.9343
G01 X24.6914 Y13.9187
G01 X24.6717 Y13.9041
G01 X24.6513 Y13.8905
G01 X24.6302 Y13.8779
G01 X24.6086 Y13.8663
G01 X24.5864 Y13.8558
G01 X24.5637 Y13.8464
G01 X24.5522 Y13.8421
G01 X24.5289 Y13.8344
G01 X24.5053 Y13.8279
G01 X24.4813 Y13.8225
G01 X24.4572 Y13.8183
G01 X24.4328 Y13.8153
G01 X24.4083 Y13.8135
G01 X24.3925 Y13.8130
G01 X24.4496 Y13.7610
G01 X24.4669 Y13.7437
G01 X24.5381 Y13.6654
G01 X24.5541 Y13.6469
G01 X24.5658 Y13.6320
G01 X25.5704 Y13.6320
G01 X27.0654 Y15.1271
G01 X27.0640 Y15.1475
G01 X27.0594 Y15.2409
G01 X27.0588 Y15.2654
G01 X27.0594 Y15.2899
G01 X27.0640 Y15.3833
G01 X27.0658 Y15.4078
G01 X27.0671 Y15.4200
G01 X27.0825 Y15.5246
G01 X27.0867 Y15.5488
G01 X27.0921 Y15.5727
G01 X27.1148 Y15.6634
G01 X27.1213 Y15.6870
G01 X27.1290 Y15.7103
G01 X27.1605 Y15.7983
G01 X27.1694 Y15.8212
G01 X27.1793 Y15.8437
G01 X27.2193 Y15.9282
G01 X27.2303 Y15.9501
G01 X27.2424 Y15.9715
G01 X27.2905 Y16.0516
G01 X27.3036 Y16.0724
G01 X27.3105 Y16.0825
G01 X27.3734 Y16.1675
G01 X27.3885 Y16.1869
G01 X27.4045 Y16.2054
G01 X27.4673 Y16.2747
G01 X27.4842 Y16.2925
G01 X27.5020 Y16.3094
G01 X27.5713 Y16.3722
G01 X27.5898 Y16.3882
G01 X27.6092 Y16.4033
G01 X27.6843 Y16.4590
G01 X27.7043 Y16.4731
G01 X27.7251 Y16.4862
G01 X27.8052 Y16.5343
G01 X27.8266 Y16.5464
G01 X27.8485 Y16.5574
G01 X27.9330 Y16.5974
G01 X27.9442 Y16.6025
G01 X27.9668 Y16.6119
G01 X28.0664 Y16.6477
G01 X28.0897 Y16.6554
G01 X28.1133 Y16.6619
G01 X28.2159 Y16.6874
G01 X28.2400 Y16.6922
G01 X28.2521 Y16.6942
G01 X28.3446 Y16.7079
G01 X28.3689 Y16.7109
G01 X28.3934 Y16.7127
G01 X28.4868 Y16.7173
G01 X28.5113 Y16.7179
G01 X28.5358 Y16.7173
G01 X28.6292 Y16.7127
G01 X28.6537 Y16.7109
G01 X28.6780 Y16.7079
G01 X28.7705 Y16.6942
G01 X28.7947 Y16.6900
G01 X28.8186 Y16.6846
G01 X28.9093 Y16.6619
G01 X28.9329 Y16.6554
G01 X28.9446 Y16.6516
G01 X29.0442 Y16.6162
G01 X29.0671 Y16.6073
G01 X29.0896 Y16.5974
G01 X29.1741 Y16.5574
G01 X29.1960 Y16.5464
G01 X29.2174 Y16.5343
G01 X29.2975 Y16.4862
G01 X29.3183 Y16.4731
G01 X29.3383 Y16.4590
G01 X29.4134 Y16.4033
G01 X29.4328 Y16.3882
G01 X29.4513 Y16.3722
G01 X29.5206 Y16.3094
G01 X29.5384 Y16.2925
G01 X29.5553 Y16.2747
G01 X29.6262 Y16.1962
G01 X29.6458 Y16.1720
G01 X32.4568 Y16.1720
G01 X32.4685 Y16.1869
G01 X32.4845 Y16.2054
G01 X32.5473 Y16.2747
G01 X32.5642 Y16.2925
G01 X32.5820 Y16.3094
G01 X32.6513 Y16.3722
G01 X32.6698 Y16.3882
G01 X32.6892 Y16.4033
G01 X32.7643 Y16.4590
G01 X32.7843 Y16.4731
G01 X32.8051 Y16.4862
G01 X32.8852 Y16.5343
G01 X32.9066 Y16.5464
G01 X32.9285 Y16.5574
G01 X33.0130 Y16.5974
G01 X33.0355 Y16.6073
G01 X33.0583 Y16.6162
G01 X33.1464 Y16.6477
G01 X33.1697 Y16.6554
G01 X33.1933 Y16.6619
G01 X33.2840 Y16.6846
G01 X33.3079 Y16.6900
G01 X33.3321 Y16.6942
G01 X33.4246 Y16.7079
G01 X33.4489 Y16.7109
G01 X33.4734 Y16.7127
G01 X33.5668 Y16.7173
G01 X33.5913 Y16.7179
G01 X33.6158 Y16.7173
G01 X33.7092 Y16.7127
G01 X33.7337 Y16.7109
G01 X33.7474 Y16.7093
G01 X35.1993 Y18.1779
G01 X35.1993 Y22.9108
G01 X35.1999 Y22.9415
G01 X35.2028 Y22.9904
G01 X35.2072 Y23.0301
G01 X35.2150 Y23.0785
G01 X35.2179 Y23.0934
G01 X35.2232 Y23.1176
G01 X35.2357 Y23.1650
G01 X35.2401 Y23.1796
G01 X35.2478 Y23.2031
G01 X35.2530 Y23.2174
G01 X35.2648 Y23.2491
G01 X35.2744 Y23.2720
G01 X35.2806 Y23.2858
G01 X35.3020 Y23.3299
G01 X35.3213 Y23.3649
G01 X35.3470 Y23.4067
G01 X35.3696 Y23.4397
G01 X35.3992 Y23.4787
G01 X35.4150 Y23.4978
G01 X35.4353 Y23.5205
G01 X35.4583 Y23.5452
G01 X35.4759 Y23.5627
G01 X35.4869 Y23.5731
G01 X35.5236 Y23.6056
G01 X35.5548 Y23.6306
G01 X35.5945 Y23.6594
G01 X35.6280 Y23.6812
G01 X35.6703 Y23.7059
G01 X35.6922 Y23.7175
G01 X35.7058 Y23.7243
G01 X35.7504 Y23.7447
G01 X35.7733 Y23.7542
G01 X35.8019 Y23.7646
G01 X35.8338 Y23.7756
G01 X35.8575 Y23.7827
G01 X35.8722 Y23.7867
G01 X35.9199 Y23.7981
G01 X35.9442 Y23.8028
G01 X35.9743 Y23.8075
G01 X36.0078 Y23.8120
G01 X36.0476 Y23.8155
G01 X36.0966 Y23.8173
G01 X36.1272 Y23.8171
G01 X37.3952 Y23.7873
G01 X37.4048 Y23.8145
G01 X37.4094 Y23.8259
G01 X37.4193 Y23.8484
G01 X37.4247 Y23.8594
G01 X37.4363 Y23.8810
G01 X37.4489 Y23.9021
G01 X37.4556 Y23.9124
G01 X37.4697 Y23.9324
G01 X37.4771 Y23.9422
G01 X37.4927 Y23.9612
G01 X37.5008 Y23.9704
G01 X37.5092 Y23.9794
G01 X37.5265 Y23.9967
G01 X37.5355 Y24.0051
G01 X37.5541 Y24.0211
G01 X37.5637 Y24.0288
G01 X37.5834 Y24.0434
G01 X37.6038 Y24.0570
G01 X37.6142 Y24.0635
G01 X37.6249 Y24.0696
G01 X37.6465 Y24.0812
G01 X37.6575 Y24.0866
G01 X37.6800 Y24.0965
G01 X37.6914 Y24.1011
G01 X37.7145 Y24.1094
G01 X37.7379 Y24.1165
G01 X37.7498 Y24.1196
G01 X37.7738 Y24.1250
G01 X37.7858 Y24.1272
G01 X37.8101 Y24.1308
G01 X37.8223 Y24.1322
G01 X37.8468 Y24.1340
G01 X37.8713 Y24.1346
G01 X39.4836 Y24.1344
G01 X39.5081 Y24.1332
G01 X39.5325 Y24.1308
G01 X39.5568 Y24.1272
G01 X39.5688 Y24.1250
G01 X39.5928 Y24.1196
G01 X39.6046 Y24.1165
G01 X39.6281 Y24.1094
G01 X39.6512 Y24.1011
G01 X39.6739 Y24.0917
G01 X39.6961 Y24.0812
G01 X39.7070 Y24.0756
G01 X39.7283 Y24.0635
G01 X39.7491 Y24.0503
G01 X39.7691 Y24.0362
G01 X39.7885 Y24.0211
G01 X39.7979 Y24.0132
G01 X39.8161 Y23.9967
G01 X39.8334 Y23.9794
G01 X39.8418 Y23.9704
G01 X39.8578 Y23.9518
G01 X39.8729 Y23.9324
G01 X39.8801 Y23.9225
G01 X39.8870 Y23.9124
G01 X39.9002 Y23.8916
G01 X39.9123 Y23.8703
G01 X39.9233 Y23.8484
G01 X39.9332 Y23.8259
G01 X39.9378 Y23.8145
G01 X39.9421 Y23.8030
G01 X39.9498 Y23.7797
G01 X39.9563 Y23.7561
G01 X39.9617 Y23.7321
G01 X39.9639 Y23.7201
G01 X39.9675 Y23.6958
G01 X39.9689 Y23.6836
G01 X39.9707 Y23.6591
G01 X39.9713 Y23.6346
G01 X39.9713 Y22.0346
G01 X39.9707 Y22.0101
G01 X39.9689 Y21.9856
G01 X39.9659 Y21.9612
G01 X39.9617 Y21.9371
G01 X39.9591 Y21.9251
G01 X39.9532 Y21.9012
G01 X39.9461 Y21.8778
G01 X39.9378 Y21.8547
G01 X39.9284 Y21.8320
G01 X39.9179 Y21.8098
G01 X39.9063 Y21.7882
G01 X39.9002 Y21.7776
G01 X39.8870 Y21.7568
G01 X39.8729 Y21.7368
G01 X39.8578 Y21.7174
G01 X39.8418 Y21.6988
G01 X39.8248 Y21.6811
G01 X39.8071 Y21.6641
G01 X39.7979 Y21.6560
G01 X39.7885 Y21.6481
G01 X39.7691 Y21.6330
G01 X39.7491 Y21.6189
G01 X39.7283 Y21.6057
G01 X39.7070 Y21.5936
G01 X39.6961 Y21.5880
G01 X39.6739 Y21.5775
G01 X39.6512 Y21.5681
G01 X39.6281 Y21.5598
G01 X39.6046 Y21.5527
G01 X39.5808 Y21.5468
G01 X39.5568 Y21.5420
G01 X39.5325 Y21.5384
G01 X39.5081 Y21.5360
G01 X39.4958 Y21.5352
G01 X39.4713 Y21.5346
G01 X39.1952 Y21.5346
G01 X39.2622 Y21.5029
G01 X39.2841 Y21.4919
G01 X39.2949 Y21.4860
G01 X39.3728 Y21.4394
G01 X39.3935 Y21.4263
G01 X39.4037 Y21.4194
G01 X39.4767 Y21.3654
G01 X39.4864 Y21.3580
G01 X39.5054 Y21.3424
G01 X39.5817 Y21.2732
G01 X39.5991 Y21.2559
G01 X39.6085 Y21.2457
G01 X40.2793 Y21.2376
G01 X40.2793 Y27.2414
G01 X40.2387 Y27.1554
G01 X40.2276 Y27.1335
G01 X40.2155 Y27.1122
G01 X40.1453 Y26.9953
G01 X40.1316 Y26.9749
G01 X40.1245 Y26.9649
G01 X40.0505 Y26.8652
G01 X40.0354 Y26.8459
G01 X40.0275 Y26.8365
G01 X39.9361 Y26.7353
G01 X39.9191 Y26.7176
G01 X39.9014 Y26.7006
G01 X39.8094 Y26.6173
G01 X39.7908 Y26.6013
G01 X39.7715 Y26.5862
G01 X39.6718 Y26.5122
G01 X39.6517 Y26.4981
G01 X39.6310 Y26.4850
G01 X39.5245 Y26.4212
G01 X39.5032 Y26.4091
G01 X39.4813 Y26.3980
G01 X39.3691 Y26.3450
G01 X39.3466 Y26.3350
G01 X39.3237 Y26.3262
G01 X39.2069 Y26.2844
G01 X39.1836 Y26.2767
G01 X39.1599 Y26.2701
G01 X39.0395 Y26.2400
G01 X39.0156 Y26.2346
G01 X38.9914 Y26.2304
G01 X38.8686 Y26.2122
G01 X38.8443 Y26.2092
G01 X38.8198 Y26.2074
G01 X38.6836 Y26.2008
G01 X38.6590 Y26.2008
G01 X38.6468 Y26.2013
G01 X38.5228 Y26.2074
G01 X38.4983 Y26.2092
G01 X38.4740 Y26.2122
G01 X38.3512 Y26.2304
G01 X38.3270 Y26.2346
G01 X38.3031 Y26.2400
G01 X38.1827 Y26.2701
G01 X38.1590 Y26.2767
G01 X38.1357 Y26.2844
G01 X38.0189 Y26.3262
G01 X37.9960 Y26.3350
G01 X37.9735 Y26.3450
G01 X37.8613 Y26.3980
G01 X37.8394 Y26.4091
G01 X37.8287 Y26.4150
G01 X37.7116 Y26.4850
G01 X37.6909 Y26.4981
G01 X37.6708 Y26.5122
G01 X37.5711 Y26.5862
G01 X37.5518 Y26.6013
G01 X37.5332 Y26.6173
G01 X37.4322 Y26.7090
G01 X37.4235 Y26.7176
G01 X37.4065 Y26.7353
G01 X37.3232 Y26.8273
G01 X37.3072 Y26.8459
G01 X37.2995 Y26.8555
G01 X37.2109 Y26.9749
G01 X37.1973 Y26.9953
G01 X37.1591 Y27.0588
G01 X32.1858 Y27.0588
G01 X32.1741 Y27.0439
G01 X32.1581 Y27.0254
G01 X32.0953 Y26.9561
G01 X32.0784 Y26.9383
G01 X32.0606 Y26.9214
G01 X31.9913 Y26.8586
G01 X31.9728 Y26.8426
G01 X31.9616 Y26.8338
G01 X31.9832 Y22.8992
G01 X31.9811 Y22.8514
G01 X31.9791 Y22.8233
G01 X31.9759 Y22.7976
G01 X31.9709 Y22.7630
G01 X31.9661 Y22.7353
G01 X31.9605 Y22.7100
G01 X31.9521 Y22.6761
G01 X31.9447 Y22.6489
G01 X31.9366 Y22.6243
G01 X31.9249 Y22.5914
G01 X31.9148 Y22.5651
G01 X31.9043 Y22.5414
G01 X31.8895 Y22.5098
G01 X31.8769 Y22.4847
G01 X31.8642 Y22.4621
G01 X31.8463 Y22.4321
G01 X31.8325 Y22.4101
G01 X31.8164 Y22.3871
G01 X31.7957 Y22.3590
G01 X31.7798 Y22.3385
G01 X31.7615 Y22.3171
G01 X31.7293 Y22.2816
G01 X29.1524 Y19.7043
G01 X29.1346 Y19.6874
G01 X29.0988 Y19.6550
G01 X29.0774 Y19.6373
G01 X29.0283 Y19.6008
G01 X29.0052 Y19.5852
G01 X28.9640 Y19.5602
G01 X28.9398 Y19.5464
G01 X28.9167 Y19.5348
G01 X28.8848 Y19.5196
G01 X28.8613 Y19.5091
G01 X28.8353 Y19.4990
G01 X28.8021 Y19.4870
G01 X28.7776 Y19.4788
G01 X28.7508 Y19.4713
G01 X28.7040 Y19.4596
G01 X28.6767 Y19.4541
G01 X28.6163 Y19.4450
G01 X28.5886 Y19.4422
G01 X28.5404 Y19.4395
G01 X28.5159 Y19.4388
G01 X23.8288 Y19.4153
G01 X21.7988 Y17.4255
G01 X21.8210 Y8.5377
G01 X22.2904 Y8.5434
G01 X22.3008 Y8.5573
G01 X22.3164 Y8.5762
G01 X22.3957 Y8.6637
G01 X22.4042 Y8.6725
G01 X22.4220 Y8.6894
G01 X22.5005 Y8.7603
G01 X22.5194 Y8.7759
G01 X22.5292 Y8.7833
G01 X22.6043 Y8.8390
G01 X22.6243 Y8.8531
G01 X22.6451 Y8.8662
G01 X22.7271 Y8.9154
G00 Z2.0000
G00 X18.6047 Y21.8659
G01 F60.00
G01 Z-0.0500
G01 F120.00
G01 X19.1622 Y20.7508
G01 X19.1849 Y20.7015
G01 X19.1943 Y20.6788
G01 X19.2023 Y20.6579
G01 X19.2195 Y20.6064
G01 X19.2288 Y20.5730
G01 X19.2409 Y20.5201
G01 X19.2469 Y20.4859
G01 X19.2538 Y20.4320
G01 X19.2563 Y20.3974
G01 X19.2579 Y20.3431
G01 X19.2325 Y10.1634
G01 X19.2541 Y8.0019
G01 X20.1998 Y7.0656
G01 X20.1754 Y7.0981
G01 X20.1581 Y7.1237
G01 X20.1279 Y7.1733
G01 X20.1194 Y7.1885
G01 X20.1071 Y7.2125
G01 X20.0879 Y7.2528
G01 X20.0824 Y7.2651
G01 X20.0758 Y7.2812
G01 X20.0559 Y7.3358
G01 X20.0505 Y7.3523
G01 X20.0432 Y7.3783
G01 X20.0321 Y7.4215
G01 X20.0259 Y7.4518
G01 X20.0170 Y7.5092
G01 X20.0149 Y7.5265
G01 X20.0128 Y7.5534
G01 X20.0104 Y7.5979
G01 X20.0101 Y7.6114
G01 X19.9847 Y17.8063
G01 X19.9850 Y17.8252
G01 X19.9856 Y17.8390
G01 X19.9879 Y17.8813
G01 X19.9892 Y17.8951
G01 X19.9913 Y17.9139
G01 X19.9932 Y17.9276
G01 X19.9997 Y17.9695
G01 X20.0023 Y17.9831
G01 X20.0062 Y18.0016
G01 X20.0095 Y18.0150
G01 X20.0201 Y18.0561
G01 X20.0240 Y18.0694
G01 X20.0297 Y18.0874
G01 X20.0489 Y18.1403
G01 X20.0615 Y18.1705
G01 X20.0797 Y18.2088
G01 X20.0922 Y18.2335
G01 X20.1013 Y18.2501
G01 X20.1084 Y18.2620
G01 X20.1304 Y18.2982
G01 X20.1380 Y18.3098
G01 X20.1487 Y18.3254
G01 X20.1569 Y18.3365
G01 X20.1824 Y18.3704
G01 X20.1910 Y18.3812
G01 X20.2032 Y18.3957
G01 X20.2125 Y18.4059
G01 X20.2412 Y18.4372
G01 X20.2508 Y18.4471
G01 X22.8221 Y20.9674
G01 X22.8309 Y20.9759
G01 X22.8595 Y21.0018
G01 X22.8809 Y21.0203
G01 X22.8968 Y21.0330
G01 X22.9407 Y21.0654
G01 X22.9574 Y21.0767
G01 X22.9814 Y21.0917
G01 X23.0162 Y21.1124
G01 X23.0466 Y21.1285
G01 X23.0960 Y21.1517
G01 X23.1278 Y21.1648
G01 X23.1793 Y21.1831
G01 X23.1986 Y21.1891
G01 X23.2259 Y21.1965
G01 X23.2652 Y21.2061
G01 X23.2790 Y21.2090
G01 X23.2990 Y21.2127
G01 X23.3390 Y21.2187
G01 X23.3670 Y21.2222
G01 X23.3872 Y21.2239
G01 X23.4399 Y21.2264
G01 X28.1339 Y21.2501
G01 X30.1680 Y23.2843
G01 X30.1484 Y26.8281
G01 X30.1298 Y26.8426
G01 X30.1113 Y26.8586
G01 X30.0420 Y26.9214
G01 X30.0242 Y26.9383
G01 X30.0073 Y26.9561
G01 X29.9445 Y27.0254
G01 X29.9285 Y27.0439
G01 X29.9134 Y27.0633
G01 X29.8577 Y27.1384
G01 X29.8436 Y27.1584
G01 X29.8305 Y27.1792
G01 X29.7824 Y27.2593
G01 X29.7703 Y27.2807
G01 X29.7593 Y27.3026
G01 X29.7193 Y27.3871
G01 X29.7094 Y27.4096
G01 X29.7005 Y27.4325
G01 X29.6690 Y27.5205
G01 X29.6613 Y27.5438
G01 X29.6579 Y27.5555
G01 X29.6321 Y27.6581
G01 X29.6267 Y27.6820
G01 X29.6225 Y27.7062
G01 X29.6088 Y27.7987
G01 X29.6058 Y27.8230
G01 X29.6040 Y27.8475
G01 X29.5994 Y27.9409
G01 X29.5988 Y27.9654
G01 X29.5994 Y27.9899
G01 X29.6040 Y28.0833
G01 X29.6058 Y28.1078
G01 X29.6088 Y28.1321
G01 X29.6225 Y28.2246
G01 X29.6267 Y28.2488
G01 X29.6321 Y28.2727
G01 X29.6548 Y28.3634
G01 X29.6613 Y28.3870
G01 X29.6690 Y28.4103
G01 X29.7005 Y28.4983
G01 X29.7094 Y28.5212
G01 X29.7142 Y28.5325
G01 X29.7593 Y28.6282
G01 X29.7703 Y28.6501
G01 X29.7824 Y28.6715
G01 X29.8305 Y28.7516
G01 X29.8436 Y28.7724
G01 X29.8505 Y28.7825
G01 X29.9208 Y28.8773
G01 X29.9364 Y28.8962
G01 X29.9445 Y28.9054
G01 X30.0073 Y28.9747
G01 X30.0242 Y28.9925
G01 X30.0420 Y29.0094
G01 X30.0901 Y29.0530
G01 X30.0743 Y29.0535
G01 X30.0498 Y29.0553
G01 X30.0254 Y29.0583
G01 X30.0133 Y29.0603
G01 X29.9892 Y29.0651
G01 X29.9654 Y29.0710
G01 X29.9420 Y29.0781
G01 X29.9304 Y29.0821
G01 X29.9075 Y29.0910
G01 X29.8962 Y29.0958
G01 X29.8740 Y29.1063
G01 X29.8524 Y29.1179
G01 X29.8417 Y29.1240
G01 X29.8210 Y29.1372
G01 X29.8009 Y29.1513
G01 X29.7816 Y29.1664
G01 X29.7722 Y29.1743
G01 X29.7540 Y29.1908
G01 X29.7367 Y29.2081
G01 X29.7202 Y29.2263
G01 X29.7046 Y29.2453
G01 X29.6900 Y29.2650
G01 X29.6831 Y29.2751
G01 X29.6699 Y29.2959
G01 X29.6638 Y29.3065
G01 X29.6522 Y29.3281
G01 X29.6417 Y29.3503
G01 X29.6323 Y29.3730
G01 X29.6240 Y29.3961
G01 X29.6169 Y29.4195
G01 X29.6109 Y29.4434
G01 X29.6084 Y29.4554
G01 X29.6042 Y29.4795
G01 X29.6012 Y29.5039
G01 X29.5994 Y29.5284
G01 X29.5988 Y29.5529
G01 X29.5988 Y31.4579
G01 X29.5994 Y31.4824
G01 X29.6002 Y31.4947
G01 X29.6026 Y31.5191
G01 X29.6062 Y31.5434
G01 X29.6109 Y31.5674
G01 X29.6169 Y31.5913
G01 X29.6240 Y31.6147
G01 X29.6323 Y31.6378
G01 X29.6417 Y31.6605
G01 X29.6522 Y31.6827
G01 X29.6638 Y31.7043
G01 X29.6764 Y31.7254
G01 X29.6900 Y31.7458
G01 X29.7046 Y31.7655
G01 X29.7202 Y31.7845
G01 X29.7367 Y31.8027
G01 X29.7540 Y31.8200
G01 X29.7722 Y31.8365
G01 X29.7816 Y31.8444
G01 X29.8009 Y31.8595
G01 X29.8210 Y31.8736
G01 X29.8313 Y31.8803
G01 X29.8523 Y31.8929
G01 X29.8740 Y31.9045
G01 X29.8962 Y31.9150
G01 X29.9188 Y31.9244
G01 X29.9420 Y31.9327
G01 X29.9654 Y31.9398
G01 X29.9892 Y31.9457
G01 X30.0133 Y31.9505
G01 X30.0376 Y31.9541
G01 X30.0498 Y31.9555
G01 X30.0743 Y31.9573
G01 X30.0988 Y31.9579
G01 X30.1323 Y31.9579
G01 X30.1302 Y32.1388
G01 X28.9122 Y32.1388
G01 X26.6067 Y29.8334
G01 X26.5968 Y29.8238
G01 X26.5650 Y29.7952
G01 X26.5441 Y29.7773
G01 X26.5295 Y29.7657
G01 X26.4839 Y29.7323
G01 X26.4684 Y29.7218
G01 X26.4450 Y29.7073
G01 X26.4081 Y29.6856
G01 X26.3794 Y29.6705
G01 X26.3281 Y29.6466
G01 X26.2981 Y29.6344
G01 X26.2447 Y29.6157
G01 X26.2136 Y29.6064
G01 X26.1587 Y29.5930
G01 X26.1268 Y29.5869
G01 X26.0709 Y29.5789
G01 X26.0523 Y29.5770
G01 X26.0248 Y29.5752
G01 X25.9821 Y29.5735
G01 X25.9604 Y29.5735
G01 X24.5592 Y29.5903
G01 X24.5462 Y29.5746
G01 X24.5381 Y29.5654
G01 X24.4753 Y29.4961
G01 X24.4584 Y29.4783
G01 X24.4406 Y29.4614
G01 X24.3713 Y29.3986
G01 X24.3528 Y29.3826
G01 X24.3416 Y29.3738
G01 X24.3633 Y25.4558
G01 X24.3620 Y25.4067
G01 X24.3604 Y25.3780
G01 X24.3584 Y25.3568
G01 X24.3513 Y25.3039
G01 X24.3476 Y25.2830
G01 X24.3416 Y25.2549
G01 X24.3326 Y25.2170
G01 X24.3227 Y25.1827
G01 X24.3054 Y25.1322
G01 X24.3003 Y25.1188
G01 X24.2923 Y25.0991
G01 X24.2710 Y25.0525
G01 X23.4734 Y23.4760
G01 X23.4867 Y23.4477
G01 X23.4961 Y23.4250
G01 X23.5314 Y23.3267
G01 X23.5354 Y23.3150
G01 X23.5425 Y23.2916
G01 X23.5681 Y23.1902
G01 X23.5734 Y23.1663
G01 X23.5776 Y23.1421
G01 X23.5912 Y23.0509
G01 X23.5942 Y23.0265
G01 X23.5960 Y23.0021
G01 X23.6005 Y22.9099
G01 X23.6011 Y22.8854
G01 X23.6005 Y22.8609
G01 X23.5960 Y22.7687
G01 X23.5942 Y22.7443
G01 X23.5912 Y22.7199
G01 X23.5776 Y22.6287
G01 X23.5734 Y22.6045
G01 X23.5709 Y22.5925
G01 X23.5456 Y22.4911
G01 X23.5391 Y22.4674
G01 X23.5314 Y22.4441
G01 X23.4961 Y22.3458
G01 X23.4915 Y22.3344
G01 X23.4816 Y22.3120
G01 X23.4421 Y22.2286
G01 X23.4311 Y22.2067
G01 X23.4190 Y22.1853
G01 X23.3716 Y22.1062
G01 X23.3584 Y22.0855
G01 X23.3443 Y22.0654
G01 X23.2894 Y21.9913
G01 X23.2743 Y21.9720
G01 X23.2582 Y21.9534
G01 X23.1963 Y21.8851
G01 X23.1794 Y21.8673
G01 X23.1616 Y21.8504
G01 X23.0933 Y21.7885
G01 X23.0747 Y21.7724
G01 X23.0553 Y21.7573
G01 X22.9813 Y21.7024
G01 X22.9612 Y21.6883
G01 X22.9405 Y21.6751
G01 X22.8614 Y21.6277
G01 X22.8400 Y21.6156
G01 X22.8181 Y21.6046
G01 X22.7347 Y21.5651
G01 X22.7123 Y21.5552
G01 X22.6894 Y21.5464
G01 X22.6026 Y21.5153
G01 X22.5792 Y21.5076
G01 X22.5556 Y21.5011
G01 X22.4542 Y21.4758
G01 X22.4422 Y21.4733
G01 X22.4180 Y21.4691
G01 X22.3268 Y21.4555
G01 X22.3024 Y21.4525
G01 X22.2779 Y21.4507
G01 X22.1858 Y21.4462
G01 X22.1613 Y21.4456
G01 X22.1368 Y21.4462
G01 X22.0446 Y21.4507
G01 X22.0202 Y21.4525
G01 X21.9958 Y21.4555
G01 X21.9046 Y21.4691
G01 X21.8804 Y21.4733
G01 X21.8565 Y21.4786
G01 X21.7670 Y21.5011
G01 X21.7433 Y21.5076
G01 X21.7200 Y21.5153
G01 X21.6332 Y21.5464
G01 X21.6103 Y21.5552
G01 X21.5879 Y21.5651
G01 X21.5045 Y21.6046
G01 X21.4826 Y21.6156
G01 X21.4612 Y21.6277
G01 X21.3821 Y21.6751
G01 X21.3717 Y21.6816
G01 X21.3513 Y21.6952
G01 X21.2672 Y21.7573
G01 X21.2479 Y21.7724
G01 X21.2293 Y21.7885
G01 X21.1610 Y21.8504
G01 X21.1432 Y21.8673
G01 X21.1263 Y21.8851
G01 X21.0643 Y21.9534
G01 X21.0483 Y21.9720
G01 X21.0332 Y21.9913
G01 X20.9783 Y22.0654
G01 X20.9641 Y22.0855
G01 X20.9510 Y22.1062
G01 X20.9036 Y22.1853
G01 X20.8913 Y22.2071
G01 X20.8790 Y22.1853
G01 X20.8316 Y22.1062
G01 X20.8184 Y22.0855
G01 X20.8043 Y22.0654
G01 X20.7494 Y21.9913
G01 X20.7343 Y21.9720
G01 X20.7182 Y21.9534
G01 X20.6563 Y21.8851
G01 X20.6394 Y21.8673
G01 X20.6216 Y21.8504
G01 X20.5533 Y21.7885
G01 X20.5347 Y21.7724
G01 X20.5153 Y21.7573
G01 X20.4413 Y21.7024
G01 X20.4212 Y21.6883
G01 X20.4005 Y21.6751
G01 X20.3214 Y21.6277
G01 X20.3000 Y21.6156
G01 X20.2781 Y21.6046
G01 X20.1947 Y21.5651
G01 X20.1723 Y21.5552
G01 X20.1494 Y21.5464
G01 X20.0626 Y21.5153
G01 X20.0392 Y21.5076
G01 X20.0156 Y21.5011
G01 X19.9261 Y21.4786
G01 X19.9022 Y21.4733
G01 X19.8780 Y21.4691
G01 X19.7868 Y21.4555
G01 X19.7624 Y21.4525
G01 X19.7379 Y21.4507
G01 X19.6458 Y21.4462
G01 X19.6336 Y21.4458
G01 X19.6090 Y21.4458
G01 X19.5046 Y21.4507
G01 X19.4802 Y21.4525
G01 X19.4558 Y21.4555
G01 X19.3646 Y21.4691
G01 X19.3404 Y21.4733
G01 X19.3165 Y21.4786
G01 X19.2270 Y21.5011
G01 X19.2033 Y21.5076
G01 X19.1800 Y21.5153
G01 X19.0932 Y21.5464
G01 X19.0703 Y21.5552
G01 X19.0479 Y21.5651
G01 X18.9645 Y21.6046
G01 X18.9426 Y21.6156
G01 X18.9212 Y21.6277
G01 X18.8421 Y21.6751
G01 X18.8214 Y21.6883
G01 X18.8013 Y21.7024
G01 X18.7272 Y21.7573
G01 X18.7079 Y21.7724
G01 X18.6893 Y21.7885
G01 X18.6210 Y21.8504
G01 X18.6047 Y21.8659
G00 Z2.0000
G00 X21.1326 Y23.8925
G01 F60.00
G01 Z-0.0500
G01 F120.00
G01 X21.1432 Y23.9035
G01 X21.1610 Y23.9204
G01 X21.2293 Y23.9823
G01 X21.2479 Y23.9984
G01 X21.2672 Y24.0135
G01 X21.3413 Y24.0684
G01 X21.3614 Y24.0825
G01 X21.3821 Y24.0957
G01 X21.4718 Y24.1493
G01 X21.4935 Y24.1608
G01 X21.5045 Y24.1662
G01 X21.5879 Y24.2057
G01 X21.5990 Y24.2108
G01 X21.6217 Y24.2202
G01 X21.7200 Y24.2555
G01 X21.7433 Y24.2632
G01 X21.7670 Y24.2697
G01 X21.8540 Y24.2915
G01 X22.5489 Y25.6648
G01 X22.5284 Y29.3681
G01 X22.5098 Y29.3826
G01 X22.4913 Y29.3986
G01 X22.4220 Y29.4614
G01 X22.4042 Y29.4783
G01 X22.3873 Y29.4961
G01 X22.3245 Y29.5654
G01 X22.3085 Y29.5839
G01 X22.2934 Y29.6033
G01 X22.2377 Y29.6784
G01 X22.2236 Y29.6984
G01 X22.2105 Y29.7192
G01 X22.1624 Y29.7993
G01 X22.1503 Y29.8207
G01 X22.1393 Y29.8426
G01 X22.0993 Y29.9271
G01 X22.0894 Y29.9496
G01 X22.0805 Y29.9725
G01 X22.0490 Y30.0605
G01 X22.0413 Y30.0838
G01 X22.0379 Y30.0955
G01 X22.0121 Y30.1981
G01 X22.0067 Y30.2220
G01 X22.0025 Y30.2462
G01 X21.9888 Y30.3387
G01 X21.9858 Y30.3630
G01 X21.9840 Y30.3875
G01 X21.9794 Y30.4809
G01 X21.9788 Y30.5054
G01 X21.9789 Y30.5177
G01 X21.9847 Y30.6355
G01 X21.9871 Y30.6600
G01 X21.9888 Y30.6721
G01 X22.0025 Y30.7646
G01 X22.0067 Y30.7888
G01 X22.0121 Y30.8127
G01 X22.0379 Y30.9153
G01 X22.0450 Y30.9387
G01 X22.0490 Y30.9503
G01 X22.0805 Y31.0383
G01 X22.0894 Y31.0612
G01 X22.0993 Y31.0837
G01 X22.1393 Y31.1682
G01 X22.1503 Y31.1901
G01 X22.1624 Y31.2115
G01 X22.2105 Y31.2916
G01 X22.2236 Y31.3124
