(G-CODE GENERATED BY FLATCAM v8.994 - www.flatcam.org - Version Date: 2020/11/7)

(Name: CIRCUITO DE CONTROL LINEAL_copperBottom.gbl_iso_combined_1_cnc)
(Type: G-code from Geometry)
(Units: MM)

(Created on Wednesday, 16 October 2024 at 14:47)

(This preprocessor is the default preprocessor used by FlatCAM.)
(It is made to work with MACH3 compatible motion controllers.)

(TOOL DIAMETER: 1.0 mm)
(Feedrate_XY: 80.0 mm/min)
(Feedrate_Z: 60.0 mm/min)
(Feedrate rapids 1500.0 mm/min)

(Z_Cut: -0.05 mm)
(Z_Move: 2.0 mm)
(Z Start: None mm)
(Z End: 15.0 mm)
(X,Y End: None mm)
(Steps per circle: 64)
(Preprocessor Geometry: default)

(X range:    1.6080 ...   69.4866  mm)
(Y range:    1.5572 ...   77.8885  mm)

(Spindle Speed: 0.0 RPM)
G21
G90
G94

G01 F80.00

M5
G00 Z15.0000
G00 X0.0000 Y0.0000
T1
M6    
(MSG, Change to Tool Dia = 1.0000)
M0
G00 Z15.0000

M03
G01 F80.00
G00 X19.6163 Y8.8138
G01 F60.00
G01 Z-0.0500
G01 F80.00
G01 X19.5945 Y8.8261
G01 X19.5154 Y8.8735
G01 X19.4947 Y8.8867
G01 X19.4746 Y8.9008
G01 X19.4005 Y8.9557
G01 X19.3812 Y8.9708
G01 X19.3626 Y8.9869
G01 X19.2943 Y9.0488
G01 X19.2765 Y9.0657
G01 X19.2596 Y9.0835
G01 X19.1977 Y9.1518
G01 X19.1816 Y9.1704
G01 X19.1665 Y9.1897
G01 X19.1116 Y9.2638
G01 X19.0975 Y9.2839
G01 X19.0843 Y9.3046
G01 X19.0369 Y9.3837
G01 X19.0248 Y9.4051
G01 X19.0138 Y9.4270
G01 X18.9743 Y9.5104
G01 X18.9644 Y9.5328
G01 X18.9556 Y9.5557
G01 X18.9245 Y9.6425
G01 X18.9168 Y9.6658
G01 X18.9103 Y9.6895
G01 X18.8878 Y9.7790
G01 X18.8825 Y9.8029
G01 X18.8783 Y9.8271
G01 X18.8647 Y9.9183
G01 X18.8617 Y9.9427
G01 X18.8599 Y9.9671
G01 X18.8554 Y10.0593
G01 X18.8548 Y10.0838
G01 X18.8554 Y10.1083
G01 X18.8599 Y10.2005
G01 X18.8617 Y10.2249
G01 X18.8647 Y10.2493
G01 X18.8783 Y10.3405
G01 X18.8825 Y10.3647
G01 X18.8878 Y10.3886
G01 X18.9103 Y10.4781
G01 X18.9168 Y10.5018
G01 X18.9245 Y10.5251
G01 X18.9598 Y10.6234
G01 X18.9692 Y10.6461
G01 X18.9743 Y10.6572
G01 X19.0138 Y10.7406
G01 X19.0248 Y10.7625
G01 X19.0369 Y10.7839
G01 X19.0843 Y10.8630
G01 X19.0975 Y10.8837
G01 X19.1116 Y10.9038
G01 X19.1665 Y10.9779
G01 X19.1816 Y10.9972
G01 X19.1977 Y11.0158
G01 X19.2596 Y11.0841
G01 X19.2765 Y11.1019
G01 X19.2943 Y11.1188
G01 X19.3626 Y11.1807
G01 X19.3812 Y11.1968
G01 X19.4005 Y11.2119
G01 X19.4746 Y11.2668
G01 X19.4947 Y11.2809
G01 X19.5154 Y11.2941
G01 X19.5945 Y11.3415
G01 X19.6163 Y11.3538
G01 X19.5945 Y11.3661
G01 X19.5154 Y11.4135
G01 X19.4947 Y11.4267
G01 X19.4746 Y11.4408
G01 X19.4005 Y11.4957
G01 X19.3812 Y11.5108
G01 X19.3626 Y11.5269
G01 X19.2943 Y11.5888
G01 X19.2765 Y11.6057
G01 X19.2596 Y11.6235
G01 X19.1977 Y11.6918
G01 X19.1816 Y11.7104
G01 X19.1665 Y11.7297
G01 X19.1116 Y11.8038
G01 X19.0975 Y11.8239
G01 X19.0843 Y11.8446
G01 X19.0369 Y11.9237
G01 X19.0248 Y11.9451
G01 X19.0138 Y11.9670
G01 X18.9743 Y12.0504
G01 X18.9644 Y12.0728
G01 X18.9556 Y12.0957
G01 X18.9245 Y12.1825
G01 X18.9168 Y12.2058
G01 X18.9103 Y12.2295
G01 X18.8878 Y12.3190
G01 X18.8825 Y12.3429
G01 X18.8783 Y12.3671
G01 X18.8647 Y12.4583
G01 X18.8617 Y12.4827
G01 X18.8599 Y12.5071
G01 X18.8554 Y12.5993
G01 X18.8548 Y12.6238
G01 X18.8554 Y12.6483
G01 X18.8599 Y12.7405
G01 X18.8617 Y12.7649
G01 X18.8647 Y12.7893
G01 X18.8783 Y12.8805
G01 X18.8825 Y12.9047
G01 X18.8878 Y12.9286
G01 X18.9103 Y13.0181
G01 X18.9168 Y13.0418
G01 X18.9245 Y13.0651
G01 X18.9556 Y13.1519
G01 X18.9644 Y13.1748
G01 X18.9743 Y13.1972
G01 X19.0138 Y13.2806
G01 X19.0248 Y13.3025
G01 X19.0369 Y13.3239
G01 X19.0843 Y13.4030
G01 X19.0975 Y13.4237
G01 X19.1116 Y13.4438
G01 X19.1665 Y13.5179
G01 X19.1816 Y13.5372
G01 X19.1977 Y13.5558
G01 X19.2596 Y13.6241
G01 X19.2765 Y13.6419
G01 X19.2943 Y13.6588
G01 X19.3626 Y13.7207
G01 X19.3812 Y13.7368
G01 X19.3908 Y13.7444
G01 X19.4746 Y13.8068
G01 X19.4947 Y13.8209
G01 X19.5154 Y13.8341
G01 X19.5945 Y13.8815
G01 X19.6159 Y13.8936
G01 X19.6378 Y13.9046
G01 X19.7212 Y13.9441
G01 X19.7436 Y13.9540
G01 X19.7665 Y13.9628
G01 X19.8533 Y13.9939
G01 X19.8766 Y14.0016
G01 X19.9003 Y14.0081
G01 X20.0017 Y14.0334
G01 X20.0258 Y14.0382
G01 X20.0379 Y14.0401
G01 X20.1291 Y14.0537
G01 X20.1535 Y14.0567
G01 X20.1779 Y14.0585
G01 X20.2701 Y14.0630
G01 X20.2946 Y14.0636
G01 X20.3069 Y14.0634
G01 X20.4113 Y14.0585
G01 X20.4357 Y14.0567
G01 X20.4479 Y14.0553
G01 X20.5634 Y14.0382
G01 X20.5755 Y14.0359
G01 X20.5994 Y14.0306
G01 X20.7008 Y14.0050
G01 X20.7126 Y14.0016
G01 X20.7359 Y13.9939
G01 X20.8227 Y13.9628
G01 X20.8456 Y13.9540
G01 X20.8680 Y13.9441
G01 X20.9514 Y13.9046
G01 X20.9733 Y13.8936
G01 X20.9947 Y13.8815
G01 X21.0738 Y13.8341
G01 X21.0945 Y13.8209
G01 X21.1146 Y13.8068
G01 X21.1887 Y13.7519
G01 X21.2080 Y13.7368
G01 X21.2266 Y13.7207
G01 X21.2949 Y13.6588
G01 X21.3127 Y13.6419
G01 X21.3296 Y13.6241
G01 X21.3915 Y13.5558
G01 X21.4115 Y13.5323
G01 X29.5480 Y13.5534
G01 X29.5480 Y16.5693
G01 X29.5331 Y16.5810
G01 X29.5146 Y16.5970
G01 X29.4363 Y16.6682
G01 X29.4190 Y16.6855
G01 X29.3670 Y16.7426
G01 X29.3665 Y16.7268
G01 X29.3647 Y16.7023
G01 X29.3617 Y16.6779
G01 X29.3575 Y16.6538
G01 X29.3549 Y16.6418
G01 X29.3490 Y16.6179
G01 X29.3419 Y16.5945
G01 X29.3336 Y16.5714
G01 X29.3242 Y16.5487
G01 X29.3137 Y16.5265
G01 X29.3021 Y16.5049
G01 X29.2895 Y16.4838
G01 X29.2759 Y16.4634
G01 X29.2613 Y16.4437
G01 X29.2457 Y16.4247
G01 X29.2376 Y16.4155
G01 X29.2207 Y16.3977
G01 X29.2029 Y16.3808
G01 X29.1843 Y16.3648
G01 X29.1649 Y16.3497
G01 X29.1449 Y16.3356
G01 X29.1241 Y16.3224
G01 X29.1028 Y16.3103
G01 X29.0919 Y16.3047
G01 X29.0809 Y16.2993
G01 X29.0584 Y16.2894
G01 X29.0355 Y16.2805
G01 X29.0122 Y16.2728
G01 X29.0005 Y16.2694
G01 X28.9766 Y16.2635
G01 X28.9526 Y16.2587
G01 X28.9283 Y16.2551
G01 X28.9039 Y16.2527
G01 X28.8916 Y16.2519
G01 X28.8671 Y16.2513
G01 X26.9498 Y16.2515
G01 X26.9253 Y16.2527
G01 X26.9009 Y16.2551
G01 X26.8887 Y16.2567
G01 X26.8646 Y16.2609
G01 X26.8406 Y16.2663
G01 X26.8170 Y16.2728
G01 X26.7937 Y16.2805
G01 X26.7708 Y16.2894
G01 X26.7483 Y16.2993
G01 X26.7264 Y16.3103
G01 X26.7051 Y16.3224
G01 X26.6843 Y16.3356
G01 X26.6643 Y16.3497
G01 X26.6449 Y16.3648
G01 X26.6263 Y16.3808
G01 X26.6086 Y16.3977
G01 X26.5916 Y16.4155
G01 X26.5756 Y16.4341
G01 X26.5605 Y16.4535
G01 X26.5464 Y16.4735
G01 X26.5332 Y16.4942
G01 X26.5211 Y16.5156
G01 X26.5155 Y16.5265
G01 X26.5050 Y16.5487
G01 X26.4956 Y16.5714
G01 X26.4873 Y16.5945
G01 X26.4802 Y16.6179
G01 X26.4743 Y16.6417
G01 X26.4695 Y16.6658
G01 X26.4659 Y16.6901
G01 X26.4635 Y16.7145
G01 X26.4623 Y16.7390
G01 X26.4621 Y16.7937
G01 X20.2701 Y16.7718
G01 X20.2447 Y16.7724
G01 X20.2080 Y16.7741
G01 X20.1812 Y16.7761
G01 X20.1560 Y16.7792
G01 X20.1197 Y16.7845
G01 X20.0932 Y16.7890
G01 X20.0684 Y16.7946
G01 X20.0328 Y16.8035
G01 X20.0082 Y16.8102
G01 X19.9947 Y16.8144
G01 X19.9481 Y16.8308
G01 X19.9244 Y16.8399
G01 X19.8998 Y16.8508
G01 X19.8666 Y16.8664
G01 X19.8439 Y16.8778
G01 X19.8315 Y16.8845
G01 X19.7890 Y16.9098
G01 X19.7675 Y16.9233
G01 X19.7455 Y16.9387
G01 X19.7159 Y16.9605
G01 X19.6959 Y16.9761
G01 X19.6850 Y16.9852
G01 X19.6482 Y17.0182
G01 X19.6298 Y17.0357
G01 X19.6112 Y17.0551
G01 X19.5865 Y17.0823
G01 X19.5699 Y17.1015
G01 X19.5610 Y17.1125
G01 X19.5239 Y17.1623
G01 X19.5159 Y17.1740
G01 X19.5023 Y17.1955
G01 X19.4833 Y17.2269
G01 X19.4701 Y17.2503
G01 X19.4586 Y17.2730
G01 X19.4375 Y17.3176
G01 X19.4319 Y17.3306
G01 X19.4228 Y17.3544
G01 X19.4062 Y17.4009
G01 X19.3983 Y17.4266
G01 X19.3861 Y17.4745
G01 X19.3802 Y17.5007
G01 X19.3758 Y17.5257
G01 X19.3704 Y17.5620
G01 X19.3672 Y17.5872
G01 X19.3652 Y17.6140
G01 X19.3628 Y17.6634
G01 X19.3626 Y19.1254
G01 X19.3464 Y19.1387
G01 X19.3372 Y19.1469
G01 X19.2689 Y19.2088
G01 X19.2511 Y19.2257
G01 X19.2342 Y19.2435
G01 X19.1723 Y19.3118
G01 X19.1535 Y19.3338
G01 X16.1165 Y19.3168
G01 X16.0741 Y11.2663
G01 X16.0853 Y11.2574
G01 X16.1038 Y11.2414
G01 X16.1731 Y11.1786
G01 X16.1909 Y11.1617
G01 X16.2078 Y11.1439
G01 X16.2706 Y11.0746
G01 X16.2866 Y11.0561
G01 X16.3017 Y11.0367
G01 X16.3574 Y10.9616
G01 X16.3715 Y10.9416
G01 X16.3846 Y10.9208
G01 X16.4327 Y10.8407
G01 X16.4448 Y10.8193
G01 X16.4558 Y10.7974
G01 X16.5009 Y10.7017
G01 X16.5057 Y10.6904
G01 X16.5146 Y10.6675
G01 X16.5461 Y10.5795
G01 X16.5538 Y10.5562
G01 X16.5603 Y10.5326
G01 X16.5830 Y10.4419
G01 X16.5884 Y10.4180
G01 X16.5906 Y10.4059
G01 X16.6080 Y10.2892
G01 X16.6104 Y10.2647
G01 X16.6111 Y10.2525
G01 X16.6161 Y10.1469
G01 X16.6161 Y10.1223
G01 X16.6157 Y10.1101
G01 X16.6111 Y10.0167
G01 X16.6093 Y9.9922
G01 X16.6063 Y9.9679
G01 X16.5926 Y9.8754
G01 X16.5884 Y9.8512
G01 X16.5830 Y9.8273
G01 X16.5572 Y9.7247
G01 X16.5538 Y9.7130
G01 X16.5461 Y9.6897
G01 X16.5146 Y9.6017
G01 X16.5057 Y9.5788
G01 X16.4958 Y9.5563
G01 X16.4558 Y9.4718
G01 X16.4448 Y9.4499
G01 X16.4327 Y9.4285
G01 X16.3846 Y9.3484
G01 X16.3715 Y9.3276
G01 X16.3574 Y9.3076
G01 X16.3017 Y9.2325
G01 X16.2850 Y9.2112
G01 X16.2986 Y8.6342
G01 X19.3742 Y8.6509
G01 X19.3908 Y8.6644
G01 X19.4005 Y8.6719
G01 X19.4746 Y8.7268
G01 X19.4947 Y8.7409
G01 X19.5154 Y8.7541
G01 X19.5945 Y8.8015
G01 X19.6163 Y8.8138
G00 Z2.0000
G00 X19.5909 Y21.5138
G01 F60.00
G01 Z-0.0500
G01 F80.00
G01 X19.5691 Y21.5261
G01 X19.4900 Y21.5735
G01 X19.4693 Y21.5867
G01 X19.4492 Y21.6008
G01 X19.3751 Y21.6557
G01 X19.3558 Y21.6708
G01 X19.3372 Y21.6869
G01 X19.2689 Y21.7488
G01 X19.2511 Y21.7657
G01 X19.2342 Y21.7835
G01 X19.1723 Y21.8518
G01 X19.1562 Y21.8704
G01 X19.1411 Y21.8897
G01 X19.0862 Y21.9638
G01 X19.0721 Y21.9839
G01 X19.0589 Y22.0046
G01 X19.0115 Y22.0837
G01 X18.9994 Y22.1051
G01 X18.9884 Y22.1270
G01 X18.9489 Y22.2104
G01 X18.9390 Y22.2328
G01 X18.9302 Y22.2557
G01 X18.8991 Y22.3425
G01 X18.8914 Y22.3658
G01 X18.8849 Y22.3895
G01 X18.8624 Y22.4790
G01 X18.8571 Y22.5029
G01 X18.8529 Y22.5271
G01 X18.8393 Y22.6183
G01 X18.8363 Y22.6427
G01 X18.8345 Y22.6671
G01 X18.8300 Y22.7593
G01 X18.8294 Y22.7838
G01 X18.8300 Y22.8083
G01 X18.8345 Y22.9005
G01 X18.8363 Y22.9249
G01 X18.8393 Y22.9493
G01 X18.8529 Y23.0405
G01 X18.8571 Y23.0647
G01 X18.8624 Y23.0886
G01 X18.8849 Y23.1781
G01 X18.8914 Y23.2018
G01 X18.8991 Y23.2251
G01 X18.9302 Y23.3119
G01 X18.9390 Y23.3348
G01 X18.9489 Y23.3572
G01 X18.9884 Y23.4406
G01 X18.9994 Y23.4625
G01 X19.0115 Y23.4839
G01 X19.0589 Y23.5630
G01 X19.0721 Y23.5837
G01 X19.0862 Y23.6038
G01 X19.1411 Y23.6779
G01 X19.1562 Y23.6972
G01 X19.1723 Y23.7158
G01 X19.2342 Y23.7841
G01 X19.2511 Y23.8019
G01 X19.2689 Y23.8188
G01 X19.3372 Y23.8807
G01 X19.3558 Y23.8968
G01 X19.3751 Y23.9119
G01 X19.4492 Y23.9668
G01 X19.4693 Y23.9809
G01 X19.4900 Y23.9941
G01 X19.5691 Y24.0415
G01 X19.5909 Y24.0538
G01 X19.5691 Y24.0661
G01 X19.4900 Y24.1135
G01 X19.4693 Y24.1267
G01 X19.4492 Y24.1408
G01 X19.3751 Y24.1957
G01 X19.3558 Y24.2108
G01 X19.3372 Y24.2269
G01 X19.2689 Y24.2888
G01 X19.2511 Y24.3057
G01 X19.2342 Y24.3235
G01 X19.1723 Y24.3918
G01 X19.1562 Y24.4104
G01 X19.1411 Y24.4297
G01 X19.0862 Y24.5038
G01 X19.0721 Y24.5239
G01 X19.0589 Y24.5446
G01 X19.0115 Y24.6237
G01 X18.9994 Y24.6451
G01 X18.9884 Y24.6670
G01 X18.9489 Y24.7504
G01 X18.9390 Y24.7728
G01 X18.9302 Y24.7957
G01 X18.8991 Y24.8825
G01 X18.8914 Y24.9058
G01 X18.8849 Y24.9295
G01 X18.8624 Y25.0190
G01 X18.8571 Y25.0429
G01 X18.8529 Y25.0671
G01 X18.8393 Y25.1583
G01 X18.8377 Y25.1705
G01 X18.8353 Y25.1949
G01 X18.8300 Y25.2993
G01 X18.8294 Y25.3238
G01 X18.8300 Y25.3483
G01 X18.8345 Y25.4405
G01 X18.8363 Y25.4649
G01 X18.8393 Y25.4893
G01 X18.8529 Y25.5805
G01 X18.8571 Y25.6047
G01 X18.8624 Y25.6286
G01 X18.8849 Y25.7181
G01 X18.8914 Y25.7418
G01 X18.8991 Y25.7651
G01 X18.9302 Y25.8519
G01 X18.9390 Y25.8748
G01 X18.9489 Y25.8972
G01 X18.9884 Y25.9806
G01 X18.9994 Y26.0025
G01 X19.0115 Y26.0239
G01 X19.0589 Y26.1030
G01 X19.0721 Y26.1237
G01 X19.0862 Y26.1438
G01 X19.1411 Y26.2179
G01 X19.1593 Y26.2409
G01 X19.1593 Y29.4673
G01 X19.1464 Y29.4823
G01 X19.1387 Y29.4919
G01 X19.0684 Y29.5867
G01 X19.0615 Y29.5968
G01 X19.0484 Y29.6176
G01 X19.0003 Y29.6977
G01 X18.9882 Y29.7191
G01 X18.9826 Y29.7300
G01 X18.9372 Y29.8255
G01 X18.9273 Y29.8480
G01 X18.9184 Y29.8709
G01 X18.8869 Y29.9589
G01 X18.8792 Y29.9822
G01 X18.8727 Y30.0058
G01 X18.8500 Y30.0965
G01 X18.8446 Y30.1204
G01 X18.8404 Y30.1446
G01 X18.8267 Y30.2371
G01 X18.8237 Y30.2614
G01 X18.8219 Y30.2859
G01 X18.8169 Y30.3915
G01 X18.8167 Y30.4038
G01 X18.8173 Y30.4283
G01 X18.8219 Y30.5217
G01 X18.8237 Y30.5462
G01 X18.8267 Y30.5705
G01 X18.8404 Y30.6630
G01 X18.8446 Y30.6872
G01 X18.8500 Y30.7111
G01 X18.8727 Y30.8018
G01 X18.8792 Y30.8254
G01 X18.8869 Y30.8487
G01 X18.9184 Y30.9367
G01 X18.9273 Y30.9596
G01 X18.9372 Y30.9821
G01 X18.9772 Y31.0666
G01 X18.9882 Y31.0885
G01 X19.0003 Y31.1099
G01 X19.0548 Y31.2005
G01 X19.0615 Y31.2108
G01 X19.0756 Y31.2308
G01 X19.1313 Y31.3059
G01 X19.1464 Y31.3253
G01 X19.1624 Y31.3438
G01 X19.2252 Y31.4131
G01 X19.2421 Y31.4309
G01 X19.2599 Y31.4478
G01 X19.3384 Y31.5187
G01 X19.3573 Y31.5343
G01 X19.3671 Y31.5417
G01 X19.4422 Y31.5974
G01 X19.4622 Y31.6115
G01 X19.4830 Y31.6246
G01 X19.5631 Y31.6727
G01 X19.5845 Y31.6848
G01 X19.6064 Y31.6958
G01 X19.6909 Y31.7358
G01 X19.7134 Y31.7457
G01 X19.7363 Y31.7546
G01 X19.8243 Y31.7861
G01 X19.8476 Y31.7938
G01 X19.8712 Y31.8003
G01 X19.9619 Y31.8230
G01 X19.9858 Y31.8284
G01 X20.0100 Y31.8326
G01 X20.1025 Y31.8463
G01 X20.1268 Y31.8493
G01 X20.1513 Y31.8511
G01 X20.2569 Y31.8561
G01 X20.2815 Y31.8561
G01 X20.2937 Y31.8557
G01 X20.3871 Y31.8511
G01 X20.4116 Y31.8493
G01 X20.4359 Y31.8463
G01 X20.5284 Y31.8326
G01 X20.5526 Y31.8284
G01 X20.5765 Y31.8230
G01 X20.6672 Y31.8003
G01 X20.6908 Y31.7938
G01 X20.7141 Y31.7861
G01 X20.8021 Y31.7546
G01 X20.8250 Y31.7457
G01 X20.8475 Y31.7358
G01 X20.9320 Y31.6958
G01 X20.9539 Y31.6848
G01 X20.9753 Y31.6727
G01 X21.0554 Y31.6246
G01 X21.0762 Y31.6115
G01 X21.0962 Y31.5974
G01 X21.1713 Y31.5417
G01 X21.1907 Y31.5266
G01 X21.2092 Y31.5106
G01 X21.2785 Y31.4478
G01 X21.2963 Y31.4309
G01 X21.3132 Y31.4131
G01 X21.3760 Y31.3438
G01 X21.3920 Y31.3253
G01 X21.4071 Y31.3059
G01 X21.4628 Y31.2308
G01 X21.4769 Y31.2108
G01 X21.4900 Y31.1900
G01 X21.5381 Y31.1099
G01 X21.5502 Y31.0885
G01 X21.5612 Y31.0666
G01 X21.6012 Y30.9821
G01 X21.6111 Y30.9596
G01 X21.6200 Y30.9367
G01 X21.6515 Y30.8487
G01 X21.6592 Y30.8254
G01 X21.6657 Y30.8018
G01 X21.6884 Y30.7111
G01 X21.6938 Y30.6872
G01 X21.6980 Y30.6630
G01 X21.7117 Y30.5705
G01 X21.7147 Y30.5462
G01 X21.7165 Y30.5217
G01 X21.7211 Y30.4283
G01 X21.7217 Y30.4038
G01 X21.7211 Y30.3793
G01 X21.7165 Y30.2859
G01 X21.7147 Y30.2614
G01 X21.7117 Y30.2371
G01 X21.6980 Y30.1446
G01 X21.6938 Y30.1204
G01 X21.6884 Y30.0965
G01 X21.6657 Y30.0058
G01 X21.6592 Y29.9822
G01 X21.6515 Y29.9589
G01 X21.6200 Y29.8709
G01 X21.6111 Y29.8480
G01 X21.6012 Y29.8255
G01 X21.5612 Y29.7410
G01 X21.5502 Y29.7191
G01 X21.5381 Y29.6977
G01 X21.4900 Y29.6176
G01 X21.4769 Y29.5968
G01 X21.4628 Y29.5768
G01 X21.4071 Y29.5017
G01 X21.3920 Y29.4823
G01 X21.3791 Y29.4673
G01 X21.3791 Y26.2409
G01 X21.3973 Y26.2179
G01 X21.4522 Y26.1438
G01 X21.4663 Y26.1237
G01 X21.4795 Y26.1030
G01 X21.5269 Y26.0239
G01 X21.5390 Y26.0025
G01 X21.5500 Y25.9806
G01 X21.5895 Y25.8972
G01 X21.5994 Y25.8748
G01 X21.6082 Y25.8519
G01 X21.6393 Y25.7651
G01 X21.6470 Y25.7418
G01 X21.6535 Y25.7181
G01 X21.6760 Y25.6286
G01 X21.6813 Y25.6047
G01 X21.6855 Y25.5805
G01 X21.6991 Y25.4893
G01 X21.7021 Y25.4649
G01 X21.7039 Y25.4405
G01 X21.7084 Y25.3483
G01 X21.7090 Y25.3238
G01 X21.7084 Y25.2993
G01 X21.7039 Y25.2071
G01 X21.7021 Y25.1827
G01 X21.6991 Y25.1583
G01 X21.6855 Y25.0671
G01 X21.6813 Y25.0429
G01 X21.6760 Y25.0190
G01 X21.6535 Y24.9295
G01 X21.6470 Y24.9058
G01 X21.6393 Y24.8825
G01 X21.6082 Y24.7957
G01 X21.5994 Y24.7728
G01 X21.5895 Y24.7504
G01 X21.5500 Y24.6670
G01 X21.5390 Y24.6451
G01 X21.5269 Y24.6237
G01 X21.4795 Y24.5446
G01 X21.4663 Y24.5239
G01 X21.4522 Y24.5038
G01 X21.3973 Y24.4297
G01 X21.3822 Y24.4104
G01 X21.3661 Y24.3918
G01 X21.3042 Y24.3235
G01 X21.2873 Y24.3057
G01 X21.2695 Y24.2888
G01 X21.2012 Y24.2269
G01 X21.1826 Y24.2108
G01 X21.1633 Y24.1957
G01 X21.0892 Y24.1408
G01 X21.0691 Y24.1267
G01 X21.0484 Y24.1135
G01 X20.9693 Y24.0661
G01 X20.9475 Y24.0538
G01 X20.9693 Y24.0415
G01 X21.0484 Y23.9941
G01 X21.0691 Y23.9809
G01 X21.0892 Y23.9668
G01 X21.1633 Y23.9119
G01 X21.1826 Y23.8968
G01 X21.2012 Y23.8807
G01 X21.2695 Y23.8188
G01 X21.2873 Y23.8019
G01 X21.3042 Y23.7841
G01 X21.3661 Y23.7158
G01 X21.3743 Y23.7066
G01 X21.3876 Y23.6904
G01 X24.4287 Y23.6904
G01 X24.4335 Y24.0648
G01 X24.3802 Y24.1044
G01 X24.3608 Y24.1195
G01 X24.3422 Y24.1355
G01 X24.2563 Y24.2136
G01 X24.2475 Y24.2221
G01 X24.2306 Y24.2399
G01 X24.1528 Y24.3260
G01 X24.1449 Y24.3354
G01 X24.1298 Y24.3548
G01 X24.0679 Y24.4382
G01 X24.0538 Y24.4582
G01 X24.0406 Y24.4790
G01 X23.9873 Y24.5680
G01 X23.9811 Y24.5786
G01 X23.9695 Y24.6003
G01 X23.9146 Y24.7163
G01 X23.9052 Y24.7390
G01 X23.9010 Y24.7505
G01 X23.8660 Y24.8482
G01 X23.8583 Y24.8715
G01 X23.8517 Y24.8952
G01 X23.8265 Y24.9959
G01 X23.8211 Y25.0199
G01 X23.8169 Y25.0440
G01 X23.8017 Y25.1467
G01 X23.7987 Y25.1711
G01 X23.7969 Y25.1956
G01 X23.7918 Y25.2993
G01 X23.7912 Y25.3238
G01 X23.7918 Y25.3483
G01 X23.7969 Y25.4520
G01 X23.7987 Y25.4765
G01 X23.8017 Y25.5009
G01 X23.8169 Y25.6036
G01 X23.8211 Y25.6278
G01 X23.8265 Y25.6517
G01 X23.8517 Y25.7524
G01 X23.8583 Y25.7761
G01 X23.8660 Y25.7994
G01 X23.9010 Y25.8971
G01 X23.9098 Y25.9200
G01 X23.9146 Y25.9313
G01 X23.9695 Y26.0473
G01 X23.9811 Y26.0690
G01 X23.9873 Y26.0796
G01 X24.0406 Y26.1686
G01 X24.0538 Y26.1894
G01 X24.0679 Y26.2094
G01 X24.1298 Y26.2928
G01 X24.1372 Y26.3026
G01 X24.1528 Y26.3216
G01 X24.2390 Y26.4167
G01 X24.2563 Y26.4340
G01 X24.2653 Y26.4424
G01 X24.3422 Y26.5121
G01 X24.3608 Y26.5281
G01 X24.3802 Y26.5432
G01 X24.4483 Y26.5938
G01 X24.3802 Y26.6444
G01 X24.3608 Y26.6595
G01 X24.3422 Y26.6755
G01 X24.2653 Y26.7452
G01 X24.2563 Y26.7536
G01 X24.2390 Y26.7709
G01 X24.1528 Y26.8660
G01 X24.1449 Y26.8754
G01 X24.1298 Y26.8948
G01 X24.0679 Y26.9782
G01 X24.0538 Y26.9982
G01 X24.0406 Y27.0190
G01 X23.9873 Y27.1080
G01 X23.9811 Y27.1186
G01 X23.9695 Y27.1403
G01 X23.9146 Y27.2563
G01 X23.9052 Y27.2790
G01 X23.9010 Y27.2905
G01 X23.8660 Y27.3882
G01 X23.8583 Y27.4115
G01 X23.8517 Y27.4352
G01 X23.8265 Y27.5359
G01 X23.8211 Y27.5599
G01 X23.8169 Y27.5840
G01 X23.8017 Y27.6867
G01 X23.7987 Y27.7111
G01 X23.7969 Y27.7356
G01 X23.7918 Y27.8393
G01 X23.7912 Y27.8638
G01 X23.7918 Y27.8883
G01 X23.7969 Y27.9920
G01 X23.7987 Y28.0165
G01 X23.8017 Y28.0409
G01 X23.8169 Y28.1436
G01 X23.8211 Y28.1678
G01 X23.8265 Y28.1917
G01 X23.8517 Y28.2924
G01 X23.8583 Y28.3161
G01 X23.8660 Y28.3394
G01 X23.9010 Y28.4371
G01 X23.9052 Y28.4486
G01 X23.9146 Y28.4713
G01 X23.9695 Y28.5873
G01 X23.9752 Y28.5982
G01 X23.9873 Y28.6196
G01 X24.0406 Y28.7086
G01 X24.0538 Y28.7294
G01 X24.0679 Y28.7494
G01 X24.1298 Y28.8328
G01 X24.1449 Y28.8522
G01 X24.1528 Y28.8616
G01 X24.2390 Y28.9567
G01 X24.2563 Y28.9740
G01 X24.2653 Y28.9824
G01 X24.3422 Y29.0521
G01 X24.3608 Y29.0681
G01 X24.3802 Y29.0832
G01 X24.4483 Y29.1338
G01 X24.3802 Y29.1844
G01 X24.3608 Y29.1995
G01 X24.3422 Y29.2155
G01 X24.2653 Y29.2852
G01 X24.2475 Y29.3021
G01 X24.2306 Y29.3199
G01 X24.1528 Y29.4060
G01 X24.1372 Y29.4250
G01 X24.1023 Y29.4718
G01 X22.8092 Y29.4718
G01 X22.7847 Y29.4724
G01 X22.7448 Y29.4744
G01 X22.7203 Y29.4762
G01 X22.6960 Y29.4792
G01 X22.6444 Y29.4870
G01 X22.6203 Y29.4918
G01 X22.5578 Y29.5074
G01 X22.5343 Y29.5145
G01 X22.4852 Y29.5320
G01 X22.4623 Y29.5408
G01 X22.4398 Y29.5508
G01 X22.3927 Y29.5732
G01 X22.3711 Y29.5848
G01 X22.3263 Y29.6115
G01 X22.3055 Y29.6246
G01 X22.2855 Y29.6387
G01 X22.2534 Y29.6625
G01 X22.2341 Y29.6776
G01 X22.2155 Y29.6936
G01 X22.1859 Y29.7204
G01 X22.1681 Y29.7373
G01 X22.1512 Y29.7551
G01 X22.1163 Y29.7939
G01 X22.1007 Y29.8128
G01 X22.0695 Y29.8547
G01 X22.0554 Y29.8747
G01 X22.0423 Y29.8955
G01 X22.0217 Y29.9297
G01 X22.0096 Y29.9510
G01 X21.9986 Y29.9730
G01 X21.9816 Y30.0090
G01 X21.9716 Y30.0315
G01 X21.9628 Y30.0544
G01 X21.9453 Y30.1035
G01 X21.9416 Y30.1152
G01 X21.9351 Y30.1389
G01 X21.9254 Y30.1776
G01 X21.9200 Y30.2015
G01 X21.9158 Y30.2257
G01 X21.9100 Y30.2652
G01 X21.9070 Y30.2895
G01 X21.9052 Y30.3140
G01 X21.9032 Y30.3539
G01 X21.9026 Y30.3784
G01 X21.9026 Y32.0626
G01 X16.1337 Y32.0626
G01 X16.1335 Y22.7588
G01 X16.1323 Y22.7343
G01 X16.1313 Y22.7221
G01 X16.1283 Y22.6977
G01 X16.1263 Y22.6856
G01 X16.1241 Y22.6736
G01 X16.1187 Y22.6496
G01 X16.1122 Y22.6260
G01 X16.1071 Y22.6104
G01 X16.1045 Y22.5829
G01 X16.1009 Y22.5586
G01 X16.0987 Y22.5466
G01 X16.0933 Y22.5226
G01 X16.0868 Y22.4990
G01 X16.0791 Y22.4757
G01 X16.0702 Y22.4528
G01 X16.0654 Y22.4415
G01 X16.0549 Y22.4193
G01 X16.0420 Y22.3954
G01 X16.0293 Y22.3681
G01 X16.0166 Y22.3446
G01 X16.0041 Y22.3177
G01 X15.9925 Y22.2961
G01 X15.9864 Y22.2855
G01 X15.9799 Y22.2750
G01 X15.9663 Y22.2546
G01 X15.9591 Y22.2447
G01 X15.9440 Y22.2253
G01 X15.9280 Y22.2067
G01 X15.9111 Y22.1890
G01 X15.8981 Y22.1765
G01 X15.8857 Y22.1636
G01 X15.8727 Y22.1511
G01 X15.8603 Y22.1382
G01 X15.8473 Y22.1257
G01 X15.8261 Y22.1042
G01 X15.8171 Y22.0958
G01 X15.7985 Y22.0798
G01 X15.7889 Y22.0721
G01 X15.7692 Y22.0575
G01 X15.7488 Y22.0439
G01 X15.7384 Y22.0374
G01 X15.7193 Y22.0266
G01 X15.7030 Y22.0139
G01 X15.6930 Y22.0067
G01 X15.6726 Y21.9931
G01 X15.6622 Y21.9866
G01 X15.6408 Y21.9745
G01 X15.6299 Y21.9689
G01 X15.6077 Y21.9584
G01 X15.5850 Y21.9490
G01 X15.5735 Y21.9447
G01 X15.5502 Y21.9370
G01 X15.5245 Y21.9300
G01 X15.4985 Y21.9197
G01 X15.4750 Y21.9119
G01 X15.4512 Y21.9053
G01 X15.4392 Y21.9024
G01 X15.4271 Y21.8998
G01 X15.4028 Y21.8956
G01 X15.3834 Y21.8931
G01 X15.3278 Y21.8846
G01 X15.3035 Y21.8816
G01 X15.2790 Y21.8798
G01 X15.2391 Y21.8778
G01 X15.2146 Y21.8772
G01 X11.2530 Y21.8772
G01 X11.2397 Y21.8610
G01 X11.2315 Y21.8518
G01 X11.1696 Y21.7835
G01 X11.1527 Y21.7657
G01 X11.1349 Y21.7488
G01 X11.0666 Y21.6869
G01 X11.0480 Y21.6708
G01 X11.0287 Y21.6557
G01 X10.9546 Y21.6008
G01 X10.9345 Y21.5867
G01 X10.9138 Y21.5735
G01 X10.8347 Y21.5261
G01 X10.8129 Y21.5138
G01 X10.8347 Y21.5015
G01 X10.9138 Y21.4541
G01 X10.9345 Y21.4409
G01 X10.9546 Y21.4268
G01 X11.0287 Y21.3719
G01 X11.0480 Y21.3568
G01 X11.0666 Y21.3407
G01 X11.1349 Y21.2788
G01 X11.1527 Y21.2619
G01 X11.1696 Y21.2441
G01 X11.2315 Y21.1758
G01 X11.2476 Y21.1572
G01 X11.2557 Y21.1470
G01 X15.2146 Y21.1250
G01 X19.1481 Y21.1470
G01 X19.1562 Y21.1572
G01 X19.1723 Y21.1758
G01 X19.2342 Y21.2441
G01 X19.2511 Y21.2619
G01 X19.2689 Y21.2788
G01 X19.3372 Y21.3407
G01 X19.3558 Y21.3568
G01 X19.3751 Y21.3719
G01 X19.4492 Y21.4268
G01 X19.4693 Y21.4409
G01 X19.4900 Y21.4541
G01 X19.5691 Y21.5015
G01 X19.5909 Y21.5138
G00 Z2.0000
G00 X26.2501 Y29.1338
G01 F60.00
G01 Z-0.0500
G01 F80.00
G01 X26.3182 Y29.0832
G01 X26.3376 Y29.0681
G01 X26.3562 Y29.0521
G01 X26.4331 Y28.9824
G01 X26.4509 Y28.9655
G01 X26.4678 Y28.9477
G01 X26.5456 Y28.8616
G01 X26.5612 Y28.8426
G01 X26.6057 Y28.7829
G01 X27.5171 Y28.7829
G01 X27.5359 Y28.8013
G01 X27.5483 Y28.8142
G01 X27.5613 Y28.8267
G01 X27.5737 Y28.8396
G01 X27.5867 Y28.8521
G01 X27.5991 Y28.8650
G01 X27.6121 Y28.8775
G01 X27.6245 Y28.8904
G01 X27.6375 Y28.9029
G01 X27.6499 Y28.9158
G01 X27.6629 Y28.9283
G01 X27.6753 Y28.9412
G01 X27.6883 Y28.9537
G01 X27.7007 Y28.9666
G01 X27.7137 Y28.9791
G01 X27.7261 Y28.9920
G01 X27.7439 Y29.0090
G01 X27.7625 Y29.0250
G01 X27.7818 Y29.0401
G01 X27.8019 Y29.0542
G01 X27.8122 Y29.0609
G01 X27.8330 Y29.0734
G01 X27.8407 Y29.0807
G01 X27.8531 Y29.0936
G01 X27.8661 Y29.1061
G01 X27.8785 Y29.1190
G01 X27.8915 Y29.1315
G01 X27.9039 Y29.1444
G01 X27.9169 Y29.1569
G01 X27.9293 Y29.1698
G01 X27.9423 Y29.1823
G01 X27.9547 Y29.1952
G01 X27.9677 Y29.2077
G01 X27.9801 Y29.2206
G01 X27.9931 Y29.2331
G01 X28.0055 Y29.2460
G01 X28.0185 Y29.2585
G01 X28.0309 Y29.2714
G01 X28.0439 Y29.2839
G01 X28.0563 Y29.2968
G01 X28.0693 Y29.3093
G01 X28.0817 Y29.3222
G01 X28.0947 Y29.3347
G01 X28.1071 Y29.3476
G01 X28.1201 Y29.3601
G01 X28.1325 Y29.3730
G01 X28.1455 Y29.3855
G01 X28.1579 Y29.3984
G01 X28.1709 Y29.4109
G01 X28.1833 Y29.4238
G01 X28.1963 Y29.4363
G01 X28.2087 Y29.4492
G01 X28.2217 Y29.4617
G01 X28.2341 Y29.4746
G01 X28.2471 Y29.4871
G01 X28.2595 Y29.5000
G01 X28.2725 Y29.5125
G01 X28.2849 Y29.5254
G01 X28.2979 Y29.5379
G01 X28.3103 Y29.5508
G01 X28.3233 Y29.5633
G01 X28.3357 Y29.5762
G01 X28.3487 Y29.5887
G01 X28.3611 Y29.6016
G01 X28.3741 Y29.6141
G01 X28.3865 Y29.6270
G01 X28.3995 Y29.6395
G01 X28.4119 Y29.6524
G01 X28.4249 Y29.6649
G01 X28.4373 Y29.6778
G01 X28.4503 Y29.6903
G01 X28.4627 Y29.7032
G01 X28.4757 Y29.7157
G01 X28.4969 Y29.7372
G01 X28.5151 Y29.7537
G01 X28.5341 Y29.7693
G01 X28.5438 Y29.7767
G01 X28.5639 Y29.7908
G01 X28.5742 Y29.7975
G01 X28.5950 Y29.8100
G01 X28.6027 Y29.8173
G01 X28.6151 Y29.8302
G01 X28.6281 Y29.8427
G01 X28.6405 Y29.8556
G01 X28.6535 Y29.8681
G01 X28.6659 Y29.8810
G01 X28.6789 Y29.8935
G01 X28.6913 Y29.9064
G01 X28.7043 Y29.9189
G01 X28.7167 Y29.9318
G01 X28.7297 Y29.9443
G01 X28.7421 Y29.9572
G01 X28.7551 Y29.9697
G01 X28.7675 Y29.9826
G01 X28.7805 Y29.9951
G01 X28.7929 Y30.0080
G01 X28.8059 Y30.0205
G01 X28.8183 Y30.0334
G01 X28.8313 Y30.0459
G01 X28.8437 Y30.0588
G01 X28.8567 Y30.0713
G01 X28.8691 Y30.0842
G01 X28.8821 Y30.0967
G01 X28.8945 Y30.1096
G01 X28.9075 Y30.1221
G01 X28.9199 Y30.1350
G01 X28.9329 Y30.1475
G01 X28.9453 Y30.1604
G01 X28.9583 Y30.1729
G01 X28.9707 Y30.1858
G01 X28.9837 Y30.1983
G01 X28.9961 Y30.2112
G01 X29.0091 Y30.2237
G01 X29.0215 Y30.2366
G01 X29.0345 Y30.2491
G01 X29.0469 Y30.2620
G01 X29.0599 Y30.2745
G01 X29.0723 Y30.2874
G01 X29.0853 Y30.2999
G01 X29.0977 Y30.3128
G01 X29.1107 Y30.3253
G01 X29.1231 Y30.3382
G01 X29.1361 Y30.3507
G01 X29.1506 Y30.3657
G01 X29.1361 Y30.3807
G01 X29.1232 Y30.3931
G01 X29.1107 Y30.4061
G01 X29.0978 Y30.4185
G01 X29.0853 Y30.4315
G01 X29.0724 Y30.4439
G01 X29.0599 Y30.4569
G01 X29.0470 Y30.4693
G01 X29.0345 Y30.4823
G01 X29.0216 Y30.4947
G01 X29.0091 Y30.5077
G01 X28.9962 Y30.5201
G01 X28.9837 Y30.5331
G01 X28.9708 Y30.5455
G01 X28.9583 Y30.5585
G01 X28.9454 Y30.5709
G01 X28.9329 Y30.5839
G01 X28.9200 Y30.5963
G01 X28.9075 Y30.6093
G01 X28.8946 Y30.6217
G01 X28.8821 Y30.6347
G01 X28.8692 Y30.6471
G01 X28.8567 Y30.6601
G01 X28.8438 Y30.6725
G01 X28.8313 Y30.6855
G01 X28.8184 Y30.6979
G01 X28.8059 Y30.7109
G01 X28.7930 Y30.7233
G01 X28.7805 Y30.7363
G01 X28.7676 Y30.7487
G01 X28.7551 Y30.7617
G01 X28.7422 Y30.7741
G01 X28.7297 Y30.7871
G01 X28.7168 Y30.7995
G01 X28.7043 Y30.8125
G01 X28.6914 Y30.8249
G01 X28.6789 Y30.8379
G01 X28.6660 Y30.8503
G01 X28.6535 Y30.8633
G01 X28.6406 Y30.8757
G01 X28.6281 Y30.8887
G01 X28.6152 Y30.9011
G01 X28.6027 Y30.9141
G01 X28.5898 Y30.9265
G01 X28.5773 Y30.9395
G01 X28.5644 Y30.9519
G01 X28.5519 Y30.9649
G01 X28.5390 Y30.9773
G01 X28.5265 Y30.9903
G01 X28.5136 Y31.0027
G01 X28.5011 Y31.0157
G01 X28.4882 Y31.0281
G01 X28.4757 Y31.0411
G01 X28.4628 Y31.0535
G01 X28.4503 Y31.0665
G01 X28.4374 Y31.0789
G01 X28.4249 Y31.0919
G01 X28.4120 Y31.1043
G01 X28.3995 Y31.1173
G01 X28.3866 Y31.1297
G01 X28.3741 Y31.1427
G01 X28.3612 Y31.1551
G01 X28.3487 Y31.1681
G01 X28.3358 Y31.1805
G01 X28.3233 Y31.1935
G01 X28.3104 Y31.2059
G01 X28.2979 Y31.2189
G01 X28.2850 Y31.2313
G01 X28.2725 Y31.2443
G01 X28.2596 Y31.2567
G01 X28.2471 Y31.2697
G01 X28.2342 Y31.2821
G01 X28.2217 Y31.2951
G01 X28.2088 Y31.3075
G01 X28.1963 Y31.3205
G01 X28.1834 Y31.3329
G01 X28.1709 Y31.3459
G01 X28.1580 Y31.3583
G01 X28.1455 Y31.3713
G01 X28.1326 Y31.3837
G01 X28.1201 Y31.3967
G01 X28.1072 Y31.4091
G01 X28.0947 Y31.4221
G01 X28.0818 Y31.4345
G01 X28.0693 Y31.4475
G01 X28.0564 Y31.4599
G01 X28.0439 Y31.4729
G01 X28.0310 Y31.4853
G01 X28.0185 Y31.4983
G01 X28.0056 Y31.5107
G01 X27.9931 Y31.5237
G01 X27.9802 Y31.5361
G01 X27.9677 Y31.5491
G01 X27.9548 Y31.5615
G01 X27.9423 Y31.5745
G01 X27.9294 Y31.5869
G01 X27.9169 Y31.5999
G01 X27.9040 Y31.6123
G01 X27.8915 Y31.6253
G01 X27.8786 Y31.6377
G01 X27.8661 Y31.6507
G01 X27.8532 Y31.6631
G01 X27.8407 Y31.6761
G01 X27.8278 Y31.6885
G01 X27.8153 Y31.7015
G01 X27.8024 Y31.7139
G01 X27.7899 Y31.7269
G01 X27.7770 Y31.7393
G01 X27.7645 Y31.7523
G01 X27.7516 Y31.7647
G01 X27.7391 Y31.7777
G01 X27.7262 Y31.7901
G01 X27.7137 Y31.8031
G01 X27.7008 Y31.8155
G01 X27.6883 Y31.8285
G01 X27.6754 Y31.8409
G01 X27.6629 Y31.8539
G01 X27.6500 Y31.8663
G01 X27.6375 Y31.8793
G01 X27.6246 Y31.8917
G01 X27.6121 Y31.9047
G01 X27.5992 Y31.9171
G01 X27.5867 Y31.9301
G01 X27.5738 Y31.9425
G01 X27.5613 Y31.9555
G01 X27.5484 Y31.9679
G01 X27.5359 Y31.9809
G01 X27.5230 Y31.9933
G01 X27.5105 Y32.0063
G01 X27.4917 Y32.0247
G01 X26.6057 Y32.0247
G01 X26.5612 Y31.9650
G01 X26.5456 Y31.9460
G01 X26.4678 Y31.8599
G01 X26.4509 Y31.8421
G01 X26.4331 Y31.8252
G01 X26.3562 Y31.7555
G01 X26.3376 Y31.7395
G01 X26.3182 Y31.7244
G01 X26.2501 Y31.6738
G01 X26.3182 Y31.6232
G01 X26.3376 Y31.6081
G01 X26.3562 Y31.5921
G01 X26.4331 Y31.5224
G01 X26.4509 Y31.5055
G01 X26.4678 Y31.4877
G01 X26.5375 Y31.4108
G01 X26.5535 Y31.3922
G01 X26.5686 Y31.3728
G01 X26.6305 Y31.2894
G01 X26.6446 Y31.2694
G01 X26.6578 Y31.2486
G01 X26.7111 Y31.1596
G01 X26.7232 Y31.1382
G01 X26.7343 Y31.1163
G01 X26.7838 Y31.0113
G01 X26.7886 Y31.0000
G01 X26.7974 Y30.9771
G01 X26.8324 Y30.8794
G01 X26.8401 Y30.8561
G01 X26.8467 Y30.8324
G01 X26.8719 Y30.7317
G01 X26.8773 Y30.7077
G01 X26.8815 Y30.6836
G01 X26.8967 Y30.5809
G01 X26.8997 Y30.5565
G01 X26.9015 Y30.5320
G01 X26.9066 Y30.4283
G01 X26.9072 Y30.4038
G01 X26.9066 Y30.3793
G01 X26.9015 Y30.2756
G01 X26.8997 Y30.2511
G01 X26.8983 Y30.2389
G01 X26.8815 Y30.1240
G01 X26.8773 Y30.0998
G01 X26.8719 Y30.0759
G01 X26.8467 Y29.9752
G01 X26.8401 Y29.9515
G01 X26.8364 Y29.9398
G01 X26.7974 Y29.8305
G01 X26.7886 Y29.8076
G01 X26.7838 Y29.7963
G01 X26.7289 Y29.6803
G01 X26.7232 Y29.6694
G01 X26.7111 Y29.6480
G01 X26.6578 Y29.5590
G01 X26.6446 Y29.5382
G01 X26.6377 Y29.5281
G01 X26.5612 Y29.4250
G01 X26.5535 Y29.4154
G01 X26.5375 Y29.3968
G01 X26.4594 Y29.3109
G01 X26.4421 Y29.2936
G01 X26.4331 Y29.2852
G01 X26.3562 Y29.2155
G01 X26.3376 Y29.1995
G01 X26.3182 Y29.1844
G01 X26.2501 Y29.1338
G00 Z2.0000
G00 X26.2501 Y34.2138
G01 F60.00
G01 Z-0.0500
G01 F80.00
G01 X26.3182 Y34.1632
G01 X26.3376 Y34.1481
G01 X26.3562 Y34.1321
G01 X26.4331 Y34.0624
G01 X26.4509 Y34.0455
G01 X26.4678 Y34.0277
G01 X26.5375 Y33.9508
G01 X26.5535 Y33.9322
G01 X26.5686 Y33.9128
G01 X26.6245 Y33.8375
G01 X27.9273 Y33.8375
G01 X27.9518 Y33.8369
G01 X27.9641 Y33.8361
G01 X27.9885 Y33.8337
G01 X28.0007 Y33.8321
G01 X28.0248 Y33.8279
G01 X28.0368 Y33.8254
G01 X28.0606 Y33.8194
G01 X28.0880 Y33.8109
G01 X28.1155 Y33.8083
G01 X28.1398 Y33.8047
G01 X28.1638 Y33.8000
G01 X28.1876 Y33.7940
G01 X28.1994 Y33.7906
G01 X28.2111 Y33.7869
G01 X28.2342 Y33.7786
G01 X28.2569 Y33.7692
G01 X28.2681 Y33.7641
G01 X28.2900 Y33.7531
G01 X28.3030 Y33.7458
G01 X28.3189 Y33.7387
G01 X28.3408 Y33.7277
G01 X28.3515 Y33.7217
G01 X28.3726 Y33.7091
G01 X28.3930 Y33.6955
G01 X28.4127 Y33.6809
G01 X28.4317 Y33.6653
G01 X28.4534 Y33.6454
G01 X28.4742 Y33.6329
G01 X28.4845 Y33.6262
G01 X28.5045 Y33.6121
G01 X28.5143 Y33.6047
G01 X28.5333 Y33.5891
G01 X28.5425 Y33.5810
G01 X28.5602 Y33.5641
G01 X28.5727 Y33.5511
G01 X28.5856 Y33.5387
G01 X28.5981 Y33.5257
G01 X28.6110 Y33.5133
G01 X28.6235 Y33.5003
G01 X28.6364 Y33.4879
G01 X28.6489 Y33.4749
G01 X28.6618 Y33.4625
G01 X28.6743 Y33.4495
G01 X28.6872 Y33.4371
G01 X28.6997 Y33.4241
G01 X28.7126 Y33.4117
G01 X28.7251 Y33.3987
G01 X28.7380 Y33.3863
G01 X28.7505 Y33.3733
G01 X28.7634 Y33.3609
G01 X28.7759 Y33.3479
G01 X28.7888 Y33.3355
G01 X28.8013 Y33.3225
G01 X28.8142 Y33.3101
G01 X28.8267 Y33.2971
G01 X28.8396 Y33.2847
G01 X28.8521 Y33.2717
G01 X28.8650 Y33.2593
G01 X28.8775 Y33.2463
G01 X28.8904 Y33.2339
G01 X28.9029 Y33.2209
G01 X28.9158 Y33.2085
G01 X28.9283 Y33.1955
G01 X28.9412 Y33.1831
G01 X28.9537 Y33.1701
G01 X28.9666 Y33.1577
G01 X28.9791 Y33.1447
G01 X28.9920 Y33.1323
G01 X29.0045 Y33.1193
G01 X29.0174 Y33.1069
G01 X29.0299 Y33.0939
G01 X29.0428 Y33.0815
G01 X29.0553 Y33.0685
G01 X29.0682 Y33.0561
G01 X29.0807 Y33.0431
G01 X29.0936 Y33.0307
G01 X29.1061 Y33.0177
G01 X29.1190 Y33.0053
G01 X29.1315 Y32.9923
G01 X29.1444 Y32.9799
G01 X29.1569 Y32.9669
G01 X29.1784 Y32.9457
G01 X29.1949 Y32.9275
G01 X29.2028 Y32.9181
G01 X29.2179 Y32.8988
G01 X29.2320 Y32.8787
G01 X29.2387 Y32.8684
G01 X29.2512 Y32.8476
G01 X29.2585 Y32.8399
G01 X29.2714 Y32.8275
G01 X29.2839 Y32.8145
G01 X29.2968 Y32.8021
G01 X29.3093 Y32.7891
G01 X29.3222 Y32.7767
G01 X29.3347 Y32.7637
G01 X29.3476 Y32.7513
G01 X29.3601 Y32.7383
G01 X29.3730 Y32.7259
G01 X29.3855 Y32.7129
G01 X29.3984 Y32.7005
G01 X29.4109 Y32.6875
G01 X29.4238 Y32.6751
G01 X29.4363 Y32.6621
G01 X29.4492 Y32.6497
G01 X29.4617 Y32.6367
G01 X29.4746 Y32.6243
G01 X29.4871 Y32.6113
G01 X29.5000 Y32.5989
G01 X29.5125 Y32.5859
G01 X29.5254 Y32.5735
G01 X29.5379 Y32.5605
G01 X29.5508 Y32.5481
G01 X29.5633 Y32.5351
G01 X29.5762 Y32.5227
G01 X29.5887 Y32.5097
G01 X29.6016 Y32.4973
G01 X29.6141 Y32.4843
G01 X29.6270 Y32.4719
G01 X29.6395 Y32.4589
G01 X29.6524 Y32.4465
G01 X29.6649 Y32.4335
G01 X29.6778 Y32.4211
G01 X29.6903 Y32.4081
G01 X29.7032 Y32.3957
G01 X29.7157 Y32.3827
G01 X29.7286 Y32.3703
G01 X29.7411 Y32.3573
G01 X29.7540 Y32.3449
G01 X29.7665 Y32.3319
G01 X29.7794 Y32.3195
G01 X29.7919 Y32.3065
G01 X29.8048 Y32.2941
G01 X29.8173 Y32.2811
G01 X29.8302 Y32.2687
G01 X29.8427 Y32.2557
G01 X29.8556 Y32.2433
G01 X29.8681 Y32.2303
G01 X29.8810 Y32.2179
G01 X29.8935 Y32.2049
G01 X29.9064 Y32.1925
G01 X29.9189 Y32.1795
G01 X29.9318 Y32.1671
G01 X29.9443 Y32.1541
G01 X29.9572 Y32.1417
G01 X29.9697 Y32.1287
G01 X29.9826 Y32.1163
G01 X29.9951 Y32.1033
G01 X30.0080 Y32.0909
G01 X30.0205 Y32.0779
G01 X30.0334 Y32.0655
G01 X30.0459 Y32.0525
G01 X30.0588 Y32.0401
G01 X30.0713 Y32.0271
G01 X30.0842 Y32.0147
G01 X30.0967 Y32.0017
G01 X30.1096 Y31.9893
G01 X30.1221 Y31.9763
G01 X30.1350 Y31.9639
G01 X30.1475 Y31.9509
G01 X30.1604 Y31.9385
G01 X30.1729 Y31.9255
G01 X30.1858 Y31.9131
G01 X30.1983 Y31.9001
G01 X30.2112 Y31.8877
G01 X30.2237 Y31.8747
G01 X30.2366 Y31.8623
G01 X30.2491 Y31.8493
G01 X30.2620 Y31.8369
G01 X30.2745 Y31.8239
G01 X30.2874 Y31.8115
G01 X30.2999 Y31.7985
G01 X30.3128 Y31.7861
G01 X30.3253 Y31.7731
G01 X30.3382 Y31.7607
G01 X30.3507 Y31.7477
G01 X30.3636 Y31.7353
G01 X30.3761 Y31.7223
G01 X30.3890 Y31.7099
G01 X30.4015 Y31.6969
G01 X30.4144 Y31.6845
G01 X30.4269 Y31.6715
G01 X30.4398 Y31.6591
G01 X30.4523 Y31.6461
G01 X30.4652 Y31.6337
G01 X30.4777 Y31.6207
G01 X30.4906 Y31.6083
G01 X30.5031 Y31.5953
G01 X30.5160 Y31.5829
G01 X30.5285 Y31.5699
G01 X30.5414 Y31.5575
G01 X30.5539 Y31.5445
G01 X30.5668 Y31.5321
G01 X30.5793 Y31.5191
G01 X30.5922 Y31.5067
G01 X30.6047 Y31.4937
G01 X30.6176 Y31.4813
G01 X30.6301 Y31.4683
G01 X30.6430 Y31.4559
G01 X30.6555 Y31.4429
G01 X30.6684 Y31.4305
G01 X30.6809 Y31.4175
G01 X30.6938 Y31.4051
G01 X30.7063 Y31.3921
G01 X30.7192 Y31.3797
G01 X30.7317 Y31.3667
G01 X30.7446 Y31.3543
G01 X30.7571 Y31.3413
G01 X30.7700 Y31.3289
G01 X30.7825 Y31.3159
G01 X30.7954 Y31.3035
G01 X30.8079 Y31.2905
G01 X30.8208 Y31.2781
G01 X30.8338 Y31.2646
G01 X31.6780 Y31.2756
G01 X31.6879 Y31.2894
G01 X31.7498 Y31.3728
G01 X31.7649 Y31.3922
G01 X31.7809 Y31.4108
G01 X31.8506 Y31.4877
G01 X31.8675 Y31.5055
G01 X31.8853 Y31.5224
G01 X31.9622 Y31.5921
G01 X31.9808 Y31.6081
G01 X32.0002 Y31.6232
G01 X32.0683 Y31.6738
G01 X32.0002 Y31.7244
G01 X31.9808 Y31.7395
G01 X31.9622 Y31.7555
G01 X31.8853 Y31.8252
G01 X31.8763 Y31.8336
G01 X31.8590 Y31.8509
G01 X31.7728 Y31.9460
G01 X31.7649 Y31.9554
G01 X31.7498 Y31.9748
G01 X31.6879 Y32.0582
G01 X31.6738 Y32.0782
G01 X31.6606 Y32.0990
G01 X31.6073 Y32.1880
G01 X31.5952 Y32.2094
G01 X31.5841 Y32.2313
G01 X31.5397 Y32.3251
G01 X31.5298 Y32.3476
G01 X31.5210 Y32.3705
G01 X31.4860 Y32.4682
G01 X31.4783 Y32.4915
G01 X31.4717 Y32.5152
G01 X31.4437 Y32.6278
G01 X31.4411 Y32.6399
G01 X31.4369 Y32.6640
G01 X31.4217 Y32.7667
G01 X31.4187 Y32.7911
G01 X31.4169 Y32.8156
G01 X31.4118 Y32.9193
G01 X31.4112 Y32.9438
G01 X31.4118 Y32.9683
G01 X31.4169 Y33.0720
G01 X31.4187 Y33.0965
G01 X31.4217 Y33.1209
G01 X31.4369 Y33.2236
G01 X31.4411 Y33.2478
G01 X31.4465 Y33.2717
G01 X31.4717 Y33.3724
G01 X31.4783 Y33.3961
G01 X31.4860 Y33.4194
G01 X31.5210 Y33.5171
G01 X31.5298 Y33.5400
G01 X31.5346 Y33.5513
G01 X31.5895 Y33.6673
G01 X31.5952 Y33.6782
G01 X31.6073 Y33.6996
G01 X31.6606 Y33.7886
G01 X31.6738 Y33.8094
G01 X31.6879 Y33.8294
G01 X31.7498 Y33.9128
G01 X31.7649 Y33.9322
G01 X31.7728 Y33.9416
G01 X31.8590 Y34.0367
G01 X31.8675 Y34.0455
G01 X31.8853 Y34.0624
G01 X31.9622 Y34.1321
G01 X31.9808 Y34.1481
G01 X32.0002 Y34.1632
G01 X32.0683 Y34.2138
G01 X32.0002 Y34.2644
G01 X31.9808 Y34.2795
G01 X31.9622 Y34.2955
G01 X31.8853 Y34.3652
G01 X31.8763 Y34.3736
G01 X31.8590 Y34.3909
G01 X31.7728 Y34.4860
G01 X31.7649 Y34.4954
G01 X31.7498 Y34.5148
G01 X31.6879 Y34.5982
G01 X31.6738 Y34.6182
G01 X31.6606 Y34.6390
G01 X31.6073 Y34.7280
G01 X31.5952 Y34.7494
G01 X31.5841 Y34.7713
G01 X31.5397 Y34.8651
G01 X31.5298 Y34.8876
G01 X31.5210 Y34.9105
G01 X31.4860 Y35.0082
G01 X31.4783 Y35.0315
G01 X31.4717 Y35.0552
G01 X31.4437 Y35.1678
G01 X31.4389 Y35.1919
G01 X31.4369 Y35.2040
G01 X31.4217 Y35.3067
G01 X31.4187 Y35.3311
G01 X31.4169 Y35.3556
G01 X31.4118 Y35.4593
G01 X31.4112 Y35.4838
G01 X31.4118 Y35.5083
G01 X31.4169 Y35.6120
G01 X31.4187 Y35.6365
G01 X31.4217 Y35.6609
G01 X31.4369 Y35.7636
G01 X31.4411 Y35.7878
G01 X31.4465 Y35.8117
G01 X31.4717 Y35.9124
G01 X31.4783 Y35.9361
G01 X31.4860 Y35.9594
G01 X31.5210 Y36.0571
G01 X31.5298 Y36.0800
G01 X31.5346 Y36.0913
G01 X31.5895 Y36.2073
G01 X31.5952 Y36.2182
G01 X31.6073 Y36.2396
G01 X31.6606 Y36.3286
G01 X31.6738 Y36.3494
G01 X31.6879 Y36.3694
G01 X31.7498 Y36.4528
G01 X31.7649 Y36.4722
G01 X31.7728 Y36.4816
G01 X31.8590 Y36.5767
G01 X31.8763 Y36.5940
G01 X31.8853 Y36.6024
G01 X31.9622 Y36.6721
G01 X31.9808 Y36.6881
G01 X32.0002 Y36.7032
G01 X32.0683 Y36.7538
G01 X32.0002 Y36.8044
G01 X31.9808 Y36.8195
G01 X31.9622 Y36.8355
G01 X31.8853 Y36.9052
G01 X31.8675 Y36.9221
G01 X31.8590 Y36.9309
G01 X31.7809 Y37.0168
G01 X31.7649 Y37.0354
G01 X31.7572 Y37.0450
G01 X31.6807 Y37.1481
G01 X31.6738 Y37.1582
G01 X31.6606 Y37.1790
G01 X31.6011 Y37.2786
G01 X31.5895 Y37.3003
G01 X31.5841 Y37.3113
G01 X31.5397 Y37.4051
G01 X31.5298 Y37.4276
G01 X31.5210 Y37.4505
G01 X31.4860 Y37.5482
G01 X31.4783 Y37.5715
G01 X31.4717 Y37.5952
G01 X31.4465 Y37.6959
G01 X31.4411 Y37.7199
G01 X31.4369 Y37.7440
G01 X31.4217 Y37.8467
G01 X31.4201 Y37.8589
G01 X31.4177 Y37.8833
G01 X31.4118 Y37.9993
G01 X31.4112 Y38.0238
G01 X31.4118 Y38.0483
G01 X31.4169 Y38.1520
G01 X31.4187 Y38.1765
G01 X31.4217 Y38.2009
G01 X31.4369 Y38.3036
G01 X31.4411 Y38.3278
G01 X31.4465 Y38.3517
G01 X31.4717 Y38.4524
G01 X31.4783 Y38.4761
G01 X31.4860 Y38.4994
G01 X31.5210 Y38.5971
G01 X31.5298 Y38.6200
G01 X31.5397 Y38.6425
G01 X31.5841 Y38.7363
G01 X31.5952 Y38.7582
G01 X31.6073 Y38.7796
G01 X31.6606 Y38.8686
G01 X31.6738 Y38.8894
G01 X31.6879 Y38.9094
G01 X31.7498 Y38.9928
G01 X31.7649 Y39.0122
G01 X31.7754 Y39.0246
G01 X31.7544 Y39.0310
G01 X31.7428 Y39.0350
G01 X31.7199 Y39.0439
G01 X31.7086 Y39.0487
G01 X31.6974 Y39.0538
G01 X31.6755 Y39.0648
G01 X31.6648 Y39.0708
G01 X31.6437 Y39.0834
G01 X31.6233 Y39.0970
G01 X31.6134 Y39.1042
G01 X31.5940 Y39.1193
G01 X31.5846 Y39.1272
G01 X31.5754 Y39.1353
G01 X31.5577 Y39.1523
G01 X31.5491 Y39.1610
G01 X31.5326 Y39.1792
G01 X31.5247 Y39.1886
G01 X31.5096 Y39.2080
G01 X31.4955 Y39.2280
G01 X31.4888 Y39.2383
G01 X31.4823 Y39.2488
G01 X31.4702 Y39.2701
G01 X31.4646 Y39.2810
G01 X31.4541 Y39.3032
G01 X31.4493 Y39.3145
G01 X31.4404 Y39.3374
G01 X31.4327 Y39.3607
G01 X31.4293 Y39.3724
G01 X31.4234 Y39.3963
G01 X31.4208 Y39.4083
G01 X31.4186 Y39.4203
G01 X31.4150 Y39.4446
G01 X31.4136 Y39.4568
G01 X31.4118 Y39.4813
G01 X31.4112 Y39.5058
G01 X31.4112 Y41.6218
G01 X31.4118 Y41.6463
G01 X31.4126 Y41.6586
G01 X31.4136 Y41.6708
G01 X31.4166 Y41.6952
G01 X31.4208 Y41.7193
G01 X31.4262 Y41.7433
G01 X31.4327 Y41.7669
G01 X31.4404 Y41.7902
G01 X31.4493 Y41.8131
G01 X31.4541 Y41.8244
G01 X31.4646 Y41.8466
G01 X31.4762 Y41.8682
G01 X31.4888 Y41.8893
G01 X31.5024 Y41.9097
G01 X31.5096 Y41.9196
G01 X31.5247 Y41.9390
G01 X31.5407 Y41.9576
G01 X31.5576 Y41.9753
G01 X31.5754 Y41.9923
G01 X31.5940 Y42.0083
G01 X31.6134 Y42.0234
G01 X31.6334 Y42.0375
G01 X31.6542 Y42.0507
G01 X31.6755 Y42.0628
G01 X31.6974 Y42.0738
G01 X31.7199 Y42.0837
G01 X31.7428 Y42.0926
G01 X31.7661 Y42.1003
G01 X31.7897 Y42.1068
G01 X31.8137 Y42.1122
G01 X31.8257 Y42.1144
G01 X31.8500 Y42.1180
G01 X31.8622 Y42.1194
G01 X31.8867 Y42.1212
G01 X31.9112 Y42.1218
G01 X32.0626 Y42.1218
G01 X32.0626 Y44.5093
G01 X32.0477 Y44.5210
G01 X32.0292 Y44.5370
G01 X31.9599 Y44.5998
G01 X31.9421 Y44.6167
G01 X31.9252 Y44.6345
G01 X31.8624 Y44.7038
G01 X31.8543 Y44.7130
G01 X31.8387 Y44.7319
G01 X31.7684 Y44.8267
G01 X31.7548 Y44.8471
G01 X31.7484 Y44.8576
G01 X31.7003 Y44.9377
G01 X31.6882 Y44.9591
G01 X31.6772 Y44.9810
G01 X31.6372 Y45.0655
G01 X31.6273 Y45.0880
G01 X31.6184 Y45.1109
G01 X31.5869 Y45.1989
G01 X31.5792 Y45.2222
G01 X31.5727 Y45.2458
G01 X31.5500 Y45.3365
G01 X31.5446 Y45.3604
G01 X31.5404 Y45.3846
G01 X31.5267 Y45.4771
G01 X31.5237 Y45.5014
G01 X31.5219 Y45.5259
G01 X31.5173 Y45.6193
G01 X31.5167 Y45.6438
G01 X31.5173 Y45.6683
G01 X31.5226 Y45.7739
G01 X31.5237 Y45.7862
G01 X31.5267 Y45.8105
G01 X31.5404 Y45.9030
G01 X31.5446 Y45.9272
G01 X31.5500 Y45.9511
G01 X31.5727 Y46.0418
G01 X31.5792 Y46.0654
G01 X31.5830 Y46.0771
G01 X31.6227 Y46.1883
G01 X31.6321 Y46.2109
G01 X31.6372 Y46.2221
G01 X31.6826 Y46.3176
G01 X31.6941 Y46.3393
G01 X31.7003 Y46.3499
G01 X31.7484 Y46.4300
G01 X31.7615 Y46.4508
G01 X31.7756 Y46.4708
G01 X31.8313 Y46.5459
G01 X31.8464 Y46.5653
G01 X31.8624 Y46.5838
G01 X31.9252 Y46.6531
G01 X31.9421 Y46.6709
G01 X31.9599 Y46.6878
G01 X32.0292 Y46.7506
G01 X32.0477 Y46.7666
G01 X32.0626 Y46.7783
G01 X32.0628 Y48.2234
G01 X32.0652 Y48.2736
G01 X32.0671 Y48.2997
G01 X32.0703 Y48.3247
G01 X32.0778 Y48.3743
G01 X32.0830 Y48.4000
G01 X32.0951 Y48.4487
G01 X32.1021 Y48.4739
G01 X32.1101 Y48.4978
G01 X32.1228 Y48.5332
G01 X32.1322 Y48.5577
G01 X32.1425 Y48.5806
G01 X32.1586 Y48.6146
G01 X32.1699 Y48.6371
G01 X32.1765 Y48.6490
G01 X32.2089 Y48.7029
G01 X32.2163 Y48.7142
G01 X32.2308 Y48.7348
G01 X32.2533 Y48.7650
G01 X32.2694 Y48.7856
G01 X32.2859 Y48.8046
G01 X32.3112 Y48.8325
G01 X32.3286 Y48.8507
G01 X32.3383 Y48.8602
G01 X32.3755 Y48.8940
G01 X32.3945 Y48.9104
G01 X32.4152 Y48.9265
G01 X32.4455 Y48.9489
G01 X32.4660 Y48.9634
G01 X32.4774 Y48.9708
G01 X32.5314 Y49.0030
G01 X32.5433 Y49.0095
G01 X32.5658 Y49.0208
G01 X32.5998 Y49.0368
G01 X32.6238 Y49.0474
G01 X32.6473 Y49.0564
G01 X32.6827 Y49.0691
G01 X32.7066 Y49.0769
G01 X32.7197 Y49.0807
G01 X32.7684 Y49.0930
G01 X32.7929 Y49.0985
G01 X32.8187 Y49.1030
G01 X32.8560 Y49.1084
G01 X32.8810 Y49.1115
G01 X32.8945 Y49.1127
G01 X32.9447 Y49.1152
G01 X32.9715 Y49.1158
G01 X43.1315 Y49.0904
G01 X43.1560 Y49.0897
G01 X43.2061 Y49.0871
G01 X43.2197 Y49.0859
G01 X43.2447 Y49.0827
G01 X43.2819 Y49.0772
G01 X43.3077 Y49.0727
G01 X43.3322 Y49.0671
G01 X43.3809 Y49.0547
G01 X43.3939 Y49.0509
G01 X43.4178 Y49.0429
G01 X43.4532 Y49.0302
G01 X43.4777 Y49.0208
G01 X43.5006 Y49.0105
G01 X43.5346 Y48.9944
G01 X43.5571 Y48.9831
G01 X43.5690 Y48.9765
G01 X43.6229 Y48.9441
G01 X43.6342 Y48.9367
G01 X43.6548 Y48.9222
G01 X43.6850 Y48.8997
G01 X43.7056 Y48.8836
G01 X43.7246 Y48.8671
G01 X43.7525 Y48.8418
G01 X43.7707 Y48.8244
G01 X43.7802 Y48.8147
G01 X43.8223 Y48.7681
G01 X43.8311 Y48.7577
G01 X43.8465 Y48.7378
G01 X43.8689 Y48.7075
G01 X43.8834 Y48.6870
G01 X43.8973 Y48.6648
G01 X43.9167 Y48.6325
G01 X43.9295 Y48.6097
G01 X43.9408 Y48.5872
G01 X43.9568 Y48.5532
G01 X43.9670 Y48.5302
G01 X43.9721 Y48.5175
G01 X43.9891 Y48.4703
G01 X43.9972 Y48.4454
G01 X44.0039 Y48.4211
G01 X44.0130 Y48.3846
G01 X44.0185 Y48.3601
G01 X44.0230 Y48.3343
G01 X44.0284 Y48.2970
G01 X44.0315 Y48.2720
G01 X44.0334 Y48.2459
G01 X44.0357 Y48.1961
G01 X44.0358 Y46.7783
G01 X44.0507 Y46.7666
G01 X44.0692 Y46.7506
G01 X44.1385 Y46.6878
G01 X44.1563 Y46.6709
G01 X44.1732 Y46.6531
G01 X44.2441 Y46.5746
G01 X44.2520 Y46.5653
G01 X44.2671 Y46.5459
G01 X44.3228 Y46.4708
G01 X44.3369 Y46.4508
G01 X44.3500 Y46.4300
G01 X44.3981 Y46.3499
G01 X44.4102 Y46.3285
G01 X44.4158 Y46.3176
G01 X44.4663 Y46.2109
G01 X44.4711 Y46.1996
G01 X44.4800 Y46.1767
G01 X44.5115 Y46.0887
G01 X44.5192 Y46.0654
G01 X44.5257 Y46.0418
G01 X44.5512 Y45.9392
G01 X44.5560 Y45.9151
G01 X44.5580 Y45.9030
G01 X44.5734 Y45.7984
G01 X44.5758 Y45.7739
G01 X44.5765 Y45.7617
G01 X44.5811 Y45.6683
G01 X44.5817 Y45.6438
G01 X44.5811 Y45.6193
G01 X44.5765 Y45.5259
G01 X44.5747 Y45.5014
G01 X44.5717 Y45.4771
G01 X44.5580 Y45.3846
G01 X44.5538 Y45.3604
G01 X44.5484 Y45.3365
G01 X44.5257 Y45.2458
G01 X44.5192 Y45.2222
G01 X44.5115 Y45.1989
G01 X44.4800 Y45.1109
G01 X44.4711 Y45.0880
G01 X44.4612 Y45.0655
G01 X44.4212 Y44.9810
G01 X44.4102 Y44.9591
G01 X44.3981 Y44.9377
G01 X44.3500 Y44.8576
G01 X44.3369 Y44.8368
G01 X44.3228 Y44.8168
G01 X44.2671 Y44.7417
G01 X44.2597 Y44.7319
G01 X44.2441 Y44.7130
G01 X44.1648 Y44.6255
G01 X44.1475 Y44.6082
G01 X44.1385 Y44.5998
G01 X44.0692 Y44.5370
G01 X44.0507 Y44.5210
G01 X44.0313 Y44.5059
G01 X43.9562 Y44.4502
G01 X43.9362 Y44.4361
G01 X43.9154 Y44.4230
G01 X43.8247 Y44.3687
G01 X43.8030 Y44.3572
G01 X43.7920 Y44.3518
G01 X43.7075 Y44.3118
G01 X43.6850 Y44.3019
G01 X43.6621 Y44.2930
G01 X43.5741 Y44.2615
G01 X43.5508 Y44.2538
G01 X43.5272 Y44.2473
G01 X43.4365 Y44.2246
G01 X43.4126 Y44.2192
G01 X43.3884 Y44.2150
G01 X43.2959 Y44.2013
G01 X43.2716 Y44.1983
G01 X43.2471 Y44.1965
G01 X43.1537 Y44.1919
G01 X43.1292 Y44.1913
G01 X43.1047 Y44.1919
G01 X43.0113 Y44.1965
G01 X42.9991 Y44.1972
G01 X42.9746 Y44.1996
G01 X42.8700 Y44.2150
G01 X42.8458 Y44.2192
G01 X42.8219 Y44.2246
G01 X42.7312 Y44.2473
G01 X42.7076 Y44.2538
G01 X42.6843 Y44.2615
G01 X42.5963 Y44.2930
G01 X42.5734 Y44.3019
G01 X42.5621 Y44.3067
G01 X42.4664 Y44.3518
G01 X42.4445 Y44.3628
G01 X42.4231 Y44.3749
G01 X42.3325 Y44.4294
G01 X42.3121 Y44.4430
G01 X42.3022 Y44.4502
G01 X42.2271 Y44.5059
G01 X42.2077 Y44.5210
G01 X42.1892 Y44.5370
G01 X42.1199 Y44.5998
G01 X42.1021 Y44.6167
G01 X42.0852 Y44.6345
G01 X42.0143 Y44.7130
G01 X42.0064 Y44.7223
G01 X41.9913 Y44.7417
G01 X41.9356 Y44.8168
G01 X41.9215 Y44.8368
G01 X41.9084 Y44.8576
G01 X41.8603 Y44.9377
G01 X41.8482 Y44.9591
G01 X41.8372 Y44.9810
G01 X41.7972 Y45.0655
G01 X41.7873 Y45.0880
G01 X41.7784 Y45.1109
G01 X41.7469 Y45.1989
G01 X41.7392 Y45.2222
G01 X41.7327 Y45.2458
G01 X41.7100 Y45.3365
G01 X41.7046 Y45.3604
G01 X41.7004 Y45.3846
G01 X41.6867 Y45.4771
G01 X41.6837 Y45.5014
G01 X41.6819 Y45.5259
G01 X41.6773 Y45.6193
G01 X41.6767 Y45.6438
G01 X41.6769 Y45.6561
G01 X41.6826 Y45.7739
G01 X41.6837 Y45.7862
G01 X41.6867 Y45.8105
G01 X41.7004 Y45.9030
G01 X41.7046 Y45.9272
G01 X41.7100 Y45.9511
G01 X41.7358 Y46.0537
G01 X41.7392 Y46.0654
G01 X41.7469 Y46.0887
G01 X41.7784 Y46.1767
G01 X41.7873 Y46.1996
G01 X41.7972 Y46.2221
G01 X41.8372 Y46.3066
G01 X41.8482 Y46.3285
G01 X41.8603 Y46.3499
G01 X41.9084 Y46.4300
G01 X41.9215 Y46.4508
G01 X41.9356 Y46.4708
G01 X41.9913 Y46.5459
G01 X42.0064 Y46.5653
G01 X42.0224 Y46.5838
G01 X42.0852 Y46.6531
G01 X42.1021 Y46.6709
G01 X42.1199 Y46.6878
G01 X42.1984 Y46.7587
G01 X42.2226 Y46.7783
G01 X42.2226 Y47.2795
G01 X33.8758 Y47.3003
G01 X33.8758 Y46.7783
G01 X33.8907 Y46.7666
G01 X33.9092 Y46.7506
G01 X33.9785 Y46.6878
G01 X33.9963 Y46.6709
G01 X34.0132 Y46.6531
G01 X34.0760 Y46.5838
G01 X34.0920 Y46.5653
G01 X34.1071 Y46.5459
G01 X34.1628 Y46.4708
G01 X34.1769 Y46.4508
G01 X34.1900 Y46.4300
G01 X34.2381 Y46.3499
G01 X34.2502 Y46.3285
G01 X34.2558 Y46.3176
G01 X34.3012 Y46.2221
G01 X34.3111 Y46.1996
G01 X34.3157 Y46.1883
G01 X34.3554 Y46.0771
G01 X34.3626 Y46.0537
G01 X34.3657 Y46.0418
G01 X34.3884 Y45.9511
G01 X34.3938 Y45.9272
G01 X34.3980 Y45.9030
G01 X34.4117 Y45.8105
G01 X34.4134 Y45.7984
G01 X34.4158 Y45.7739
G01 X34.4211 Y45.6683
G01 X34.4217 Y45.6438
G01 X34.4211 Y45.6193
G01 X34.4165 Y45.5259
G01 X34.4147 Y45.5014
G01 X34.4117 Y45.4771
G01 X34.3980 Y45.3846
G01 X34.3938 Y45.3604
G01 X34.3884 Y45.3365
G01 X34.3657 Y45.2458
G01 X34.3592 Y45.2222
G01 X34.3515 Y45.1989
G01 X34.3200 Y45.1109
G01 X34.3111 Y45.0880
G01 X34.3012 Y45.0655
G01 X34.2612 Y44.9810
G01 X34.2502 Y44.9591
G01 X34.2381 Y44.9377
G01 X34.1900 Y44.8576
G01 X34.1836 Y44.8471
G01 X34.1700 Y44.8267
G01 X34.0997 Y44.7319
G01 X34.0841 Y44.7130
G01 X34.0760 Y44.7038
G01 X34.0132 Y44.6345
G01 X33.9963 Y44.6167
G01 X33.9785 Y44.5998
G01 X33.9092 Y44.5370
G01 X33.8907 Y44.5210
G01 X33.8758 Y44.5093
G01 X33.8758 Y42.1218
G01 X34.0272 Y42.1218
G01 X34.0517 Y42.1212
G01 X34.0762 Y42.1194
G01 X34.0884 Y42.1180
G01 X34.1127 Y42.1144
G01 X34.1247 Y42.1122
G01 X34.1487 Y42.1068
G01 X34.1723 Y42.1003
G01 X34.1956 Y42.0926
G01 X34.2185 Y42.0837
G01 X34.2410 Y42.0738
G01 X34.2629 Y42.0628
G01 X34.2736 Y42.0568
G01 X34.2947 Y42.0442
G01 X34.3151 Y42.0306
G01 X34.3348 Y42.0160
G01 X34.3538 Y42.0004
G01 X34.3630 Y41.9923
G01 X34.3807 Y41.9753
G01 X34.3977 Y41.9576
G01 X34.4137 Y41.9390
G01 X34.4214 Y41.9294
G01 X34.4360 Y41.9097
G01 X34.4496 Y41.8893
G01 X34.4622 Y41.8682
G01 X34.4738 Y41.8466
G01 X34.4792 Y41.8356
G01 X34.4891 Y41.8131
G01 X34.4980 Y41.7902
G01 X34.5057 Y41.7669
G01 X34.5122 Y41.7433
G01 X34.5176 Y41.7193
G01 X34.5198 Y41.7073
G01 X34.5234 Y41.6830
G01 X34.5258 Y41.6586
G01 X34.5266 Y41.6463
G01 X34.5272 Y41.6218
G01 X34.5272 Y39.5058
G01 X34.5266 Y39.4813
G01 X34.5248 Y39.4568
G01 X34.5234 Y39.4446
G01 X34.5198 Y39.4203
G01 X34.5176 Y39.4083
G01 X34.5122 Y39.3843
G01 X34.5057 Y39.3607
G01 X34.5020 Y39.3490
G01 X34.4937 Y39.3259
G01 X34.4891 Y39.3145
G01 X34.4792 Y39.2920
G01 X34.4738 Y39.2810
G01 X34.4622 Y39.2594
G01 X34.4561 Y39.2488
G01 X34.4429 Y39.2280
G01 X34.4360 Y39.2179
G01 X34.4288 Y39.2080
G01 X34.4137 Y39.1886
G01 X34.4058 Y39.1792
G01 X34.3893 Y39.1610
G01 X34.3807 Y39.1523
G01 X34.3630 Y39.1353
G01 X34.3444 Y39.1193
G01 X34.3348 Y39.1116
G01 X34.3250 Y39.1042
G01 X34.3050 Y39.0901
G01 X34.2842 Y39.0769
G01 X34.2736 Y39.0708
G01 X34.2629 Y39.0648
G01 X34.2410 Y39.0538
G01 X34.2298 Y39.0487
G01 X34.2071 Y39.0393
G01 X34.1840 Y39.0310
G01 X34.1630 Y39.0246
G01 X34.1812 Y39.0026
G01 X34.2350 Y38.9304
G01 X34.6026 Y38.9304
G01 X34.6027 Y43.0907
G01 X34.6052 Y43.1428
G01 X34.6070 Y43.1673
G01 X34.6100 Y43.1916
G01 X34.6158 Y43.2311
G01 X34.6200 Y43.2553
G01 X34.6254 Y43.2792
G01 X34.6351 Y43.3179
G01 X34.6416 Y43.3416
G01 X34.6493 Y43.3649
G01 X34.6628 Y43.4024
G01 X34.6716 Y43.4253
G01 X34.6816 Y43.4478
G01 X34.6986 Y43.4838
G01 X34.7040 Y43.4949
G01 X34.7156 Y43.5165
G01 X34.7487 Y43.5718
G01 X34.7623 Y43.5922
G01 X34.7695 Y43.6021
G01 X34.7933 Y43.6342
G01 X34.8084 Y43.6535
G01 X34.8244 Y43.6721
G01 X34.8596 Y43.7107
G01 X34.8681 Y43.7195
G01 X34.8859 Y43.7364
G01 X34.9155 Y43.7632
G01 X34.9341 Y43.7792
G01 X34.9534 Y43.7943
G01 X34.9855 Y43.8181
G01 X35.0055 Y43.8322
G01 X35.0158 Y43.8389
G01 X35.0711 Y43.8720
G01 X35.0818 Y43.8780
G01 X35.1038 Y43.8890
G01 X35.1398 Y43.9060
G01 X35.1623 Y43.9160
G01 X35.1852 Y43.9248
G01 X35.2227 Y43.9383
G01 X35.2460 Y43.9460
G01 X35.2578 Y43.9494
G01 X35.3203 Y43.9650
G01 X35.3444 Y43.9698
G01 X35.3565 Y43.9718
G01 X35.3960 Y43.9776
G01 X35.4203 Y43.9806
G01 X35.4448 Y43.9824
G01 X35.4847 Y43.9844
G01 X35.5092 Y43.9850
G01 X37.1281 Y43.9850
G01 X37.1344 Y44.5156
G01 X37.1184 Y44.5289
G01 X37.1092 Y44.5370
G01 X37.0399 Y44.5998
G01 X37.0221 Y44.6167
G01 X37.0052 Y44.6345
G01 X36.9424 Y44.7038
G01 X36.9264 Y44.7223
G01 X36.9113 Y44.7417
G01 X36.8556 Y44.8168
G01 X36.8415 Y44.8368
G01 X36.8284 Y44.8576
G01 X36.7803 Y44.9377
G01 X36.7682 Y44.9591
G01 X36.7572 Y44.9810
G01 X36.7172 Y45.0655
G01 X36.7073 Y45.0880
G01 X36.6984 Y45.1109
G01 X36.6669 Y45.1989
G01 X36.6592 Y45.2222
G01 X36.6527 Y45.2458
G01 X36.6300 Y45.3365
G01 X36.6246 Y45.3604
G01 X36.6204 Y45.3846
G01 X36.6067 Y45.4771
G01 X36.6037 Y45.5014
G01 X36.6019 Y45.5259
G01 X36.5973 Y45.6193
G01 X36.5967 Y45.6438
G01 X36.5973 Y45.6683
G01 X36.6019 Y45.7617
G01 X36.6026 Y45.7739
G01 X36.6050 Y45.7984
G01 X36.6204 Y45.9030
G01 X36.6246 Y45.9272
G01 X36.6300 Y45.9511
G01 X36.6527 Y46.0418
G01 X36.6592 Y46.0654
G01 X36.6630 Y46.0771
G01 X36.7027 Y46.1883
G01 X36.7073 Y46.1996
G01 X36.7172 Y46.2221
G01 X36.7572 Y46.3066
G01 X36.7682 Y46.3285
G01 X36.7803 Y46.3499
G01 X36.8284 Y46.4300
G01 X36.8415 Y46.4508
G01 X36.8556 Y46.4708
G01 X36.9113 Y46.5459
G01 X36.9264 Y46.5653
G01 X36.9424 Y46.5838
G01 X37.0052 Y46.6531
G01 X37.0221 Y46.6709
G01 X37.0399 Y46.6878
G01 X37.1092 Y46.7506
G01 X37.1277 Y46.7666
G01 X37.1471 Y46.7817
G01 X37.2222 Y46.8374
G01 X37.2422 Y46.8515
G01 X37.2630 Y46.8646
G01 X37.3431 Y46.9127
G01 X37.3645 Y46.9248
G01 X37.3864 Y46.9358
G01 X37.4821 Y46.9809
G01 X37.4934 Y46.9857
G01 X37.5163 Y46.9946
G01 X37.6043 Y47.0261
G01 X37.6276 Y47.0338
G01 X37.6512 Y47.0403
G01 X37.7419 Y47.0630
G01 X37.7658 Y47.0684
G01 X37.7900 Y47.0726
G01 X37.8825 Y47.0863
G01 X37.9068 Y47.0893
G01 X37.9313 Y47.0911
G01 X38.0369 Y47.0961
G01 X38.0492 Y47.0963
G01 X38.0737 Y47.0957
G01 X38.1671 Y47.0911
G01 X38.1916 Y47.0893
G01 X38.2159 Y47.0863
G01 X38.3084 Y47.0726
G01 X38.3326 Y47.0684
G01 X38.3565 Y47.0630
G01 X38.4472 Y47.0403
G01 X38.4708 Y47.0338
G01 X38.4941 Y47.0261
G01 X38.5821 Y46.9946
G01 X38.6050 Y46.9857
G01 X38.6163 Y46.9809
G01 X38.7230 Y46.9304
G01 X38.7339 Y46.9248
G01 X38.7553 Y46.9127
G01 X38.8459 Y46.8582
G01 X38.8663 Y46.8446
G01 X38.8762 Y46.8374
G01 X38.9513 Y46.7817
G01 X38.9707 Y46.7666
G01 X38.9892 Y46.7506
G01 X39.0585 Y46.6878
G01 X39.0763 Y46.6709
G01 X39.0932 Y46.6531
G01 X39.1641 Y46.5746
G01 X39.1797 Y46.5557
G01 X39.1871 Y46.5459
G01 X39.2428 Y46.4708
G01 X39.2569 Y46.4508
G01 X39.2636 Y46.4405
G01 X39.3243 Y46.3393
G01 X39.3302 Y46.3285
G01 X39.3412 Y46.3066
G01 X39.3812 Y46.2221
G01 X39.3911 Y46.1996
G01 X39.4000 Y46.1767
G01 X39.4315 Y46.0887
G01 X39.4392 Y46.0654
G01 X39.4457 Y46.0418
G01 X39.4684 Y45.9511
G01 X39.4738 Y45.9272
G01 X39.4780 Y45.9030
G01 X39.4917 Y45.8105
G01 X39.4947 Y45.7862
G01 X39.4965 Y45.7617
G01 X39.5011 Y45.6683
G01 X39.5017 Y45.6438
G01 X39.5015 Y45.6315
G01 X39.4965 Y45.5259
G01 X39.4947 Y45.5014
G01 X39.4917 Y45.4771
G01 X39.4760 Y45.3725
G01 X39.4712 Y45.3484
G01 X39.4684 Y45.3365
G01 X39.4457 Y45.2458
G01 X39.4392 Y45.2222
G01 X39.4315 Y45.1989
G01 X39.4000 Y45.1109
G01 X39.3911 Y45.0880
G01 X39.3812 Y45.0655
G01 X39.3412 Y44.9810
G01 X39.3302 Y44.9591
G01 X39.3181 Y44.9377
G01 X39.2700 Y44.8576
G01 X39.2569 Y44.8368
G01 X39.2500 Y44.8267
G01 X39.1797 Y44.7319
G01 X39.1641 Y44.7130
G01 X39.1560 Y44.7038
G01 X39.0932 Y44.6345
G01 X39.0848 Y44.6255
G01 X39.0675 Y44.6082
G01 X38.9892 Y44.5370
G01 X38.9707 Y44.5210
G01 X38.9476 Y44.5032
G01 X38.9414 Y43.9850
G01 X47.3170 Y43.9850
G01 X47.3108 Y44.5032
G01 X47.2877 Y44.5210
G01 X47.2692 Y44.5370
G01 X47.1909 Y44.6082
G01 X47.1736 Y44.6255
G01 X47.1652 Y44.6345
G01 X47.1024 Y44.7038
G01 X47.0864 Y44.7223
G01 X47.0713 Y44.7417
G01 X47.0156 Y44.8168
G01 X47.0015 Y44.8368
G01 X46.9884 Y44.8576
G01 X46.9403 Y44.9377
G01 X46.9282 Y44.9591
G01 X46.9172 Y44.9810
G01 X46.8772 Y45.0655
G01 X46.8673 Y45.0880
G01 X46.8584 Y45.1109
G01 X46.8269 Y45.1989
G01 X46.8192 Y45.2222
G01 X46.8158 Y45.2339
G01 X46.7872 Y45.3484
G01 X46.7824 Y45.3725
G01 X46.7804 Y45.3846
G01 X46.7667 Y45.4771
G01 X46.7637 Y45.5014
G01 X46.7619 Y45.5259
G01 X46.7573 Y45.6193
G01 X46.7567 Y45.6438
G01 X46.7573 Y45.6683
G01 X46.7619 Y45.7617
G01 X46.7637 Y45.7862
G01 X46.7667 Y45.8105
G01 X46.7804 Y45.9030
G01 X46.7846 Y45.9272
G01 X46.7900 Y45.9511
G01 X46.8127 Y46.0418
G01 X46.8192 Y46.0654
G01 X46.8269 Y46.0887
G01 X46.8584 Y46.1767
G01 X46.8673 Y46.1996
G01 X46.8772 Y46.2221
G01 X46.9172 Y46.3066
G01 X46.9282 Y46.3285
G01 X46.9403 Y46.3499
G01 X46.9884 Y46.4300
G01 X47.0015 Y46.4508
G01 X47.0156 Y46.4708
G01 X47.0713 Y46.5459
G01 X47.0864 Y46.5653
G01 X47.1024 Y46.5838
G01 X47.1652 Y46.6531
G01 X47.1821 Y46.6709
G01 X47.1999 Y46.6878
G01 X47.2692 Y46.7506
G01 X47.2877 Y46.7666
G01 X47.3071 Y46.7817
G01 X47.3822 Y46.8374
G01 X47.4022 Y46.8515
G01 X47.4230 Y46.8646
G01 X47.5031 Y46.9127
G01 X47.5245 Y46.9248
G01 X47.5464 Y46.9358
G01 X47.6309 Y46.9758
G01 X47.6534 Y46.9857
G01 X47.6763 Y46.9946
G01 X47.7643 Y47.0261
G01 X47.7876 Y47.0338
G01 X47.8112 Y47.0403
G01 X47.9019 Y47.0630
G01 X47.9258 Y47.0684
G01 X47.9379 Y47.0706
G01 X48.0425 Y47.0863
G01 X48.0668 Y47.0893
G01 X48.0913 Y47.0911
G01 X48.1847 Y47.0957
G01 X48.2092 Y47.0963
G01 X48.2337 Y47.0957
G01 X48.3271 Y47.0911
G01 X48.3516 Y47.0893
G01 X48.3759 Y47.0863
G01 X48.4684 Y47.0726
G01 X48.4926 Y47.0684
G01 X48.5046 Y47.0658
G01 X48.6072 Y47.0403
G01 X48.6308 Y47.0338
G01 X48.6541 Y47.0261
G01 X48.7421 Y46.9946
G01 X48.7537 Y46.9903
G01 X48.7763 Y46.9809
G01 X48.8720 Y46.9358
G01 X48.8939 Y46.9248
G01 X48.9047 Y46.9189
G01 X49.0059 Y46.8582
G01 X49.0263 Y46.8446
G01 X49.0362 Y46.8374
G01 X49.1113 Y46.7817
G01 X49.1307 Y46.7666
G01 X49.1400 Y46.7587
G01 X49.2275 Y46.6794
G01 X49.2448 Y46.6621
G01 X49.2532 Y46.6531
G01 X49.3160 Y46.5838
G01 X49.3320 Y46.5653
G01 X49.3471 Y46.5459
G01 X49.4028 Y46.4708
G01 X49.4100 Y46.4609
G01 X49.4236 Y46.4405
G01 X49.4781 Y46.3499
G01 X49.4902 Y46.3285
G01 X49.4958 Y46.3176
G01 X49.5463 Y46.2109
G01 X49.5511 Y46.1996
G01 X49.5600 Y46.1767
G01 X49.5954 Y46.0771
G01 X49.6026 Y46.0537
G01 X49.6057 Y46.0418
G01 X49.6284 Y45.9511
G01 X49.6338 Y45.9272
G01 X49.6380 Y45.9030
G01 X49.6534 Y45.7984
G01 X49.6558 Y45.7739
G01 X49.6565 Y45.7617
G01 X49.6611 Y45.6683
G01 X49.6617 Y45.6438
G01 X49.6611 Y45.6193
G01 X49.6565 Y45.5259
G01 X49.6547 Y45.5014
G01 X49.6517 Y45.4771
G01 X49.6380 Y45.3846
G01 X49.6338 Y45.3604
G01 X49.6284 Y45.3365
G01 X49.6057 Y45.2458
G01 X49.5992 Y45.2222
G01 X49.5915 Y45.1989
G01 X49.5600 Y45.1109
G01 X49.5511 Y45.0880
G01 X49.5412 Y45.0655
G01 X49.5012 Y44.9810
G01 X49.4902 Y44.9591
G01 X49.4781 Y44.9377
G01 X49.4300 Y44.8576
G01 X49.4169 Y44.8368
G01 X49.4028 Y44.8168
G01 X49.3471 Y44.7417
G01 X49.3320 Y44.7223
G01 X49.3160 Y44.7038
G01 X49.2532 Y44.6345
G01 X49.2363 Y44.6167
G01 X49.2185 Y44.5998
G01 X49.1492 Y44.5370
G01 X49.1400 Y44.5289
G01 X49.1240 Y44.5156
G01 X49.1411 Y43.0893
G01 X49.1411 Y43.0661
G01 X49.1387 Y43.0111
G01 X49.1371 Y42.9925
G01 X49.1338 Y42.9652
G01 X49.1277 Y42.9229
G01 X49.1244 Y42.9045
G01 X49.1184 Y42.8776
G01 X49.1082 Y42.8361
G01 X49.0989 Y42.8050
G01 X49.0802 Y42.7516
G01 X49.0733 Y42.7342
G01 X49.0622 Y42.7090
G01 X49.0441 Y42.6703
G01 X49.0356 Y42.6537
G01 X49.0221 Y42.6297
G01 X49.0002 Y42.5929
G01 X48.9823 Y42.5658
G01 X48.9572 Y42.5313
G01 X48.9404 Y42.5094
G01 X48.9285 Y42.4950
G01 X48.8908 Y42.4529
G01 X48.8680 Y42.4298
G01 X48.8263 Y42.3916
G01 X48.8121 Y42.3795
G01 X48.7904 Y42.3625
G01 X48.7561 Y42.3369
G01 X48.7408 Y42.3263
G01 X48.7175 Y42.3115
G01 X48.6809 Y42.2893
G01 X48.6524 Y42.2739
G01 X48.6139 Y42.2553
G01 X48.5888 Y42.2439
G01 X48.5716 Y42.2368
G01 X48.5184 Y42.2174
G01 X48.4874 Y42.2078
G01 X48.4460 Y42.1971
G01 X48.4192 Y42.1908
G01 X48.4009 Y42.1872
G01 X48.3450 Y42.1786
G01 X48.3265 Y42.1765
G01 X48.2990 Y42.1744
G01 X48.2563 Y42.1721
G01 X48.2346 Y42.1718
G01 X36.4158 Y42.1718
G01 X36.4157 Y38.0115
G01 X36.4132 Y37.9594
G01 X36.4114 Y37.9349
G01 X36.4084 Y37.9106
G01 X36.4026 Y37.8711
G01 X36.3984 Y37.8469
G01 X36.3930 Y37.8230
G01 X36.3833 Y37.7843
G01 X36.3768 Y37.7606
G01 X36.3691 Y37.7373
G01 X36.3513 Y37.6883
G01 X36.3468 Y37.6769
G01 X36.3368 Y37.6544
G01 X36.3198 Y37.6184
G01 X36.3088 Y37.5964
G01 X36.2967 Y37.5751
G01 X36.2761 Y37.5409
G01 X36.2630 Y37.5201
G01 X36.2489 Y37.5001
G01 X36.2251 Y37.4680
G01 X36.2100 Y37.4487
G01 X36.2021 Y37.4393
G01 X36.1588 Y37.3915
G01 X36.1415 Y37.3742
G01 X36.1325 Y37.3658
G01 X36.1029 Y37.3390
G01 X36.0843 Y37.3230
G01 X36.0650 Y37.3079
G01 X36.0329 Y37.2841
G01 X36.0129 Y37.2700
G01 X36.0026 Y37.2633
G01 X35.9473 Y37.2302
G01 X35.9366 Y37.2242
G01 X35.9146 Y37.2132
G01 X35.8786 Y37.1962
G01 X35.8561 Y37.1862
G01 X35.8332 Y37.1774
G01 X35.7957 Y37.1639
G01 X35.7841 Y37.1599
G01 X35.7606 Y37.1528
G01 X35.6981 Y37.1372
G01 X35.6740 Y37.1324
G01 X35.6619 Y37.1304
G01 X35.6224 Y37.1246
G01 X35.5981 Y37.1216
G01 X35.5736 Y37.1198
G01 X35.5215 Y37.1173
G01 X34.2349 Y37.1172
G01 X34.1886 Y37.0548
G01 X34.1735 Y37.0354
G01 X34.1575 Y37.0168
G01 X34.0878 Y36.9399
G01 X34.0709 Y36.9221
G01 X34.0531 Y36.9052
G01 X33.9762 Y36.8355
G01 X33.9576 Y36.8195
G01 X33.9382 Y36.8044
G01 X33.8701 Y36.7538
G01 X33.9382 Y36.7032
G01 X33.9576 Y36.6881
G01 X33.9762 Y36.6721
G01 X34.0531 Y36.6024
G01 X34.0709 Y36.5855
G01 X34.0878 Y36.5677
G01 X34.1575 Y36.4908
G01 X34.1735 Y36.4722
G01 X34.1886 Y36.4528
G01 X34.2379 Y36.3864
G01 X37.1222 Y36.3701
G01 X37.1389 Y39.4321
G01 X37.1277 Y39.4410
G01 X37.1092 Y39.4570
G01 X37.0399 Y39.5198
G01 X37.0221 Y39.5367
G01 X37.0052 Y39.5545
G01 X36.9424 Y39.6238
G01 X36.9264 Y39.6423
G01 X36.9113 Y39.6617
G01 X36.8556 Y39.7368
G01 X36.8415 Y39.7568
G01 X36.8284 Y39.7776
G01 X36.7803 Y39.8577
G01 X36.7682 Y39.8791
G01 X36.7572 Y39.9010
G01 X36.7172 Y39.9855
G01 X36.7073 Y40.0080
G01 X36.6984 Y40.0309
G01 X36.6669 Y40.1189
G01 X36.6592 Y40.1422
G01 X36.6527 Y40.1658
G01 X36.6300 Y40.2565
G01 X36.6246 Y40.2804
G01 X36.6204 Y40.3046
G01 X36.6067 Y40.3971
G01 X36.6037 Y40.4214
G01 X36.6019 Y40.4459
G01 X36.5973 Y40.5393
G01 X36.5967 Y40.5638
G01 X36.5973 Y40.5883
G01 X36.6019 Y40.6817
G01 X36.6037 Y40.7062
G01 X36.6067 Y40.7305
G01 X36.6204 Y40.8230
G01 X36.6246 Y40.8472
G01 X36.6300 Y40.8711
G01 X36.6527 Y40.9618
G01 X36.6592 Y40.9854
G01 X36.6669 Y41.0087
G01 X36.6984 Y41.0967
G01 X36.7073 Y41.1196
G01 X36.7172 Y41.1421
G01 X36.7572 Y41.2266
G01 X36.7682 Y41.2485
G01 X36.7803 Y41.2699
G01 X36.8284 Y41.3500
G01 X36.8415 Y41.3708
G01 X36.8556 Y41.3908
G01 X36.9113 Y41.4659
G01 X36.9264 Y41.4853
G01 X36.9424 Y41.5038
G01 X37.0052 Y41.5731
G01 X37.0221 Y41.5909
G01 X37.0399 Y41.6078
G01 X37.1092 Y41.6706
G01 X37.1277 Y41.6866
G01 X37.1471 Y41.7017
G01 X37.2222 Y41.7574
G01 X37.2422 Y41.7715
G01 X37.2630 Y41.7846
G01 X37.3431 Y41.8327
G01 X37.3645 Y41.8448
G01 X37.3864 Y41.8558
G01 X37.4709 Y41.8958
G01 X37.4934 Y41.9057
G01 X37.5163 Y41.9146
G01 X37.6043 Y41.9461
G01 X37.6276 Y41.9538
G01 X37.6393 Y41.9572
G01 X37.7419 Y41.9830
G01 X37.7658 Y41.9884
G01 X37.7900 Y41.9926
G01 X37.8825 Y42.0063
G01 X37.9068 Y42.0093
G01 X37.9313 Y42.0111
G01 X38.0247 Y42.0157
G01 X38.0492 Y42.0163
G01 X38.0737 Y42.0157
G01 X38.1671 Y42.0111
G01 X38.1916 Y42.0093
G01 X38.2159 Y42.0063
G01 X38.3084 Y41.9926
G01 X38.3326 Y41.9884
G01 X38.3565 Y41.9830
G01 X38.4472 Y41.9603
G01 X38.4708 Y41.9538
G01 X38.4941 Y41.9461
G01 X38.5821 Y41.9146
G01 X38.6050 Y41.9057
G01 X38.6275 Y41.8958
G01 X38.7120 Y41.8558
G01 X38.7339 Y41.8448
G01 X38.7553 Y41.8327
G01 X38.8354 Y41.7846
G01 X38.8562 Y41.7715
G01 X38.8762 Y41.7574
G01 X38.9513 Y41.7017
G01 X38.9707 Y41.6866
G01 X38.9892 Y41.6706
G01 X39.0585 Y41.6078
G01 X39.0763 Y41.5909
G01 X39.0932 Y41.5731
G01 X39.1641 Y41.4946
G01 X39.1837 Y41.4704
G01 X44.5347 Y41.4704
G01 X44.5464 Y41.4853
G01 X44.5624 Y41.5038
G01 X44.6252 Y41.5731
G01 X44.6421 Y41.5909
G01 X44.6599 Y41.6078
G01 X44.7292 Y41.6706
G01 X44.7477 Y41.6866
G01 X44.7671 Y41.7017
G01 X44.8422 Y41.7574
G01 X44.8622 Y41.7715
G01 X44.8830 Y41.7846
G01 X44.9631 Y41.8327
G01 X44.9845 Y41.8448
G01 X45.0064 Y41.8558
G01 X45.0909 Y41.8958
G01 X45.1134 Y41.9057
G01 X45.1363 Y41.9146
G01 X45.2243 Y41.9461
G01 X45.2359 Y41.9500
G01 X45.2593 Y41.9572
G01 X45.3619 Y41.9830
G01 X45.3858 Y41.9884
G01 X45.4100 Y41.9926
G01 X45.5025 Y42.0063
G01 X45.5268 Y42.0093
G01 X45.5513 Y42.0111
G01 X45.6447 Y42.0157
G01 X45.6692 Y42.0163
G01 X45.6937 Y42.0157
G01 X45.7871 Y42.0111
G01 X45.8116 Y42.0093
G01 X45.8359 Y42.0063
G01 X45.9284 Y41.9926
G01 X45.9526 Y41.9884
G01 X45.9765 Y41.9830
G01 X46.0791 Y41.9572
G01 X46.0908 Y41.9538
G01 X46.1141 Y41.9461
G01 X46.2021 Y41.9146
G01 X46.2250 Y41.9057
G01 X46.2475 Y41.8958
G01 X46.3320 Y41.8558
G01 X46.3539 Y41.8448
G01 X46.3753 Y41.8327
G01 X46.4554 Y41.7846
G01 X46.4762 Y41.7715
G01 X46.4962 Y41.7574
G01 X46.5713 Y41.7017
G01 X46.5907 Y41.6866
G01 X46.6092 Y41.6706
G01 X46.6785 Y41.6078
G01 X46.6963 Y41.5909
G01 X46.7132 Y41.5731
G01 X46.7760 Y41.5038
G01 X46.7920 Y41.4853
G01 X46.8037 Y41.4704
G01 X52.1547 Y41.4704
G01 X52.1664 Y41.4853
G01 X52.1824 Y41.5038
G01 X52.2452 Y41.5731
G01 X52.2621 Y41.5909
G01 X52.2799 Y41.6078
G01 X52.3492 Y41.6706
G01 X52.3701 Y41.6885
G01 X52.3701 Y54.8767
G01 X49.3407 Y54.8933
G01 X49.3320 Y54.8823
G01 X49.3160 Y54.8638
G01 X49.2532 Y54.7945
G01 X49.2363 Y54.7767
G01 X49.2185 Y54.7598
G01 X49.1492 Y54.6970
G01 X49.1307 Y54.6810
G01 X49.1113 Y54.6659
G01 X49.0362 Y54.6102
G01 X49.0162 Y54.5961
G01 X48.9954 Y54.5830
G01 X48.9153 Y54.5349
G01 X48.8939 Y54.5228
G01 X48.8720 Y54.5118
G01 X48.7875 Y54.4718
G01 X48.7650 Y54.4619
G01 X48.7421 Y54.4530
G01 X48.6541 Y54.4215
G01 X48.6425 Y54.4176
G01 X48.6191 Y54.4104
G01 X48.5165 Y54.3846
G01 X48.4926 Y54.3792
G01 X48.4684 Y54.3750
G01 X48.3759 Y54.3613
G01 X48.3516 Y54.3583
G01 X48.3271 Y54.3565
G01 X48.2337 Y54.3519
G01 X48.2092 Y54.3513
G01 X48.1847 Y54.3519
G01 X48.0913 Y54.3565
G01 X48.0668 Y54.3583
G01 X48.0425 Y54.3613
G01 X47.9500 Y54.3750
G01 X47.9258 Y54.3792
G01 X47.9019 Y54.3846
G01 X47.8112 Y54.4073
G01 X47.7876 Y54.4138
G01 X47.7643 Y54.4215
G01 X47.6763 Y54.4530
G01 X47.6534 Y54.4619
G01 X47.6421 Y54.4667
G01 X47.5464 Y54.5118
G01 X47.5245 Y54.5228
G01 X47.5031 Y54.5349
G01 X47.4230 Y54.5830
G01 X47.4022 Y54.5961
G01 X47.3822 Y54.6102
G01 X47.3071 Y54.6659
G01 X47.2877 Y54.6810
G01 X47.2692 Y54.6970
G01 X47.1999 Y54.7598
G01 X47.1821 Y54.7767
G01 X47.1652 Y54.7945
G01 X47.1024 Y54.8638
G01 X47.0864 Y54.8823
G01 X47.0747 Y54.8972
G01 X44.2637 Y54.8972
G01 X44.2520 Y54.8823
G01 X44.2360 Y54.8638
G01 X44.1732 Y54.7945
G01 X44.1563 Y54.7767
G01 X44.1385 Y54.7598
G01 X44.0692 Y54.6970
G01 X44.0507 Y54.6810
G01 X44.0358 Y54.6693
G01 X44.0358 Y53.2638
G01 X44.0352 Y53.2393
G01 X44.0325 Y53.1872
G01 X44.0301 Y53.1627
G01 X44.0206 Y53.0990
G01 X44.0158 Y53.0749
G01 X44.0033 Y53.0243
G01 X43.9968 Y53.0006
G01 X43.9891 Y52.9773
G01 X43.9756 Y52.9398
G01 X43.9668 Y52.9169
G01 X43.9568 Y52.8944
G01 X43.9344 Y52.8473
G01 X43.9288 Y52.8364
G01 X43.9167 Y52.8151
G01 X43.8961 Y52.7809
G01 X43.8830 Y52.7601
G01 X43.8689 Y52.7401
G01 X43.8377 Y52.6982
G01 X43.8221 Y52.6793
G01 X43.8140 Y52.6701
G01 X43.7788 Y52.6315
G01 X43.7615 Y52.6142
G01 X43.7229 Y52.5790
G01 X43.7043 Y52.5630
G01 X43.6850 Y52.5479
G01 X43.6529 Y52.5241
G01 X43.6329 Y52.5100
G01 X43.6226 Y52.5033
G01 X43.5779 Y52.4763
G01 X43.5566 Y52.4642
G01 X43.5346 Y52.4532
G01 X43.4874 Y52.4310
G01 X43.4761 Y52.4262
G01 X43.4532 Y52.4174
G01 X43.4157 Y52.4039
G01 X43.3924 Y52.3962
G01 X43.3687 Y52.3897
G01 X43.3181 Y52.3772
G01 X43.3061 Y52.3746
G01 X43.2819 Y52.3704
G01 X43.2303 Y52.3629
G01 X43.2058 Y52.3605
G01 X43.1537 Y52.3578
G01 X43.1292 Y52.3572
G01 X15.2146 Y52.3572
G01 X15.2023 Y52.3573
G01 X15.1612 Y52.3590
G01 X15.1337 Y52.3608
G01 X15.1151 Y52.3627
G01 X15.0728 Y52.3686
G01 X15.0456 Y52.3731
G01 X15.0272 Y52.3768
G01 X14.9724 Y52.3902
G01 X14.9543 Y52.3954
G01 X14.9281 Y52.4039
G01 X14.8879 Y52.4182
G01 X14.8705 Y52.4251
G01 X14.8452 Y52.4362
G01 X14.8066 Y52.4543
G01 X14.7899 Y52.4628
G01 X14.7659 Y52.4763
G01 X14.7292 Y52.4981
G01 X14.7176 Y52.5056
G01 X14.7020 Y52.5161
G01 X14.6565 Y52.5494
G01 X14.6418 Y52.5611
G01 X14.6209 Y52.5790
G01 X14.5892 Y52.6075
G01 X14.5757 Y52.6206
G01 X14.5566 Y52.6405
G01 X14.5279 Y52.6720
G01 X14.5189 Y52.6825
G01 X14.5071 Y52.6970
G01 X14.4732 Y52.7422
G01 X14.4549 Y52.7691
G01 X14.4327 Y52.8055
G01 X14.4189 Y52.8294
G01 X14.4101 Y52.8460
G01 X14.3856 Y52.8968
G01 X14.3730 Y52.9268
G01 X14.3537 Y52.9799
G01 X14.3440 Y53.0109
G01 X14.3300 Y53.0656
G01 X14.3234 Y53.0975
G01 X14.3148 Y53.1533
G01 X14.3114 Y53.1856
G01 X14.3090 Y53.2282
G01 X14.3081 Y53.2527
G01 X14.2909 Y54.6631
G01 X14.2773 Y54.6733
G01 X14.2584 Y54.6889
G01 X14.1799 Y54.7598
G01 X14.1621 Y54.7767
G01 X14.1452 Y54.7945
G01 X14.0824 Y54.8638
G01 X14.0664 Y54.8823
G01 X14.0547 Y54.8972
G01 X11.2437 Y54.8972
G01 X11.2320 Y54.8823
G01 X11.2160 Y54.8638
G01 X11.1532 Y54.7945
G01 X11.1363 Y54.7767
G01 X11.1185 Y54.7598
G01 X11.0492 Y54.6970
G01 X11.0307 Y54.6810
G01 X11.0113 Y54.6659
G01 X10.9362 Y54.6102
G01 X10.9162 Y54.5961
G01 X10.8954 Y54.5830
G01 X10.8153 Y54.5349
G01 X10.7939 Y54.5228
G01 X10.7720 Y54.5118
G01 X10.6875 Y54.4718
G01 X10.6650 Y54.4619
G01 X10.6421 Y54.4530
G01 X10.5541 Y54.4215
G01 X10.5425 Y54.4176
G01 X10.5191 Y54.4104
G01 X10.4165 Y54.3846
G01 X10.3926 Y54.3792
G01 X10.3684 Y54.3750
G01 X10.2759 Y54.3613
G01 X10.2516 Y54.3583
G01 X10.2271 Y54.3565
G01 X10.1337 Y54.3519
G01 X10.1092 Y54.3513
G01 X10.0847 Y54.3519
G01 X9.9913 Y54.3565
G01 X9.9668 Y54.3583
G01 X9.9425 Y54.3613
G01 X9.8500 Y54.3750
G01 X9.8258 Y54.3792
G01 X9.8019 Y54.3846
G01 X9.7112 Y54.4073
G01 X9.6876 Y54.4138
G01 X9.6643 Y54.4215
G01 X9.5763 Y54.4530
G01 X9.5534 Y54.4619
G01 X9.5421 Y54.4667
G01 X9.4464 Y54.5118
G01 X9.4245 Y54.5228
G01 X9.4031 Y54.5349
G01 X9.3230 Y54.5830
G01 X9.3022 Y54.5961
G01 X9.2822 Y54.6102
G01 X9.2071 Y54.6659
G01 X9.1877 Y54.6810
G01 X9.1692 Y54.6970
G01 X9.0999 Y54.7598
G01 X9.0821 Y54.7767
G01 X9.0652 Y54.7945
G01 X9.0024 Y54.8638
G01 X8.9864 Y54.8823
G01 X8.9747 Y54.8972
G01 X8.4758 Y54.8972
G01 X8.4758 Y41.4296
G01 X11.5091 Y41.4630
G01 X11.5187 Y41.4757
G01 X11.5343 Y41.4946
G01 X11.6052 Y41.5731
G01 X11.6221 Y41.5909
G01 X11.6399 Y41.6078
G01 X11.7092 Y41.6706
G01 X11.7277 Y41.6866
G01 X11.7471 Y41.7017
G01 X11.8222 Y41.7574
G01 X11.8422 Y41.7715
G01 X11.8630 Y41.7846
G01 X11.9431 Y41.8327
G01 X11.9645 Y41.8448
G01 X11.9864 Y41.8558
G01 X12.0709 Y41.8958
G01 X12.0934 Y41.9057
G01 X12.1163 Y41.9146
G01 X12.2043 Y41.9461
G01 X12.2159 Y41.9500
G01 X12.2393 Y41.9572
G01 X12.3419 Y41.9830
G01 X12.3658 Y41.9884
G01 X12.3900 Y41.9926
G01 X12.4825 Y42.0063
G01 X12.5068 Y42.0093
G01 X12.5313 Y42.0111
G01 X12.6247 Y42.0157
G01 X12.6492 Y42.0163
G01 X12.6737 Y42.0157
G01 X12.7671 Y42.0111
G01 X12.7916 Y42.0093
G01 X12.8159 Y42.0063
G01 X12.9084 Y41.9926
G01 X12.9326 Y41.9884
G01 X12.9565 Y41.9830
G01 X13.0591 Y41.9572
G01 X13.0825 Y41.9500
G01 X13.0941 Y41.9461
G01 X13.1821 Y41.9146
G01 X13.2050 Y41.9057
G01 X13.2275 Y41.8958
G01 X13.3120 Y41.8558
G01 X13.3339 Y41.8448
G01 X13.3553 Y41.8327
G01 X13.4354 Y41.7846
G01 X13.4562 Y41.7715
G01 X13.4762 Y41.7574
G01 X13.5513 Y41.7017
G01 X13.5707 Y41.6866
G01 X13.5892 Y41.6706
G01 X13.6585 Y41.6078
G01 X13.6763 Y41.5909
G01 X13.6932 Y41.5731
G01 X13.7560 Y41.5038
G01 X13.7720 Y41.4853
G01 X13.7837 Y41.4704
G01 X19.1347 Y41.4704
G01 X19.1464 Y41.4853
G01 X19.1624 Y41.5038
G01 X19.2252 Y41.5731
G01 X19.2421 Y41.5909
G01 X19.2599 Y41.6078
G01 X19.3292 Y41.6706
G01 X19.3477 Y41.6866
G01 X19.3671 Y41.7017
G01 X19.4422 Y41.7574
G01 X19.4622 Y41.7715
G01 X19.4830 Y41.7846
G01 X19.5631 Y41.8327
G01 X19.5845 Y41.8448
G01 X19.6064 Y41.8558
G01 X19.6909 Y41.8958
G01 X19.7134 Y41.9057
G01 X19.7363 Y41.9146
G01 X19.8243 Y41.9461
G01 X19.8476 Y41.9538
G01 X19.8712 Y41.9603
G01 X19.9619 Y41.9830
G01 X19.9858 Y41.9884
G01 X20.0100 Y41.9926
G01 X20.1025 Y42.0063
G01 X20.1268 Y42.0093
G01 X20.1513 Y42.0111
G01 X20.2447 Y42.0157
G01 X20.2692 Y42.0163
G01 X20.2937 Y42.0157
G01 X20.3871 Y42.0111
G01 X20.4116 Y42.0093
G01 X20.4359 Y42.0063
G01 X20.5284 Y41.9926
G01 X20.5526 Y41.9884
G01 X20.5765 Y41.9830
G01 X20.6672 Y41.9603
G01 X20.6908 Y41.9538
G01 X20.7141 Y41.9461
G01 X20.8021 Y41.9146
G01 X20.8250 Y41.9057
G01 X20.8475 Y41.8958
G01 X20.9320 Y41.8558
G01 X20.9539 Y41.8448
G01 X20.9753 Y41.8327
G01 X21.0659 Y41.7782
G01 X21.0762 Y41.7715
G01 X21.0962 Y41.7574
G01 X21.1713 Y41.7017
G01 X21.1907 Y41.6866
G01 X21.2092 Y41.6706
G01 X21.2785 Y41.6078
G01 X21.2875 Y41.5994
G01 X21.3048 Y41.5821
G01 X21.3841 Y41.4946
G01 X21.3920 Y41.4853
G01 X21.4071 Y41.4659
G01 X21.4628 Y41.3908
G01 X21.4769 Y41.3708
G01 X21.4900 Y41.3500
G01 X21.5381 Y41.2699
G01 X21.5502 Y41.2485
G01 X21.5612 Y41.2266
G01 X21.6012 Y41.1421
G01 X21.6111 Y41.1196
G01 X21.6200 Y41.0967
G01 X21.6515 Y41.0087
G01 X21.6592 Y40.9854
G01 X21.6657 Y40.9618
G01 X21.6884 Y40.8711
G01 X21.6938 Y40.8472
G01 X21.6980 Y40.8230
G01 X21.7117 Y40.7305
G01 X21.7147 Y40.7062
G01 X21.7165 Y40.6817
G01 X21.7211 Y40.5883
G01 X21.7217 Y40.5638
G01 X21.7211 Y40.5393
G01 X21.7165 Y40.4459
G01 X21.7147 Y40.4214
G01 X21.7117 Y40.3971
G01 X21.6980 Y40.3046
G01 X21.6938 Y40.2804
G01 X21.6912 Y40.2684
G01 X21.6657 Y40.1658
G01 X21.6592 Y40.1422
G01 X21.6515 Y40.1189
G01 X21.6157 Y40.0193
G01 X21.6111 Y40.0080
G01 X21.6012 Y39.9855
G01 X21.5612 Y39.9010
G01 X21.5502 Y39.8791
G01 X21.5381 Y39.8577
G01 X21.4900 Y39.7776
G01 X21.4769 Y39.7568
G01 X21.4628 Y39.7368
G01 X21.4071 Y39.6617
G01 X21.3920 Y39.6423
G01 X21.3760 Y39.6238
G01 X21.3132 Y39.5545
G01 X21.2963 Y39.5367
G01 X21.2785 Y39.5198
G01 X21.2092 Y39.4570
G01 X21.1907 Y39.4410
G01 X21.1811 Y39.4333
G01 X21.0962 Y39.3702
G01 X21.0762 Y39.3561
G01 X21.0554 Y39.3430
G01 X20.9753 Y39.2949
G01 X20.9539 Y39.2828
G01 X20.9320 Y39.2718
G01 X20.8475 Y39.2318
G01 X20.8250 Y39.2219
G01 X20.8021 Y39.2130
G01 X20.7141 Y39.1815
G01 X20.6908 Y39.1738
G01 X20.6672 Y39.1673
G01 X20.5765 Y39.1446
G01 X20.5526 Y39.1392
G01 X20.5284 Y39.1350
G01 X20.4359 Y39.1213
G01 X20.4238 Y39.1196
G01 X20.3993 Y39.1172
G01 X20.2815 Y39.1115
G01 X20.2692 Y39.1113
G01 X20.2447 Y39.1119
G01 X20.1513 Y39.1165
G01 X20.1268 Y39.1183
G01 X20.1025 Y39.1213
G01 X20.0100 Y39.1350
G01 X19.9858 Y39.1392
G01 X19.9619 Y39.1446
G01 X19.8712 Y39.1673
G01 X19.8476 Y39.1738
G01 X19.8243 Y39.1815
G01 X19.7363 Y39.2130
G01 X19.7134 Y39.2219
G01 X19.6909 Y39.2318
G01 X19.6064 Y39.2718
G01 X19.5845 Y39.2828
G01 X19.5631 Y39.2949
G01 X19.4830 Y39.3430
G01 X19.4622 Y39.3561
G01 X19.4422 Y39.3702
G01 X19.3671 Y39.4259
G01 X19.3477 Y39.4410
G01 X19.3292 Y39.4570
G01 X19.2599 Y39.5198
G01 X19.2421 Y39.5367
G01 X19.2252 Y39.5545
G01 X19.1624 Y39.6238
G01 X19.1464 Y39.6423
G01 X19.1347 Y39.6572
G01 X13.7837 Y39.6572
G01 X13.7720 Y39.6423
G01 X13.7560 Y39.6238
G01 X13.6932 Y39.5545
G01 X13.6763 Y39.5367
G01 X13.6585 Y39.5198
G01 X13.5892 Y39.4570
G01 X13.5707 Y39.4410
G01 X13.5513 Y39.4259
G01 X13.4762 Y39.3702
G01 X13.4562 Y39.3561
G01 X13.4354 Y39.3430
G01 X13.3553 Y39.2949
G01 X13.3339 Y39.2828
G01 X13.3120 Y39.2718
G01 X13.2275 Y39.2318
G01 X13.2050 Y39.2219
G01 X13.1821 Y39.2130
G01 X13.0941 Y39.1815
G01 X13.0825 Y39.1776
G01 X13.0591 Y39.1704
G01 X12.9565 Y39.1446
G01 X12.9326 Y39.1392
G01 X12.9084 Y39.1350
G01 X12.8159 Y39.1213
G01 X12.7916 Y39.1183
G01 X12.7671 Y39.1165
G01 X12.6737 Y39.1119
G01 X12.6492 Y39.1113
G01 X12.6247 Y39.1119
G01 X12.5313 Y39.1165
G01 X12.5068 Y39.1183
G01 X12.4825 Y39.1213
G01 X12.3900 Y39.1350
G01 X12.3658 Y39.1392
G01 X12.3419 Y39.1446
G01 X12.2393 Y39.1704
G01 X12.2159 Y39.1776
G01 X12.2043 Y39.1815
G01 X12.1163 Y39.2130
G01 X12.0934 Y39.2219
G01 X12.0709 Y39.2318
G01 X11.9864 Y39.2718
G01 X11.9645 Y39.2828
G01 X11.9431 Y39.2949
G01 X11.8630 Y39.3430
G01 X11.8422 Y39.3561
G01 X11.8222 Y39.3702
G01 X11.7471 Y39.4259
G01 X11.7277 Y39.4410
G01 X11.7092 Y39.4570
G01 X11.6399 Y39.5198
G01 X11.6221 Y39.5367
G01 X11.6052 Y39.5545
G01 X11.5424 Y39.6238
G01 X11.5343 Y39.6330
G01 X11.5205 Y39.6498
G01 X7.5719 Y39.6064
G01 X6.1358 Y39.6236
G01 X6.0732 Y39.5545
G01 X6.0563 Y39.5367
G01 X6.0385 Y39.5198
G01 X5.9692 Y39.4570
G01 X5.9507 Y39.4410
G01 X5.9411 Y39.4333
G01 X5.8463 Y39.3630
G01 X5.8259 Y39.3494
G01 X5.8154 Y39.3430
G01 X5.7353 Y39.2949
G01 X5.7139 Y39.2828
G01 X5.6920 Y39.2718
G01 X5.6075 Y39.2318
G01 X5.5963 Y39.2267
G01 X5.5737 Y39.2173
G01 X5.4625 Y39.1776
G01 X5.4391 Y39.1704
G01 X5.4272 Y39.1673
G01 X5.3365 Y39.1446
G01 X5.3126 Y39.1392
G01 X5.2884 Y39.1350
G01 X5.1959 Y39.1213
G01 X5.1716 Y39.1183
G01 X5.1471 Y39.1165
G01 X5.0537 Y39.1119
G01 X5.0292 Y39.1113
G01 X5.0047 Y39.1119
G01 X4.9113 Y39.1165
G01 X4.8868 Y39.1183
G01 X4.8746 Y39.1196
G01 X4.7700 Y39.1350
G01 X4.7458 Y39.1392
G01 X4.7219 Y39.1446
G01 X4.6312 Y39.1673
G01 X4.6076 Y39.1738
G01 X4.5843 Y39.1815
G01 X4.4963 Y39.2130
G01 X4.4734 Y39.2219
G01 X4.4509 Y39.2318
G01 X4.3664 Y39.2718
G01 X4.3445 Y39.2828
G01 X4.3231 Y39.2949
G01 X4.2430 Y39.3430
G01 X4.2222 Y39.3561
G01 X4.2022 Y39.3702
G01 X4.1271 Y39.4259
G01 X4.1077 Y39.4410
G01 X4.0892 Y39.4570
G01 X4.0199 Y39.5198
G01 X4.0021 Y39.5367
G01 X3.9852 Y39.5545
G01 X3.9224 Y39.6238
G01 X3.9064 Y39.6423
G01 X3.8913 Y39.6617
G01 X3.8356 Y39.7368
G01 X3.8215 Y39.7568
G01 X3.8084 Y39.7776
G01 X3.7603 Y39.8577
G01 X3.7482 Y39.8791
G01 X3.7372 Y39.9010
G01 X3.6972 Y39.9855
G01 X3.6873 Y40.0080
G01 X3.6784 Y40.0309
G01 X3.6469 Y40.1189
G01 X3.6392 Y40.1422
G01 X3.6327 Y40.1658
G01 X3.6100 Y40.2565
G01 X3.6046 Y40.2804
G01 X3.6004 Y40.3046
G01 X3.5867 Y40.3971
G01 X3.5837 Y40.4214
G01 X3.5819 Y40.4459
G01 X3.5773 Y40.5393
G01 X3.5767 Y40.5638
G01 X3.5773 Y40.5883
G01 X3.5819 Y40.6817
G01 X3.5837 Y40.7062
G01 X3.5867 Y40.7305
G01 X3.6004 Y40.8230
G01 X3.6046 Y40.8472
G01 X3.6100 Y40.8711
G01 X3.6327 Y40.9618
G01 X3.6392 Y40.9854
G01 X3.6469 Y41.0087
G01 X3.6784 Y41.0967
G01 X3.6873 Y41.1196
G01 X3.6972 Y41.1421
G01 X3.7372 Y41.2266
G01 X3.7482 Y41.2485
G01 X3.7603 Y41.2699
G01 X3.8084 Y41.3500
G01 X3.8215 Y41.3708
G01 X3.8356 Y41.3908
G01 X3.8987 Y41.4757
G01 X3.9064 Y41.4853
G01 X3.9224 Y41.5038
G01 X3.9852 Y41.5731
G01 X4.0021 Y41.5909
G01 X4.0199 Y41.6078
G01 X4.0892 Y41.6706
G01 X4.1077 Y41.6866
G01 X4.1271 Y41.7017
G01 X4.2022 Y41.7574
G01 X4.2222 Y41.7715
G01 X4.2430 Y41.7846
G01 X4.3231 Y41.8327
G01 X4.3445 Y41.8448
G01 X4.3664 Y41.8558
G01 X4.4509 Y41.8958
G01 X4.4734 Y41.9057
G01 X4.4963 Y41.9146
G01 X4.5843 Y41.9461
G01 X4.5959 Y41.9500
G01 X4.6193 Y41.9572
G01 X4.7219 Y41.9830
G01 X4.7458 Y41.9884
G01 X4.7700 Y41.9926
G01 X4.8625 Y42.0063
G01 X4.8868 Y42.0093
G01 X4.9113 Y42.0111
G01 X5.0047 Y42.0157
G01 X5.0292 Y42.0163
G01 X5.0415 Y42.0161
G01 X5.1471 Y42.0111
G01 X5.1716 Y42.0093
G01 X5.1838 Y42.0080
G01 X5.3005 Y41.9906
G01 X5.3246 Y41.9858
G01 X5.3365 Y41.9830
G01 X5.4272 Y41.9603
G01 X5.4508 Y41.9538
G01 X5.4741 Y41.9461
G01 X5.5621 Y41.9146
G01 X5.5737 Y41.9103
G01 X5.5963 Y41.9009
G01 X5.7030 Y41.8504
G01 X5.7139 Y41.8448
G01 X5.7353 Y41.8327
G01 X5.8154 Y41.7846
G01 X5.8362 Y41.7715
G01 X5.8562 Y41.7574
G01 X5.9313 Y41.7017
G01 X5.9507 Y41.6866
G01 X5.9600 Y41.6787
G01 X6.0385 Y41.6078
G01 X6.0475 Y41.5994
G01 X6.0648 Y41.5821
G01 X6.1441 Y41.4946
G01 X6.1597 Y41.4757
G01 X6.1891 Y41.4363
G01 X6.6626 Y41.4306
G01 X6.6627 Y55.8161
G01 X6.6652 Y55.8682
G01 X6.6670 Y55.8927
G01 X6.6700 Y55.9170
G01 X6.6758 Y55.9565
G01 X6.6800 Y55.9807
G01 X6.6854 Y56.0046
G01 X6.6951 Y56.0433
G01 X6.7016 Y56.0670
G01 X6.7093 Y56.0903
G01 X6.7228 Y56.1278
G01 X6.7316 Y56.1507
G01 X6.7416 Y56.1732
G01 X6.7586 Y56.2092
G01 X6.7696 Y56.2312
G01 X6.7817 Y56.2525
G01 X6.8023 Y56.2867
G01 X6.8154 Y56.3075
G01 X6.8223 Y56.3176
G01 X6.8396 Y56.3412
G01 X6.8607 Y56.3694
G01 X6.8684 Y56.3789
G01 X6.8844 Y56.3975
G01 X6.9196 Y56.4361
G01 X6.9369 Y56.4534
G01 X6.9847 Y56.4967
G01 X7.0036 Y56.5123
G01 X7.0318 Y56.5334
G01 X7.0554 Y56.5507
G01 X7.0758 Y56.5643
G01 X7.1311 Y56.5974
G01 X7.1527 Y56.6090
G01 X7.1998 Y56.6314
G01 X7.2223 Y56.6414
G01 X7.2452 Y56.6502
G01 X7.2827 Y56.6637
G01 X7.3060 Y56.6714
G01 X7.3297 Y56.6779
G01 X7.3684 Y56.6876
G01 X7.3923 Y56.6930
G01 X7.4165 Y56.6972
G01 X7.4681 Y56.7047
G01 X7.4926 Y56.7071
G01 X7.5048 Y56.7078
G01 X7.5447 Y56.7098
G01 X7.5692 Y56.7104
G01 X8.9747 Y56.7104
G01 X8.9864 Y56.7253
G01 X9.0024 Y56.7438
G01 X9.0652 Y56.8131
G01 X9.0821 Y56.8309
G01 X9.0999 Y56.8478
G01 X9.1692 Y56.9106
G01 X9.1877 Y56.9266
G01 X9.2071 Y56.9417
G01 X9.2822 Y56.9974
G01 X9.3022 Y57.0115
G01 X9.3230 Y57.0246
G01 X9.4031 Y57.0727
G01 X9.4245 Y57.0848
G01 X9.4464 Y57.0958
G01 X9.5309 Y57.1358
G01 X9.5534 Y57.1457
G01 X9.5763 Y57.1546
G01 X9.6643 Y57.1861
G01 X9.6876 Y57.1938
G01 X9.7112 Y57.2003
G01 X9.8019 Y57.2230
G01 X9.8258 Y57.2284
G01 X9.8500 Y57.2326
G01 X9.9425 Y57.2463
G01 X9.9668 Y57.2493
G01 X9.9913 Y57.2511
G01 X10.0847 Y57.2557
G01 X10.1092 Y57.2563
G01 X10.1337 Y57.2557
G01 X10.2271 Y57.2511
G01 X10.2516 Y57.2493
G01 X10.2759 Y57.2463
G01 X10.3684 Y57.2326
G01 X10.3926 Y57.2284
G01 X10.4165 Y57.2230
G01 X10.5072 Y57.2003
G01 X10.5308 Y57.1938
G01 X10.5541 Y57.1861
G01 X10.6421 Y57.1546
G01 X10.6650 Y57.1457
G01 X10.6875 Y57.1358
G01 X10.7720 Y57.0958
G01 X10.7939 Y57.0848
G01 X10.8153 Y57.0727
G01 X10.8954 Y57.0246
G01 X10.9162 Y57.0115
G01 X10.9362 Y56.9974
G01 X11.0113 Y56.9417
G01 X11.0307 Y56.9266
G01 X11.0492 Y56.9106
G01 X11.1185 Y56.8478
G01 X11.1363 Y56.8309
G01 X11.1532 Y56.8131
G01 X11.2160 Y56.7438
G01 X11.2320 Y56.7253
G01 X11.2437 Y56.7104
G01 X14.0547 Y56.7104
G01 X14.0743 Y56.7346
G01 X14.1452 Y56.8131
G01 X14.1621 Y56.8309
G01 X14.1799 Y56.8478
G01 X14.2492 Y56.9106
G01 X14.2677 Y56.9266
G01 X14.2871 Y56.9417
G01 X14.3721 Y57.0046
G01 X14.3925 Y57.0182
G01 X14.4030 Y57.0246
G01 X14.4831 Y57.0727
G01 X14.5045 Y57.0848
G01 X14.5264 Y57.0958
G01 X14.6109 Y57.1358
G01 X14.6334 Y57.1457
G01 X14.6563 Y57.1546
G01 X14.7443 Y57.1861
G01 X14.7676 Y57.1938
G01 X14.7912 Y57.2003
G01 X14.8819 Y57.2230
G01 X14.9058 Y57.2284
G01 X14.9179 Y57.2306
G01 X15.0225 Y57.2463
G01 X15.0468 Y57.2493
G01 X15.0713 Y57.2511
G01 X15.1647 Y57.2557
G01 X15.1892 Y57.2563
G01 X15.2137 Y57.2557
G01 X15.3071 Y57.2511
G01 X15.3316 Y57.2493
G01 X15.3559 Y57.2463
G01 X15.4484 Y57.2326
G01 X15.4726 Y57.2284
G01 X15.4965 Y57.2230
G01 X15.5872 Y57.2003
G01 X15.6108 Y57.1938
G01 X15.6341 Y57.1861
G01 X15.7221 Y57.1546
G01 X15.7450 Y57.1457
G01 X15.7675 Y57.1358
G01 X15.8520 Y57.0958
G01 X15.8739 Y57.0848
G01 X15.8953 Y57.0727
G01 X15.9754 Y57.0246
G01 X15.9962 Y57.0115
G01 X16.0162 Y56.9974
G01 X16.0913 Y56.9417
G01 X16.1107 Y56.9266
G01 X16.1292 Y56.9106
G01 X16.1985 Y56.8478
G01 X16.2163 Y56.8309
G01 X16.2332 Y56.8131
G01 X16.2960 Y56.7438
G01 X16.3120 Y56.7253
G01 X16.3271 Y56.7059
G01 X16.3828 Y56.6308
G01 X16.3969 Y56.6108
G01 X16.4100 Y56.5900
G01 X16.4581 Y56.5099
G01 X16.4702 Y56.4885
G01 X16.4812 Y56.4666
G01 X16.5212 Y56.3821
G01 X16.5311 Y56.3596
G01 X16.5400 Y56.3367
G01 X16.5715 Y56.2487
G01 X16.5792 Y56.2254
G01 X16.5857 Y56.2018
G01 X16.6084 Y56.1111
G01 X16.6138 Y56.0872
G01 X16.6180 Y56.0630
G01 X16.6317 Y55.9705
G01 X16.6347 Y55.9462
G01 X16.6365 Y55.9217
G01 X16.6411 Y55.8283
G01 X16.6417 Y55.8038
G01 X16.6411 Y55.7793
G01 X16.6358 Y55.6737
G01 X16.6334 Y55.6492
G01 X16.6317 Y55.6371
G01 X16.6180 Y55.5446
G01 X16.6138 Y55.5204
G01 X16.6084 Y55.4965
G01 X16.5857 Y55.4058
G01 X16.5792 Y55.3822
G01 X16.5754 Y55.3705
G01 X16.5400 Y55.2709
G01 X16.5311 Y55.2480
G01 X16.5212 Y55.2255
G01 X16.4812 Y55.1410
G01 X16.4702 Y55.1191
G01 X16.4581 Y55.0977
G01 X16.4100 Y55.0176
G01 X16.3969 Y54.9968
G01 X16.3828 Y54.9768
G01 X16.3271 Y54.9017
G01 X16.3120 Y54.8823
G01 X16.2960 Y54.8638
G01 X16.2332 Y54.7945
G01 X16.2163 Y54.7767
G01 X16.1985 Y54.7598
G01 X16.1292 Y54.6970
G01 X16.1200 Y54.6889
G01 X16.1041 Y54.6757
G01 X16.1102 Y54.1704
G01 X42.2226 Y54.1704
G01 X42.2226 Y54.6693
G01 X42.1984 Y54.6889
G01 X42.1199 Y54.7598
G01 X42.1021 Y54.7767
G01 X42.0852 Y54.7945
G01 X42.0224 Y54.8638
G01 X42.0064 Y54.8823
G01 X41.9913 Y54.9017
G01 X41.9356 Y54.9768
G01 X41.9215 Y54.9968
G01 X41.9084 Y55.0176
G01 X41.8603 Y55.0977
G01 X41.8482 Y55.1191
G01 X41.8372 Y55.1410
G01 X41.7972 Y55.2255
G01 X41.7873 Y55.2480
G01 X41.7784 Y55.2709
G01 X41.7469 Y55.3589
G01 X41.7392 Y55.3822
G01 X41.7358 Y55.3939
G01 X41.7072 Y55.5084
G01 X41.7024 Y55.5325
G01 X41.7004 Y55.5446
G01 X41.6867 Y55.6371
G01 X41.6837 Y55.6614
G01 X41.6819 Y55.6859
G01 X41.6769 Y55.7915
G01 X41.6769 Y55.8161
G01 X41.6773 Y55.8283
G01 X41.6819 Y55.9217
G01 X41.6837 Y55.9462
G01 X41.6867 Y55.9705
G01 X41.7004 Y56.0630
G01 X41.7046 Y56.0872
G01 X41.7100 Y56.1111
G01 X41.7327 Y56.2018
G01 X41.7392 Y56.2254
G01 X41.7469 Y56.2487
G01 X41.7827 Y56.3483
G01 X41.7921 Y56.3709
G01 X41.7972 Y56.3821
G01 X41.8372 Y56.4666
G01 X41.8482 Y56.4885
G01 X41.8603 Y56.5099
G01 X41.9084 Y56.5900
G01 X41.9215 Y56.6108
G01 X41.9356 Y56.6308
G01 X41.9913 Y56.7059
G01 X42.0064 Y56.7253
G01 X42.0224 Y56.7438
G01 X42.0852 Y56.8131
G01 X42.1021 Y56.8309
G01 X42.1199 Y56.8478
G01 X42.1892 Y56.9106
G01 X42.2077 Y56.9266
G01 X42.2271 Y56.9417
G01 X42.3022 Y56.9974
G01 X42.3121 Y57.0046
G01 X42.3325 Y57.0182
G01 X42.4231 Y57.0727
G01 X42.4445 Y57.0848
G01 X42.4664 Y57.0958
G01 X42.5621 Y57.1409
G01 X42.5734 Y57.1457
G01 X42.5963 Y57.1546
G01 X42.6843 Y57.1861
G01 X42.7076 Y57.1938
G01 X42.7312 Y57.2003
G01 X42.8219 Y57.2230
G01 X42.8458 Y57.2284
G01 X42.8700 Y57.2326
G01 X42.9625 Y57.2463
G01 X42.9868 Y57.2493
G01 X43.0113 Y57.2511
G01 X43.1047 Y57.2557
G01 X43.1292 Y57.2563
G01 X43.1537 Y57.2557
G01 X43.2471 Y57.2511
G01 X43.2716 Y57.2493
G01 X43.2959 Y57.2463
G01 X43.3884 Y57.2326
G01 X43.4126 Y57.2284
G01 X43.4365 Y57.2230
G01 X43.5272 Y57.2003
G01 X43.5508 Y57.1938
G01 X43.5741 Y57.1861
G01 X43.6621 Y57.1546
G01 X43.6850 Y57.1457
G01 X43.7075 Y57.1358
G01 X43.7920 Y57.0958
G01 X43.8139 Y57.0848
G01 X43.8353 Y57.0727
G01 X43.9154 Y57.0246
G01 X43.9362 Y57.0115
G01 X43.9562 Y56.9974
G01 X44.0313 Y56.9417
G01 X44.0507 Y56.9266
G01 X44.0692 Y56.9106
G01 X44.1385 Y56.8478
G01 X44.1563 Y56.8309
G01 X44.1732 Y56.8131
G01 X44.2360 Y56.7438
G01 X44.2520 Y56.7253
G01 X44.2637 Y56.7104
G01 X47.0747 Y56.7104
G01 X47.0864 Y56.7253
G01 X47.1024 Y56.7438
G01 X47.1652 Y56.8131
G01 X47.1821 Y56.8309
G01 X47.1999 Y56.8478
G01 X47.2692 Y56.9106
G01 X47.2877 Y56.9266
G01 X47.3071 Y56.9417
G01 X47.3822 Y56.9974
G01 X47.4022 Y57.0115
G01 X47.4230 Y57.0246
G01 X47.5031 Y57.0727
G01 X47.5245 Y57.0848
G01 X47.5464 Y57.0958
G01 X47.6421 Y57.1409
G01 X47.6647 Y57.1503
G01 X47.6763 Y57.1546
G01 X47.7643 Y57.1861
G01 X47.7876 Y57.1938
G01 X47.8112 Y57.2003
G01 X47.9019 Y57.2230
G01 X47.9258 Y57.2284
G01 X47.9500 Y57.2326
G01 X48.0425 Y57.2463
G01 X48.0668 Y57.2493
G01 X48.0913 Y57.2511
G01 X48.1847 Y57.2557
G01 X48.2092 Y57.2563
G01 X48.2337 Y57.2557
G01 X48.3271 Y57.2511
G01 X48.3516 Y57.2493
G01 X48.3759 Y57.2463
G01 X48.4684 Y57.2326
G01 X48.4926 Y57.2284
G01 X48.5165 Y57.2230
G01 X48.6072 Y57.2003
G01 X48.6308 Y57.1938
G01 X48.6541 Y57.1861
G01 X48.7421 Y57.1546
G01 X48.7650 Y57.1457
G01 X48.7763 Y57.1409
G01 X48.8720 Y57.0958
G01 X48.8939 Y57.0848
G01 X48.9153 Y57.0727
G01 X48.9954 Y57.0246
G01 X49.0162 Y57.0115
G01 X49.0362 Y56.9974
G01 X49.1113 Y56.9417
G01 X49.1307 Y56.9266
G01 X49.1492 Y56.9106
G01 X49.2185 Y56.8478
G01 X49.2363 Y56.8309
G01 X49.2532 Y56.8131
G01 X49.3160 Y56.7438
G01 X49.3320 Y56.7253
G01 X49.3466 Y56.7065
G01 X53.1184 Y56.6858
G01 X53.1402 Y56.6901
G01 X53.1523 Y56.6921
G01 X53.1645 Y56.6937
G01 X53.1889 Y56.6961
G01 X53.2012 Y56.6969
G01 X53.2257 Y56.6975
G01 X53.3019 Y56.6975
G01 X53.3264 Y56.6969
G01 X53.3509 Y56.6951
G01 X53.3753 Y56.6921
G01 X53.3874 Y56.6901
G01 X53.4108 Y56.6855
G01 X60.0052 Y56.7074
G01 X60.0534 Y73.5864
G01 X60.0541 Y73.6109
G01 X60.0560 Y73.6482
G01 X60.0578 Y73.6734
G01 X60.0594 Y73.6871
G01 X60.0686 Y73.7490
G01 X60.0712 Y73.7625
G01 X60.0768 Y73.7871
G01 X60.0891 Y73.8355
G01 X60.0968 Y73.8608
G01 X60.1136 Y73.9078
G01 X60.1231 Y73.9325
G01 X60.1334 Y73.9555
G01 X60.1494 Y73.9892
G01 X60.1608 Y74.0118
G01 X60.1738 Y74.0348
G01 X60.1931 Y74.0667
G01 X60.2072 Y74.0890
G01 X60.2218 Y74.1097
G01 X60.2517 Y74.1496
G01 X60.2685 Y74.1700
G01 X60.3020 Y74.2071
G01 X60.3194 Y74.2254
G01 X60.3386 Y74.2436
G01 X60.3663 Y74.2686
G01 X60.3863 Y74.2858
G01 X60.4063 Y74.3013
G01 X60.4465 Y74.3309
G01 X60.4685 Y74.3455
G01 X60.5113 Y74.3713
G01 X60.5343 Y74.3842
G01 X60.5569 Y74.3955
G01 X60.6021 Y74.4167
G01 X60.6265 Y74.4268
G01 X60.6735 Y74.4437
G01 X60.6975 Y74.4516
G01 X60.7108 Y74.4554
G01 X60.7592 Y74.4676
G01 X60.7838 Y74.4731
G01 X60.8099 Y74.4776
G01 X60.8468 Y74.4830
G01 X60.8718 Y74.4861
G01 X60.8856 Y74.4873
G01 X60.9355 Y74.4898
G01 X60.9600 Y74.4904
G01 X64.8801 Y74.4904
G01 X64.8918 Y74.5053
G01 X64.9078 Y74.5238
G01 X64.9790 Y74.6021
G01 X64.9963 Y74.6194
G01 X65.0534 Y74.6714
G01 X65.0253 Y74.6727
G01 X65.0009 Y74.6751
G01 X64.9766 Y74.6787
G01 X64.9526 Y74.6835
G01 X64.9287 Y74.6894
G01 X64.9053 Y74.6965
G01 X64.8822 Y74.7048
G01 X64.8595 Y74.7142
G01 X64.8373 Y74.7247
G01 X64.8157 Y74.7363
G01 X64.7946 Y74.7489
G01 X64.7742 Y74.7625
G01 X64.7545 Y74.7771
G01 X64.7355 Y74.7927
G01 X64.7263 Y74.8008
G01 X64.7086 Y74.8177
G01 X64.6916 Y74.8355
G01 X64.6756 Y74.8541
G01 X64.6679 Y74.8637
G01 X64.6533 Y74.8834
G01 X64.6397 Y74.9038
G01 X64.6271 Y74.9249
G01 X64.6155 Y74.9465
G01 X64.6050 Y74.9687
G01 X64.5956 Y74.9914
G01 X64.5873 Y75.0145
G01 X64.5802 Y75.0379
G01 X64.5743 Y75.0617
G01 X64.5695 Y75.0858
G01 X64.5659 Y75.1101
G01 X64.5635 Y75.1345
G01 X64.5623 Y75.1590
G01 X64.5621 Y75.2224
G01 X56.7612 Y75.2632
G01 X56.7612 Y63.4492
G01 X56.7606 Y63.4247
G01 X56.7579 Y63.3726
G01 X56.7555 Y63.3481
G01 X56.7538 Y63.3360
G01 X56.7480 Y63.2965
G01 X56.7438 Y63.2723
G01 X56.7384 Y63.2484
G01 X56.7256 Y63.1978
G01 X56.7185 Y63.1743
G01 X56.7145 Y63.1627
G01 X56.6967 Y63.1137
G01 X56.6874 Y63.0910
G01 X56.6652 Y63.0438
G01 X56.6542 Y63.0218
G01 X56.6421 Y63.0005
G01 X56.6215 Y62.9663
G01 X56.6151 Y62.9558
G01 X56.6015 Y62.9354
G01 X56.5631 Y62.8836
G01 X56.5475 Y62.8647
G01 X56.5394 Y62.8555
G01 X56.5126 Y62.8259
G01 X56.4957 Y62.8081
G01 X56.4779 Y62.7912
G01 X56.4483 Y62.7644
G01 X56.4391 Y62.7563
G01 X56.4202 Y62.7407
G01 X56.3684 Y62.7023
G01 X56.3480 Y62.6887
G01 X56.3375 Y62.6823
G01 X56.3033 Y62.6617
G01 X56.2820 Y62.6496
G01 X56.2600 Y62.6386
G01 X56.2240 Y62.6216
G01 X56.2015 Y62.6116
G01 X56.1901 Y62.6071
G01 X56.1295 Y62.5853
G01 X56.1178 Y62.5816
G01 X56.0941 Y62.5751
G01 X56.0554 Y62.5654
G01 X56.0315 Y62.5600
G01 X56.0073 Y62.5558
G01 X55.9557 Y62.5483
G01 X55.9312 Y62.5459
G01 X55.9190 Y62.5452
G01 X55.8791 Y62.5432
G01 X55.8546 Y62.5426
G01 X49.1265 Y62.5426
G01 X49.1350 Y61.8210
G01 X49.1539 Y61.8031
G01 X49.1708 Y61.7853
G01 X49.2236 Y61.7272
G01 X49.2396 Y61.7086
G01 X49.2473 Y61.6990
G01 X49.3015 Y61.6262
G01 X49.3156 Y61.6061
G01 X49.3287 Y61.5854
G01 X49.3753 Y61.5074
G01 X49.3868 Y61.4858
G01 X49.3922 Y61.4747
G01 X49.4258 Y61.4038
G01 X49.4357 Y61.3813
G01 X49.4403 Y61.3699
G01 X49.4710 Y61.2845
G01 X49.4787 Y61.2612
G01 X49.4853 Y61.2375
G01 X49.5046 Y61.1603
G01 X49.5239 Y61.2375
G01 X49.5305 Y61.2612
G01 X49.5382 Y61.2845
G01 X49.5689 Y61.3699
G01 X49.5783 Y61.3926
G01 X49.5834 Y61.4038
G01 X49.6170 Y61.4747
G01 X49.6280 Y61.4967
G01 X49.6401 Y61.5180
G01 X49.6805 Y61.5854
G01 X49.6936 Y61.6061
G01 X49.7077 Y61.6262
G01 X49.7545 Y61.6892
G01 X49.7696 Y61.7086
G01 X49.7856 Y61.7272
G01 X49.8384 Y61.7853
G01 X49.8553 Y61.8031
G01 X49.8731 Y61.8200
G01 X49.9312 Y61.8728
G01 X49.9498 Y61.8888
G01 X49.9594 Y61.8965
G01 X50.0322 Y61.9507
G01 X50.0523 Y61.9648
G01 X50.0730 Y61.9779
G01 X50.1404 Y62.0183
G01 X50.1617 Y62.0304
G01 X50.1837 Y62.0414
G01 X50.2546 Y62.0750
G01 X50.2771 Y62.0849
G01 X50.3000 Y62.0938
G01 X50.3739 Y62.1202
G01 X50.3972 Y62.1279
G01 X50.4209 Y62.1345
G01 X50.4970 Y62.1535
G01 X50.5210 Y62.1589
G01 X50.5451 Y62.1631
G01 X50.6228 Y62.1746
G01 X50.6472 Y62.1776
G01 X50.6716 Y62.1794
G01 X50.7501 Y62.1833
G01 X50.7746 Y62.1839
G01 X50.7991 Y62.1833
G01 X50.8776 Y62.1794
G01 X50.9020 Y62.1776
G01 X50.9264 Y62.1746
G01 X51.0041 Y62.1631
G01 X51.0282 Y62.1589
G01 X51.0522 Y62.1535
G01 X51.1283 Y62.1345
G01 X51.1520 Y62.1279
G01 X51.1753 Y62.1202
G01 X51.2492 Y62.0938
G01 X51.2607 Y62.0895
G01 X51.2834 Y62.0801
G01 X51.3655 Y62.0414
G01 X51.3875 Y62.0304
G01 X51.4088 Y62.0183
G01 X51.4762 Y61.9779
G01 X51.4969 Y61.9648
G01 X51.5170 Y61.9507
G01 X51.5800 Y61.9039
G01 X51.5994 Y61.8888
G01 X51.6180 Y61.8728
G01 X51.6761 Y61.8200
G01 X51.6939 Y61.8031
G01 X51.7108 Y61.7853
G01 X51.7636 Y61.7272
G01 X51.7796 Y61.7086
G01 X51.7947 Y61.6892
G01 X51.8415 Y61.6262
G01 X51.8486 Y61.6162
G01 X51.8623 Y61.5958
G01 X51.9091 Y61.5180
G01 X51.9212 Y61.4967
G01 X51.9322 Y61.4747
G01 X51.9658 Y61.4038
G01 X51.9757 Y61.3813
G01 X51.9846 Y61.3584
G01 X52.0150 Y61.2729
G01 X52.0221 Y61.2494
G01 X52.0253 Y61.2375
G01 X52.0443 Y61.1614
G01 X52.0497 Y61.1374
G01 X52.0539 Y61.1133
G01 X52.0654 Y61.0356
G01 X52.0684 Y61.0112
G01 X52.0702 Y60.9868
G01 X52.0741 Y60.9083
G01 X52.0747 Y60.8838
G01 X52.0741 Y60.8593
G01 X52.0702 Y60.7808
G01 X52.0684 Y60.7564
G01 X52.0654 Y60.7320
G01 X52.0539 Y60.6543
G01 X52.0497 Y60.6302
G01 X52.0443 Y60.6062
G01 X52.0253 Y60.5301
G01 X52.0187 Y60.5064
G01 X52.0110 Y60.4831
G01 X51.9846 Y60.4092
G01 X51.9757 Y60.3863
G01 X51.9658 Y60.3638
G01 X51.9322 Y60.2929
G01 X51.9212 Y60.2709
G01 X51.9091 Y60.2496
G01 X51.8687 Y60.1822
G01 X51.8556 Y60.1615
G01 X51.8415 Y60.1414
G01 X51.7947 Y60.0784
G01 X51.7796 Y60.0590
G01 X51.7636 Y60.0404
G01 X51.7108 Y59.9823
G01 X51.6937 Y59.9643
G01 X51.7317 Y58.3654
G01 X51.7319 Y58.3315
G01 X51.7301 Y58.2857
G01 X51.7266 Y58.2457
G01 X51.7200 Y58.1973
G01 X51.7127 Y58.1578
G01 X51.7014 Y58.1103
G01 X51.6902 Y58.0718
G01 X51.6743 Y58.0256
G01 X51.6594 Y57.9883
G01 X51.6390 Y57.9439
G01 X51.6277 Y57.9217
G01 X51.6129 Y57.8951
G01 X51.5959 Y57.8661
G01 X51.5740 Y57.8324
G01 X51.5454 Y57.7929
G01 X51.5202 Y57.7615
G01 X51.4879 Y57.7250
G01 X51.4598 Y57.6962
G01 X51.4240 Y57.6630
G01 X51.3933 Y57.6372
G01 X51.3544 Y57.6076
G01 X51.3340 Y57.5933
G01 X51.3083 Y57.5769
G01 X51.2797 Y57.5593
G01 X51.2665 Y57.5517
G01 X51.2445 Y57.5399
G01 X51.2006 Y57.5185
G01 X51.1867 Y57.5123
G01 X51.1637 Y57.5027
G01 X51.1179 Y57.4857
G01 X51.0943 Y57.4780
G01 X51.0649 Y57.4697
G01 X51.0324 Y57.4612
G01 X50.9931 Y57.4529
G01 X50.9449 Y57.4452
G01 X50.9202 Y57.4422
G01 X50.8898 Y57.4398
G01 X50.8563 Y57.4378
G01 X50.8410 Y57.4373
G01 X41.5466 Y57.4372
G01 X41.5466 Y55.8038
G01 X41.5460 Y55.7793
G01 X41.5440 Y55.7394
G01 X41.5422 Y55.7149
G01 X41.5409 Y55.7027
G01 X41.5334 Y55.6511
G01 X41.5292 Y55.6269
G01 X41.5238 Y55.6030
G01 X41.5141 Y55.5643
G01 X41.5076 Y55.5406
G01 X41.4999 Y55.5173
G01 X41.4864 Y55.4798
G01 X41.4776 Y55.4569
G01 X41.4676 Y55.4344
G01 X41.4452 Y55.3873
G01 X41.4336 Y55.3657
G01 X41.4005 Y55.3104
G01 X41.3869 Y55.2900
G01 X41.3559 Y55.2480
G01 X41.3408 Y55.2287
G01 X41.3248 Y55.2101
G01 X41.2896 Y55.1715
G01 X41.2723 Y55.1542
G01 X41.2337 Y55.1190
G01 X41.2151 Y55.1030
G01 X41.1958 Y55.0879
G01 X41.1538 Y55.0569
G01 X41.1334 Y55.0433
G01 X41.0887 Y55.0163
G01 X41.0674 Y55.0042
G01 X41.0454 Y54.9932
G01 X41.0094 Y54.9762
G01 X40.9869 Y54.9662
G01 X40.9640 Y54.9574
G01 X40.9265 Y54.9439
G01 X40.9032 Y54.9362
G01 X40.8795 Y54.9297
G01 X40.8408 Y54.9200
G01 X40.8169 Y54.9146
G01 X40.7927 Y54.9104
G01 X40.7411 Y54.9029
G01 X40.7166 Y54.9005
G01 X40.7044 Y54.8998
G01 X40.6645 Y54.8978
G01 X40.6400 Y54.8972
G01 X39.1837 Y54.8972
G01 X39.1720 Y54.8823
G01 X39.1560 Y54.8638
G01 X39.0848 Y54.7855
G01 X39.0763 Y54.7767
G01 X39.0585 Y54.7598
G01 X38.9892 Y54.6970
G01 X38.9707 Y54.6810
G01 X38.9513 Y54.6659
G01 X38.8663 Y54.6030
G01 X38.8562 Y54.5961
G01 X38.8354 Y54.5830
G01 X38.7553 Y54.5349
G01 X38.7339 Y54.5228
G01 X38.7120 Y54.5118
G01 X38.6275 Y54.4718
G01 X38.6050 Y54.4619
G01 X38.5821 Y54.4530
G01 X38.4941 Y54.4215
G01 X38.4708 Y54.4138
G01 X38.4472 Y54.4073
G01 X38.3565 Y54.3846
G01 X38.3326 Y54.3792
G01 X38.3084 Y54.3750
G01 X38.2159 Y54.3613
G01 X38.1916 Y54.3583
G01 X38.1671 Y54.3565
G01 X38.0737 Y54.3519
G01 X38.0492 Y54.3513
G01 X38.0247 Y54.3519
G01 X37.9313 Y54.3565
G01 X37.9068 Y54.3583
G01 X37.8825 Y54.3613
G01 X37.7900 Y54.3750
G01 X37.7658 Y54.3792
G01 X37.7419 Y54.3846
G01 X37.6512 Y54.4073
G01 X37.6276 Y54.4138
G01 X37.6043 Y54.4215
G01 X37.5163 Y54.4530
G01 X37.4934 Y54.4619
G01 X37.4709 Y54.4718
G01 X37.3864 Y54.5118
G01 X37.3645 Y54.5228
G01 X37.3431 Y54.5349
G01 X37.2630 Y54.5830
G01 X37.2422 Y54.5961
G01 X37.2222 Y54.6102
G01 X37.1471 Y54.6659
G01 X37.1277 Y54.6810
G01 X37.1092 Y54.6970
G01 X37.0399 Y54.7598
G01 X37.0221 Y54.7767
G01 X37.0052 Y54.7945
G01 X36.9424 Y54.8638
G01 X36.9264 Y54.8823
G01 X36.9113 Y54.9017
G01 X36.8556 Y54.9768
G01 X36.8415 Y54.9968
G01 X36.8284 Y55.0176
G01 X36.7803 Y55.0977
G01 X36.7682 Y55.1191
G01 X36.7572 Y55.1410
G01 X36.7172 Y55.2255
G01 X36.7073 Y55.2480
G01 X36.6984 Y55.2709
G01 X36.6669 Y55.3589
G01 X36.6592 Y55.3822
G01 X36.6527 Y55.4058
G01 X36.6300 Y55.4965
G01 X36.6246 Y55.5204
G01 X36.6204 Y55.5446
G01 X36.6067 Y55.6371
G01 X36.6037 Y55.6614
G01 X36.6019 Y55.6859
G01 X36.5973 Y55.7793
G01 X36.5967 Y55.8038
G01 X36.5973 Y55.8283
G01 X36.6019 Y55.9217
G01 X36.6037 Y55.9462
G01 X36.6067 Y55.9705
G01 X36.6204 Y56.0630
G01 X36.6246 Y56.0872
G01 X36.6300 Y56.1111
G01 X36.6527 Y56.2018
G01 X36.6592 Y56.2254
G01 X36.6669 Y56.2487
G01 X36.7027 Y56.3483
G01 X36.7073 Y56.3596
G01 X36.7172 Y56.3821
G01 X36.7572 Y56.4666
G01 X36.7682 Y56.4885
G01 X36.7803 Y56.5099
G01 X36.8284 Y56.5900
G01 X36.8415 Y56.6108
G01 X36.8556 Y56.6308
G01 X36.9113 Y56.7059
G01 X36.9264 Y56.7253
G01 X36.9424 Y56.7438
G01 X37.0052 Y56.8131
G01 X37.0221 Y56.8309
G01 X37.0399 Y56.8478
G01 X37.1092 Y56.9106
G01 X37.1277 Y56.9266
G01 X37.1471 Y56.9417
G01 X37.2222 Y56.9974
G01 X37.2422 Y57.0115
G01 X37.2630 Y57.0246
G01 X37.3431 Y57.0727
G01 X37.3645 Y57.0848
G01 X37.3864 Y57.0958
G01 X37.4709 Y57.1358
G01 X37.4934 Y57.1457
G01 X37.5163 Y57.1546
G01 X37.6043 Y57.1861
G01 X37.6276 Y57.1938
G01 X37.6512 Y57.2003
G01 X37.7419 Y57.2230
G01 X37.7658 Y57.2284
G01 X37.7900 Y57.2326
G01 X37.8946 Y57.2480
G01 X37.9191 Y57.2504
G01 X37.9313 Y57.2511
G01 X38.0247 Y57.2557
G01 X38.0492 Y57.2563
G01 X38.0737 Y57.2557
G01 X38.1671 Y57.2511
G01 X38.1916 Y57.2493
G01 X38.2159 Y57.2463
G01 X38.3084 Y57.2326
G01 X38.3326 Y57.2284
G01 X38.3565 Y57.2230
G01 X38.4472 Y57.2003
G01 X38.4708 Y57.1938
G01 X38.4941 Y57.1861
G01 X38.5821 Y57.1546
G01 X38.6050 Y57.1457
G01 X38.6275 Y57.1358
G01 X38.7120 Y57.0958
G01 X38.7339 Y57.0848
G01 X38.7553 Y57.0727
G01 X38.8354 Y57.0246
G01 X38.8562 Y57.0115
G01 X38.8762 Y56.9974
G01 X38.9513 Y56.9417
G01 X38.9707 Y56.9266
G01 X38.9892 Y56.9106
G01 X39.0585 Y56.8478
G01 X39.0763 Y56.8309
G01 X39.0932 Y56.8131
G01 X39.1560 Y56.7438
G01 X39.1720 Y56.7253
G01 X39.1837 Y56.7104
G01 X39.7334 Y56.7104
G01 X39.7334 Y58.3438
G01 X39.7340 Y58.3683
G01 X39.7360 Y58.4082
G01 X39.7378 Y58.4327
G01 X39.7408 Y58.4570
G01 X39.7466 Y58.4965
G01 X39.7508 Y58.5207
G01 X39.7562 Y58.5446
G01 X39.7659 Y58.5833
G01 X39.7690 Y58.5952
G01 X39.7761 Y58.6187
G01 X39.7979 Y58.6793
G01 X39.8024 Y58.6907
G01 X39.8124 Y58.7132
G01 X39.8294 Y58.7492
G01 X39.8404 Y58.7712
G01 X39.8525 Y58.7925
G01 X39.8731 Y58.8267
G01 X39.8795 Y58.8372
G01 X39.8931 Y58.8576
G01 X39.9315 Y58.9094
G01 X39.9471 Y58.9283
G01 X39.9552 Y58.9375
G01 X39.9820 Y58.9671
G01 X39.9989 Y58.9849
G01 X40.0167 Y59.0018
G01 X40.0463 Y59.0286
G01 X40.0649 Y59.0446
G01 X40.0842 Y59.0597
G01 X40.1163 Y59.0835
G01 X40.1363 Y59.0976
G01 X40.1466 Y59.1043
G01 X40.2019 Y59.1374
G01 X40.2126 Y59.1434
G01 X40.2346 Y59.1544
G01 X40.2706 Y59.1714
G01 X40.2931 Y59.1814
G01 X40.3160 Y59.1902
G01 X40.3535 Y59.2037
G01 X40.3651 Y59.2077
G01 X40.3886 Y59.2148
G01 X40.4511 Y59.2304
G01 X40.4631 Y59.2330
G01 X40.4873 Y59.2372
G01 X40.5268 Y59.2430
G01 X40.5511 Y59.2460
G01 X40.5756 Y59.2478
G01 X40.6155 Y59.2498
G01 X40.6400 Y59.2504
G01 X49.8970 Y59.2504
G01 X49.8805 Y59.9408
G01 X49.8553 Y59.9645
G01 X49.8384 Y59.9823
G01 X49.7856 Y60.0404
G01 X49.7775 Y60.0496
G01 X49.7619 Y60.0686
G01 X49.7077 Y60.1414
G01 X49.6936 Y60.1615
G01 X49.6805 Y60.1822
G01 X49.6339 Y60.2602
G01 X49.6280 Y60.2709
G01 X49.6170 Y60.2929
G01 X49.5834 Y60.3638
G01 X49.5735 Y60.3863
G01 X49.5689 Y60.3977
G01 X49.5382 Y60.4831
G01 X49.5305 Y60.5064
G01 X49.5239 Y60.5301
G01 X49.5046 Y60.6073
G01 X49.4853 Y60.5301
G01 X49.4787 Y60.5064
G01 X49.4710 Y60.4831
G01 X49.4403 Y60.3977
G01 X49.4309 Y60.3750
G01 X49.4258 Y60.3638
G01 X49.3922 Y60.2929
G01 X49.3868 Y60.2818
G01 X49.3753 Y60.2602
G01 X49.3287 Y60.1822
G01 X49.3156 Y60.1615
G01 X49.3015 Y60.1414
G01 X49.2473 Y60.0686
G01 X49.2396 Y60.0590
G01 X49.2236 Y60.0404
G01 X49.1708 Y59.9823
G01 X49.1539 Y59.9645
G01 X49.1361 Y59.9476
G01 X49.0780 Y59.8948
G01 X49.0594 Y59.8788
G01 X49.0400 Y59.8637
G01 X48.9770 Y59.8169
G01 X48.9569 Y59.8028
G01 X48.9362 Y59.7897
G01 X48.8688 Y59.7493
G01 X48.8475 Y59.7372
G01 X48.8255 Y59.7262
G01 X48.7546 Y59.6926
G01 X48.7321 Y59.6827
G01 X48.7092 Y59.6738
G01 X48.6353 Y59.6474
G01 X48.6120 Y59.6397
G01 X48.6002 Y59.6363
G01 X48.5122 Y59.6141
G01 X48.4882 Y59.6087
G01 X48.4641 Y59.6045
G01 X48.3864 Y59.5930
G01 X48.3742 Y59.5913
G01 X48.3498 Y59.5889
G01 X48.2469 Y59.5839
G01 X48.2223 Y59.5839
G01 X48.2101 Y59.5843
G01 X48.1316 Y59.5882
