(G-CODE GENERATED BY FLATCAM v8.994 - www.flatcam.org - Version Date: 2020/11/7)

(Name: CIRCUITO DE CONTROL LINEAL_copperBottom.gbl_iso_combined_cnc)
(Type: G-code from Geometry)
(Units: MM)

(Created on Wednesday, 16 October 2024 at 21:39)

(This preprocessor is the default preprocessor used by FlatCAM.)
(It is made to work with MACH3 compatible motion controllers.)

(TOOL DIAMETER: 1.0 mm)
(Feedrate_XY: 80.0 mm/min)
(Feedrate_Z: 60.0 mm/min)
(Feedrate rapids 1500.0 mm/min)

(Z_Cut: -0.05 mm)
(Z_Move: 2.0 mm)
(Z Start: None mm)
(Z End: 15.0 mm)
(X,Y End: None mm)
(Steps per circle: 64)
(Preprocessor Geometry: default)

(X range:    1.4047 ...   69.6899  mm)
(Y range:    1.3539 ...   77.8885  mm)

(Spindle Speed: 0.0 RPM)
G21
G90
G94

G01 F80.00

M5
G00 Z15.0000
G00 X0.0000 Y0.0000
T1
M6    
(MSG, Change to Tool Dia = 1.0000)
M0
G00 Z15.0000

M03
G01 F80.00
G00 X20.5662 Y6.1299
G01 F60.00
G01 Z-0.0500
G01 F80.00
G01 X21.7501 Y6.1347
G01 X21.7501 Y8.9615
G01 X21.2043 Y8.9679
G01 X21.1887 Y8.9557
G01 X21.1146 Y8.9008
G01 X21.0945 Y8.8867
G01 X21.0738 Y8.8735
G01 X20.9947 Y8.8261
G01 X20.9729 Y8.8138
G01 X20.9947 Y8.8015
G01 X21.0738 Y8.7541
G01 X21.0945 Y8.7409
G01 X21.1146 Y8.7268
G01 X21.1887 Y8.6719
G01 X21.2080 Y8.6568
G01 X21.2266 Y8.6407
G01 X21.2949 Y8.5788
G01 X21.3127 Y8.5619
G01 X21.3296 Y8.5441
G01 X21.3915 Y8.4758
G01 X21.4076 Y8.4572
G01 X21.4227 Y8.4379
G01 X21.4776 Y8.3638
G01 X21.4917 Y8.3437
G01 X21.5049 Y8.3230
G01 X21.5585 Y8.2333
G01 X21.5644 Y8.2225
G01 X21.5754 Y8.2006
G01 X21.6149 Y8.1172
G01 X21.6248 Y8.0948
G01 X21.6336 Y8.0719
G01 X21.6647 Y7.9851
G01 X21.6724 Y7.9618
G01 X21.6789 Y7.9381
G01 X21.7014 Y7.8486
G01 X21.7067 Y7.8247
G01 X21.7109 Y7.8005
G01 X21.7245 Y7.7093
G01 X21.7275 Y7.6849
G01 X21.7293 Y7.6605
G01 X21.7338 Y7.5683
G01 X21.7344 Y7.5438
G01 X21.7342 Y7.5315
G01 X21.7293 Y7.4271
G01 X21.7275 Y7.4027
G01 X21.7245 Y7.3783
G01 X21.7109 Y7.2871
G01 X21.7067 Y7.2629
G01 X21.7042 Y7.2509
G01 X21.6789 Y7.1495
G01 X21.6724 Y7.1258
G01 X21.6647 Y7.1025
G01 X21.6336 Y7.0157
G01 X21.6248 Y6.9928
G01 X21.6149 Y6.9704
G01 X21.5754 Y6.8870
G01 X21.5644 Y6.8651
G01 X21.5523 Y6.8437
G01 X21.5049 Y6.7646
G01 X21.4917 Y6.7439
G01 X21.4776 Y6.7238
G01 X21.4227 Y6.6497
G01 X21.4076 Y6.6304
G01 X21.3915 Y6.6118
G01 X21.3296 Y6.5435
G01 X21.3127 Y6.5257
G01 X21.2949 Y6.5088
G01 X21.2266 Y6.4469
G01 X21.2080 Y6.4308
G01 X21.1887 Y6.4157
G01 X21.1146 Y6.3608
G01 X21.0945 Y6.3467
G01 X21.0738 Y6.3335
G01 X20.9947 Y6.2861
G01 X20.9733 Y6.2740
G01 X20.9514 Y6.2630
G01 X20.8680 Y6.2235
G01 X20.8456 Y6.2136
G01 X20.8227 Y6.2048
G01 X20.7359 Y6.1737
G01 X20.7126 Y6.1660
G01 X20.6889 Y6.1595
G01 X20.5994 Y6.1370
G01 X20.5875 Y6.1342
G01 X20.5662 Y6.1299
G00 Z2.0000
G00 X19.6163 Y8.8138
G01 F60.00
G01 Z-0.0500
G01 F80.00
G01 X19.5945 Y8.8261
G01 X19.5154 Y8.8735
G01 X19.4947 Y8.8867
G01 X19.4746 Y8.9008
G01 X19.4005 Y8.9557
G01 X19.3812 Y8.9708
G01 X19.3626 Y8.9869
G01 X19.2943 Y9.0488
G01 X19.2765 Y9.0657
G01 X19.2596 Y9.0835
G01 X19.1977 Y9.1518
G01 X19.1816 Y9.1704
G01 X19.1665 Y9.1897
G01 X19.1116 Y9.2638
G01 X19.0975 Y9.2839
G01 X19.0843 Y9.3046
G01 X19.0369 Y9.3837
G01 X19.0248 Y9.4051
G01 X19.0138 Y9.4270
G01 X18.9743 Y9.5104
G01 X18.9644 Y9.5328
G01 X18.9556 Y9.5557
G01 X18.9245 Y9.6425
G01 X18.9168 Y9.6658
G01 X18.9103 Y9.6895
G01 X18.8878 Y9.7790
G01 X18.8825 Y9.8029
G01 X18.8783 Y9.8271
G01 X18.8647 Y9.9183
G01 X18.8617 Y9.9427
G01 X18.8599 Y9.9671
G01 X18.8554 Y10.0593
G01 X18.8548 Y10.0838
G01 X18.8554 Y10.1083
G01 X18.8599 Y10.2005
G01 X18.8617 Y10.2249
G01 X18.8631 Y10.2371
G01 X18.8783 Y10.3405
G01 X18.8825 Y10.3647
G01 X18.8878 Y10.3886
G01 X18.9103 Y10.4781
G01 X18.9168 Y10.5018
G01 X18.9245 Y10.5251
G01 X18.9556 Y10.6119
G01 X18.9644 Y10.6348
G01 X18.9743 Y10.6572
G01 X19.0138 Y10.7406
G01 X19.0248 Y10.7625
G01 X19.0369 Y10.7839
G01 X19.0843 Y10.8630
G01 X19.0975 Y10.8837
G01 X19.1116 Y10.9038
G01 X19.1665 Y10.9779
G01 X19.1816 Y10.9972
G01 X19.1977 Y11.0158
G01 X19.2596 Y11.0841
G01 X19.2765 Y11.1019
G01 X19.2943 Y11.1188
G01 X19.3626 Y11.1807
G01 X19.3812 Y11.1968
G01 X19.4005 Y11.2119
G01 X19.4746 Y11.2668
G01 X19.4947 Y11.2809
G01 X19.5154 Y11.2941
G01 X19.5945 Y11.3415
G01 X19.6163 Y11.3538
G01 X19.5945 Y11.3661
G01 X19.5154 Y11.4135
G01 X19.4947 Y11.4267
G01 X19.4746 Y11.4408
G01 X19.4005 Y11.4957
G01 X19.3812 Y11.5108
G01 X19.3626 Y11.5269
G01 X19.2943 Y11.5888
G01 X19.2765 Y11.6057
G01 X19.2596 Y11.6235
G01 X19.1977 Y11.6918
G01 X19.1816 Y11.7104
G01 X19.1665 Y11.7297
G01 X19.1116 Y11.8038
G01 X19.0975 Y11.8239
G01 X19.0843 Y11.8446
G01 X19.0369 Y11.9237
G01 X19.0248 Y11.9451
G01 X19.0138 Y11.9670
G01 X18.9743 Y12.0504
G01 X18.9644 Y12.0728
G01 X18.9556 Y12.0957
G01 X18.9245 Y12.1825
G01 X18.9168 Y12.2058
G01 X18.9103 Y12.2295
G01 X18.8878 Y12.3190
G01 X18.8825 Y12.3429
G01 X18.8783 Y12.3671
G01 X18.8647 Y12.4583
G01 X18.8617 Y12.4827
G01 X18.8599 Y12.5071
G01 X18.8554 Y12.5993
G01 X18.8548 Y12.6238
G01 X18.8554 Y12.6483
G01 X18.8599 Y12.7405
G01 X18.8617 Y12.7649
G01 X18.8647 Y12.7893
G01 X18.8783 Y12.8805
G01 X18.8825 Y12.9047
G01 X18.8878 Y12.9286
G01 X18.9103 Y13.0181
G01 X18.9168 Y13.0418
G01 X18.9245 Y13.0651
G01 X18.9556 Y13.1519
G01 X18.9644 Y13.1748
G01 X18.9743 Y13.1972
G01 X19.0138 Y13.2806
G01 X19.0248 Y13.3025
G01 X19.0369 Y13.3239
G01 X19.0843 Y13.4030
G01 X19.0975 Y13.4237
G01 X19.1116 Y13.4438
G01 X19.1665 Y13.5179
G01 X19.1816 Y13.5372
G01 X19.1977 Y13.5558
G01 X19.2596 Y13.6241
G01 X19.2765 Y13.6419
G01 X19.2943 Y13.6588
G01 X19.3626 Y13.7207
G01 X19.3812 Y13.7368
G01 X19.4005 Y13.7519
G01 X19.4746 Y13.8068
G01 X19.4947 Y13.8209
G01 X19.5154 Y13.8341
G01 X19.5945 Y13.8815
G01 X19.6051 Y13.8877
G01 X19.6268 Y13.8992
G01 X19.7212 Y13.9441
G01 X19.7436 Y13.9540
G01 X19.7665 Y13.9628
G01 X19.8533 Y13.9939
G01 X19.8766 Y14.0016
G01 X19.9003 Y14.0081
G01 X19.9898 Y14.0306
G01 X20.0137 Y14.0359
G01 X20.0379 Y14.0401
G01 X20.1291 Y14.0537
G01 X20.1535 Y14.0567
G01 X20.1779 Y14.0585
G01 X20.2701 Y14.0630
G01 X20.2946 Y14.0636
G01 X20.3191 Y14.0630
G01 X20.4113 Y14.0585
G01 X20.4357 Y14.0567
G01 X20.4601 Y14.0537
G01 X20.5513 Y14.0401
G01 X20.5755 Y14.0359
G01 X20.5994 Y14.0306
G01 X20.6889 Y14.0081
G01 X20.7126 Y14.0016
G01 X20.7359 Y13.9939
G01 X20.8227 Y13.9628
G01 X20.8456 Y13.9540
G01 X20.8680 Y13.9441
G01 X20.9624 Y13.8992
G01 X20.9841 Y13.8877
G01 X20.9947 Y13.8815
G01 X21.0738 Y13.8341
G01 X21.0945 Y13.8209
G01 X21.1146 Y13.8068
G01 X21.1887 Y13.7519
G01 X21.2101 Y13.7350
G01 X29.3447 Y13.7562
G01 X29.3447 Y16.6034
G01 X29.3379 Y16.5829
G01 X29.3290 Y16.5600
G01 X29.3191 Y16.5375
G01 X29.3137 Y16.5265
G01 X29.3021 Y16.5049
G01 X29.2960 Y16.4943
G01 X29.2828 Y16.4735
G01 X29.2759 Y16.4634
G01 X29.2687 Y16.4535
G01 X29.2536 Y16.4341
G01 X29.2376 Y16.4155
G01 X29.2292 Y16.4065
G01 X29.2119 Y16.3892
G01 X29.2029 Y16.3808
G01 X29.1843 Y16.3648
G01 X29.1649 Y16.3497
G01 X29.1449 Y16.3356
G01 X29.1346 Y16.3289
G01 X29.1135 Y16.3163
G01 X29.0919 Y16.3047
G01 X29.0697 Y16.2942
G01 X29.0584 Y16.2894
G01 X29.0470 Y16.2848
G01 X29.0239 Y16.2765
G01 X29.0005 Y16.2694
G01 X28.9766 Y16.2635
G01 X28.9526 Y16.2587
G01 X28.9405 Y16.2567
G01 X28.9283 Y16.2551
G01 X28.9039 Y16.2527
G01 X28.8916 Y16.2519
G01 X28.8671 Y16.2513
G01 X26.9621 Y16.2513
G01 X26.9376 Y16.2519
G01 X26.9253 Y16.2527
G01 X26.9009 Y16.2551
G01 X26.8887 Y16.2567
G01 X26.8766 Y16.2587
G01 X26.8526 Y16.2635
G01 X26.8287 Y16.2694
G01 X26.8170 Y16.2728
G01 X26.7937 Y16.2805
G01 X26.7822 Y16.2848
G01 X26.7595 Y16.2942
G01 X26.7373 Y16.3047
G01 X26.7157 Y16.3163
G01 X26.7051 Y16.3224
G01 X26.6843 Y16.3356
G01 X26.6742 Y16.3425
G01 X26.6545 Y16.3571
G01 X26.6449 Y16.3648
G01 X26.6263 Y16.3808
G01 X26.6173 Y16.3892
G01 X26.6086 Y16.3977
G01 X26.5916 Y16.4155
G01 X26.5756 Y16.4341
G01 X26.5679 Y16.4437
G01 X26.5533 Y16.4634
G01 X26.5397 Y16.4838
G01 X26.5332 Y16.4942
G01 X26.5211 Y16.5156
G01 X26.5155 Y16.5265
G01 X26.5101 Y16.5375
G01 X26.5002 Y16.5600
G01 X26.4956 Y16.5714
G01 X26.4887 Y16.5905
G01 X20.2701 Y16.5685
G01 X20.2447 Y16.5691
G01 X20.1888 Y16.5717
G01 X20.1613 Y16.5738
G01 X20.1361 Y16.5768
G01 X20.0807 Y16.5850
G01 X20.0556 Y16.5892
G01 X20.0287 Y16.5952
G01 X19.9744 Y16.6087
G01 X19.9499 Y16.6154
G01 X19.9357 Y16.6199
G01 X19.8710 Y16.6427
G01 X19.8473 Y16.6518
G01 X19.8220 Y16.6629
G01 X19.7714 Y16.6868
G01 X19.7487 Y16.6981
G01 X19.7356 Y16.7053
G01 X19.6766 Y16.7403
G01 X19.6551 Y16.7539
G01 X19.6325 Y16.7697
G01 X19.5875 Y16.8029
G01 X19.5674 Y16.8185
G01 X19.5560 Y16.8280
G01 X19.5050 Y16.8740
G01 X19.4865 Y16.8914
G01 X19.4675 Y16.9114
G01 X19.4298 Y16.9527
G01 X19.4132 Y16.9719
G01 X19.4038 Y16.9835
G01 X19.3627 Y17.0385
G01 X19.3480 Y17.0592
G01 X19.3332 Y17.0825
G01 X19.3044 Y17.1304
G01 X19.2918 Y17.1525
G01 X19.2849 Y17.1657
G01 X19.2553 Y17.2276
G01 X19.2450 Y17.2509
G01 X19.2350 Y17.2766
G01 X19.2160 Y17.3292
G01 X19.2073 Y17.3554
G01 X19.2005 Y17.3799
G01 X19.1839 Y17.4465
G01 X19.1785 Y17.4735
G01 X19.1681 Y17.5414
G01 X19.1649 Y17.5666
G01 X19.1628 Y17.5941
G01 X19.1595 Y17.6626
G01 X19.1593 Y19.1305
G01 X16.3187 Y19.1146
G01 X16.2764 Y11.0681
G01 X16.2866 Y11.0561
G01 X16.3017 Y11.0367
G01 X16.3646 Y10.9517
G01 X16.3715 Y10.9416
G01 X16.3846 Y10.9208
G01 X16.4327 Y10.8407
G01 X16.4448 Y10.8193
G01 X16.4504 Y10.8084
G01 X16.4958 Y10.7129
G01 X16.5057 Y10.6904
G01 X16.5146 Y10.6675
G01 X16.5461 Y10.5795
G01 X16.5538 Y10.5562
G01 X16.5603 Y10.5326
G01 X16.5830 Y10.4419
G01 X16.5884 Y10.4180
G01 X16.5926 Y10.3938
G01 X16.6063 Y10.3013
G01 X16.6093 Y10.2770
G01 X16.6111 Y10.2525
G01 X16.6157 Y10.1591
G01 X16.6163 Y10.1346
G01 X16.6157 Y10.1101
G01 X16.6111 Y10.0167
G01 X16.6093 Y9.9922
G01 X16.6063 Y9.9679
G01 X16.5926 Y9.8754
G01 X16.5884 Y9.8512
G01 X16.5830 Y9.8273
G01 X16.5603 Y9.7366
G01 X16.5538 Y9.7130
G01 X16.5461 Y9.6897
G01 X16.5146 Y9.6017
G01 X16.5057 Y9.5788
G01 X16.4958 Y9.5563
G01 X16.4504 Y9.4608
G01 X16.4448 Y9.4499
G01 X16.4327 Y9.4285
G01 X16.3846 Y9.3484
G01 X16.3715 Y9.3276
G01 X16.3574 Y9.3076
G01 X16.3017 Y9.2325
G01 X16.2850 Y9.2112
G01 X16.2986 Y8.6342
G01 X19.3742 Y8.6509
G01 X19.3908 Y8.6644
G01 X19.4005 Y8.6719
G01 X19.4746 Y8.7268
G01 X19.4947 Y8.7409
G01 X19.5154 Y8.7541
G01 X19.5945 Y8.8015
G01 X19.6163 Y8.8138
G00 Z2.0000
G00 X19.5909 Y21.5138
G01 F60.00
G01 Z-0.0500
G01 F80.00
G01 X19.5691 Y21.5261
G01 X19.4900 Y21.5735
G01 X19.4693 Y21.5867
G01 X19.4492 Y21.6008
G01 X19.3751 Y21.6557
G01 X19.3558 Y21.6708
G01 X19.3372 Y21.6869
G01 X19.2689 Y21.7488
G01 X19.2511 Y21.7657
G01 X19.2342 Y21.7835
G01 X19.1723 Y21.8518
G01 X19.1562 Y21.8704
G01 X19.1411 Y21.8897
G01 X19.0862 Y21.9638
G01 X19.0721 Y21.9839
G01 X19.0589 Y22.0046
G01 X19.0115 Y22.0837
G01 X18.9994 Y22.1051
G01 X18.9884 Y22.1270
G01 X18.9489 Y22.2104
G01 X18.9390 Y22.2328
G01 X18.9302 Y22.2557
G01 X18.8991 Y22.3425
G01 X18.8914 Y22.3658
G01 X18.8849 Y22.3895
G01 X18.8624 Y22.4790
G01 X18.8571 Y22.5029
G01 X18.8529 Y22.5271
G01 X18.8393 Y22.6183
G01 X18.8377 Y22.6305
G01 X18.8353 Y22.6549
G01 X18.8300 Y22.7593
G01 X18.8294 Y22.7838
G01 X18.8300 Y22.8083
G01 X18.8345 Y22.9005
G01 X18.8363 Y22.9249
G01 X18.8393 Y22.9493
G01 X18.8529 Y23.0405
G01 X18.8571 Y23.0647
G01 X18.8624 Y23.0886
G01 X18.8849 Y23.1781
G01 X18.8914 Y23.2018
G01 X18.8991 Y23.2251
G01 X18.9302 Y23.3119
G01 X18.9390 Y23.3348
G01 X18.9489 Y23.3572
G01 X18.9884 Y23.4406
G01 X18.9994 Y23.4625
G01 X19.0115 Y23.4839
G01 X19.0589 Y23.5630
G01 X19.0721 Y23.5837
G01 X19.0862 Y23.6038
G01 X19.1411 Y23.6779
G01 X19.1562 Y23.6972
G01 X19.1723 Y23.7158
G01 X19.2342 Y23.7841
G01 X19.2511 Y23.8019
G01 X19.2689 Y23.8188
G01 X19.3372 Y23.8807
G01 X19.3558 Y23.8968
G01 X19.3751 Y23.9119
G01 X19.4492 Y23.9668
G01 X19.4693 Y23.9809
G01 X19.4900 Y23.9941
G01 X19.5691 Y24.0415
G01 X19.5909 Y24.0538
G01 X19.5691 Y24.0661
G01 X19.4900 Y24.1135
G01 X19.4693 Y24.1267
G01 X19.4492 Y24.1408
G01 X19.3751 Y24.1957
G01 X19.3558 Y24.2108
G01 X19.3372 Y24.2269
G01 X19.2689 Y24.2888
G01 X19.2511 Y24.3057
G01 X19.2342 Y24.3235
G01 X19.1723 Y24.3918
G01 X19.1562 Y24.4104
G01 X19.1411 Y24.4297
G01 X19.0862 Y24.5038
G01 X19.0721 Y24.5239
G01 X19.0589 Y24.5446
G01 X19.0115 Y24.6237
G01 X18.9994 Y24.6451
G01 X18.9884 Y24.6670
G01 X18.9489 Y24.7504
G01 X18.9390 Y24.7728
G01 X18.9302 Y24.7957
G01 X18.8991 Y24.8825
G01 X18.8914 Y24.9058
G01 X18.8849 Y24.9295
G01 X18.8624 Y25.0190
G01 X18.8596 Y25.0309
G01 X18.8548 Y25.0550
G01 X18.8377 Y25.1705
G01 X18.8353 Y25.1949
G01 X18.8345 Y25.2071
G01 X18.8300 Y25.2993
G01 X18.8294 Y25.3238
G01 X18.8300 Y25.3483
G01 X18.8345 Y25.4405
G01 X18.8363 Y25.4649
G01 X18.8393 Y25.4893
G01 X18.8529 Y25.5805
G01 X18.8571 Y25.6047
G01 X18.8624 Y25.6286
G01 X18.8849 Y25.7181
G01 X18.8914 Y25.7418
G01 X18.8991 Y25.7651
G01 X18.9302 Y25.8519
G01 X18.9390 Y25.8748
G01 X18.9489 Y25.8972
G01 X18.9884 Y25.9806
G01 X18.9994 Y26.0025
G01 X19.0115 Y26.0239
G01 X19.0589 Y26.1030
G01 X19.0721 Y26.1237
G01 X19.0862 Y26.1438
G01 X19.1411 Y26.2179
G01 X19.1593 Y26.2409
G01 X19.1593 Y29.4673
G01 X19.1464 Y29.4823
G01 X19.1313 Y29.5017
G01 X19.0756 Y29.5768
G01 X19.0615 Y29.5968
G01 X19.0484 Y29.6176
G01 X19.0003 Y29.6977
G01 X18.9882 Y29.7191
G01 X18.9772 Y29.7410
G01 X18.9372 Y29.8255
G01 X18.9273 Y29.8480
G01 X18.9184 Y29.8709
G01 X18.8869 Y29.9589
G01 X18.8792 Y29.9822
G01 X18.8727 Y30.0058
G01 X18.8472 Y30.1084
G01 X18.8446 Y30.1204
G01 X18.8404 Y30.1446
G01 X18.8267 Y30.2371
G01 X18.8237 Y30.2614
G01 X18.8219 Y30.2859
G01 X18.8173 Y30.3793
G01 X18.8167 Y30.4038
G01 X18.8173 Y30.4283
G01 X18.8219 Y30.5217
G01 X18.8237 Y30.5462
G01 X18.8267 Y30.5705
G01 X18.8404 Y30.6630
G01 X18.8446 Y30.6872
G01 X18.8500 Y30.7111
G01 X18.8727 Y30.8018
G01 X18.8792 Y30.8254
G01 X18.8869 Y30.8487
G01 X18.9184 Y30.9367
G01 X18.9273 Y30.9596
G01 X18.9372 Y30.9821
G01 X18.9772 Y31.0666
G01 X18.9882 Y31.0885
G01 X19.0003 Y31.1099
G01 X19.0484 Y31.1900
G01 X19.0548 Y31.2005
G01 X19.0684 Y31.2209
G01 X19.1313 Y31.3059
G01 X19.1464 Y31.3253
G01 X19.1624 Y31.3438
G01 X19.2252 Y31.4131
G01 X19.2421 Y31.4309
G01 X19.2599 Y31.4478
G01 X19.3292 Y31.5106
G01 X19.3477 Y31.5266
G01 X19.3671 Y31.5417
G01 X19.4422 Y31.5974
G01 X19.4622 Y31.6115
G01 X19.4830 Y31.6246
G01 X19.5631 Y31.6727
G01 X19.5737 Y31.6789
G01 X19.5954 Y31.6904
G01 X19.6909 Y31.7358
G01 X19.7134 Y31.7457
G01 X19.7363 Y31.7546
G01 X19.8243 Y31.7861
G01 X19.8476 Y31.7938
G01 X19.8712 Y31.8003
G01 X19.9619 Y31.8230
G01 X19.9858 Y31.8284
G01 X20.0100 Y31.8326
G01 X20.1025 Y31.8463
G01 X20.1268 Y31.8493
G01 X20.1513 Y31.8511
G01 X20.2447 Y31.8557
G01 X20.2692 Y31.8563
G01 X20.2937 Y31.8557
G01 X20.3871 Y31.8511
G01 X20.4116 Y31.8493
G01 X20.4359 Y31.8463
G01 X20.5284 Y31.8326
G01 X20.5526 Y31.8284
G01 X20.5765 Y31.8230
G01 X20.6791 Y31.7972
G01 X20.6908 Y31.7938
G01 X20.7141 Y31.7861
G01 X20.8021 Y31.7546
G01 X20.8250 Y31.7457
G01 X20.8475 Y31.7358
G01 X20.9320 Y31.6958
G01 X20.9539 Y31.6848
G01 X20.9753 Y31.6727
G01 X21.0554 Y31.6246
G01 X21.0762 Y31.6115
G01 X21.0962 Y31.5974
G01 X21.1713 Y31.5417
G01 X21.1907 Y31.5266
G01 X21.2092 Y31.5106
G01 X21.2785 Y31.4478
G01 X21.2963 Y31.4309
G01 X21.3132 Y31.4131
G01 X21.3760 Y31.3438
G01 X21.3920 Y31.3253
G01 X21.4071 Y31.3059
G01 X21.4628 Y31.2308
G01 X21.4769 Y31.2108
G01 X21.4900 Y31.1900
G01 X21.5381 Y31.1099
G01 X21.5443 Y31.0993
G01 X21.5558 Y31.0776
G01 X21.6063 Y30.9709
G01 X21.6157 Y30.9483
G01 X21.6200 Y30.9367
G01 X21.6515 Y30.8487
G01 X21.6592 Y30.8254
G01 X21.6626 Y30.8137
G01 X21.6884 Y30.7111
G01 X21.6938 Y30.6872
G01 X21.6993 Y30.6541
G01 X21.6993 Y31.8593
G01 X16.3369 Y31.8593
G01 X16.3367 Y22.7588
G01 X16.3363 Y22.7466
G01 X16.3345 Y22.7221
G01 X16.3315 Y22.6977
G01 X16.3273 Y22.6736
G01 X16.3219 Y22.6496
G01 X16.3154 Y22.6260
G01 X16.3114 Y22.6136
G01 X16.3109 Y22.5942
G01 X16.3101 Y22.5819
G01 X16.3091 Y22.5697
G01 X16.3061 Y22.5453
G01 X16.3019 Y22.5212
G01 X16.2965 Y22.4972
G01 X16.2934 Y22.4854
G01 X16.2863 Y22.4619
G01 X16.2823 Y22.4503
G01 X16.2716 Y22.4231
G01 X16.2680 Y22.4092
G01 X16.2609 Y22.3857
G01 X16.2569 Y22.3741
G01 X16.2480 Y22.3512
G01 X16.2381 Y22.3287
G01 X16.2327 Y22.3177
G01 X16.2198 Y22.2938
G01 X16.2073 Y22.2669
G01 X16.1944 Y22.2430
G01 X16.1873 Y22.2271
G01 X16.1763 Y22.2052
G01 X16.1703 Y22.1945
G01 X16.1577 Y22.1734
G01 X16.1441 Y22.1530
G01 X16.1295 Y22.1333
G01 X16.1218 Y22.1237
G01 X16.1139 Y22.1143
G01 X16.0974 Y22.0961
G01 X15.9277 Y21.9264
G01 X15.9095 Y21.9099
G01 X15.9001 Y21.9020
G01 X15.8808 Y21.8869
G01 X15.8607 Y21.8728
G01 X15.8400 Y21.8596
G01 X15.8186 Y21.8475
G01 X15.7967 Y21.8365
G01 X15.7809 Y21.8294
G01 X15.7669 Y21.8217
G01 X15.7486 Y21.8109
G01 X15.7269 Y21.7993
G01 X15.6563 Y21.7658
G01 X15.6279 Y21.7529
G01 X15.6169 Y21.7483
G01 X15.5945 Y21.7400
G01 X15.5718 Y21.7327
G01 X15.5601 Y21.7294
G01 X15.5100 Y21.7118
G01 X15.4867 Y21.7048
G01 X15.4631 Y21.6989
G01 X15.4511 Y21.6964
G01 X15.4392 Y21.6942
G01 X15.4151 Y21.6906
G01 X15.3863 Y21.6880
G01 X15.3356 Y21.6806
G01 X15.3112 Y21.6782
G01 X15.2391 Y21.6745
G01 X15.2146 Y21.6739
G01 X11.0517 Y21.6739
G01 X11.0287 Y21.6557
G01 X10.9546 Y21.6008
G01 X10.9345 Y21.5867
G01 X10.9138 Y21.5735
G01 X10.8347 Y21.5261
G01 X10.8129 Y21.5138
G01 X10.8347 Y21.5015
G01 X10.9138 Y21.4541
G01 X10.9345 Y21.4409
G01 X10.9546 Y21.4268
G01 X11.0287 Y21.3719
G01 X11.0384 Y21.3644
G01 X11.0544 Y21.3514
G01 X15.2146 Y21.3283
G01 X19.3494 Y21.3514
G01 X19.3654 Y21.3644
G01 X19.3751 Y21.3719
G01 X19.4492 Y21.4268
G01 X19.4693 Y21.4409
G01 X19.4900 Y21.4541
G01 X19.5691 Y21.5015
G01 X19.5909 Y21.5138
G00 Z2.0000
G00 X20.9475 Y24.0538
G01 F60.00
G01 Z-0.0500
G01 F80.00
G01 X20.9693 Y24.0415
G01 X21.0484 Y23.9941
G01 X21.0691 Y23.9809
G01 X21.0892 Y23.9668
G01 X21.1633 Y23.9119
G01 X21.1863 Y23.8937
G01 X24.2280 Y23.8937
G01 X24.2324 Y24.2379
G01 X24.1528 Y24.3260
G01 X24.1449 Y24.3354
G01 X24.1298 Y24.3548
G01 X24.0679 Y24.4382
G01 X24.0538 Y24.4582
G01 X24.0406 Y24.4790
G01 X23.9873 Y24.5680
G01 X23.9752 Y24.5894
G01 X23.9641 Y24.6113
G01 X23.9197 Y24.7051
G01 X23.9098 Y24.7276
G01 X23.9010 Y24.7505
G01 X23.8660 Y24.8482
G01 X23.8583 Y24.8715
G01 X23.8549 Y24.8833
G01 X23.8265 Y24.9959
G01 X23.8211 Y25.0199
G01 X23.8169 Y25.0440
G01 X23.8017 Y25.1467
G01 X23.7987 Y25.1711
G01 X23.7969 Y25.1956
G01 X23.7918 Y25.2993
G01 X23.7912 Y25.3238
G01 X23.7918 Y25.3483
G01 X23.7977 Y25.4643
G01 X23.8001 Y25.4887
G01 X23.8017 Y25.5009
G01 X23.8169 Y25.6036
G01 X23.8211 Y25.6278
G01 X23.8265 Y25.6517
G01 X23.8517 Y25.7524
G01 X23.8583 Y25.7761
G01 X23.8660 Y25.7994
G01 X23.9010 Y25.8971
G01 X23.9098 Y25.9200
G01 X23.9197 Y25.9425
G01 X23.9641 Y26.0363
G01 X23.9695 Y26.0473
G01 X23.9811 Y26.0690
G01 X24.0406 Y26.1686
G01 X24.0471 Y26.1791
G01 X24.0607 Y26.1995
G01 X24.1372 Y26.3026
G01 X24.1449 Y26.3122
G01 X24.1609 Y26.3308
G01 X24.2390 Y26.4167
G01 X24.2563 Y26.4340
G01 X24.2653 Y26.4424
G01 X24.3422 Y26.5121
G01 X24.3608 Y26.5281
G01 X24.3802 Y26.5432
G01 X24.4483 Y26.5938
G01 X24.3802 Y26.6444
G01 X24.3608 Y26.6595
G01 X24.3422 Y26.6755
G01 X24.2653 Y26.7452
G01 X24.2475 Y26.7621
G01 X24.2390 Y26.7709
G01 X24.1528 Y26.8660
G01 X24.1449 Y26.8754
G01 X24.1298 Y26.8948
G01 X24.0679 Y26.9782
G01 X24.0538 Y26.9982
G01 X24.0406 Y27.0190
G01 X23.9873 Y27.1080
G01 X23.9752 Y27.1294
G01 X23.9695 Y27.1403
G01 X23.9146 Y27.2563
G01 X23.9052 Y27.2790
G01 X23.9010 Y27.2905
G01 X23.8660 Y27.3882
G01 X23.8583 Y27.4115
G01 X23.8517 Y27.4352
G01 X23.8265 Y27.5359
G01 X23.8211 Y27.5599
G01 X23.8169 Y27.5840
G01 X23.8017 Y27.6867
G01 X23.7987 Y27.7111
G01 X23.7969 Y27.7356
G01 X23.7918 Y27.8393
G01 X23.7912 Y27.8638
G01 X23.7918 Y27.8883
G01 X23.7969 Y27.9920
G01 X23.7987 Y28.0165
G01 X23.8017 Y28.0409
G01 X23.8169 Y28.1436
G01 X23.8211 Y28.1678
G01 X23.8237 Y28.1798
G01 X23.8517 Y28.2924
G01 X23.8583 Y28.3161
G01 X23.8660 Y28.3394
G01 X23.9010 Y28.4371
G01 X23.9098 Y28.4600
G01 X23.9197 Y28.4825
G01 X23.9641 Y28.5763
G01 X23.9752 Y28.5982
G01 X23.9873 Y28.6196
G01 X24.0406 Y28.7086
G01 X24.0538 Y28.7294
G01 X24.0679 Y28.7494
G01 X24.1298 Y28.8328
G01 X24.1372 Y28.8426
G01 X24.1528 Y28.8616
G01 X24.2390 Y28.9567
G01 X24.2475 Y28.9655
G01 X24.2653 Y28.9824
G01 X24.3422 Y29.0521
G01 X24.3608 Y29.0681
G01 X24.3802 Y29.0832
G01 X24.4483 Y29.1338
G01 X24.3802 Y29.1844
G01 X24.3608 Y29.1995
G01 X24.3422 Y29.2155
G01 X24.2837 Y29.2685
G01 X22.8092 Y29.2685
G01 X22.7847 Y29.2691
G01 X22.7249 Y29.2720
G01 X22.7004 Y29.2738
G01 X22.6761 Y29.2768
G01 X22.6168 Y29.2856
G01 X22.5927 Y29.2898
G01 X22.5687 Y29.2952
G01 X22.5107 Y29.3097
G01 X22.4870 Y29.3163
G01 X22.4637 Y29.3240
G01 X22.3959 Y29.3484
G01 X22.3845 Y29.3530
G01 X22.3620 Y29.3629
G01 X22.2969 Y29.3939
G01 X22.2752 Y29.4055
G01 X22.2133 Y29.4424
G01 X22.1926 Y29.4555
G01 X22.1725 Y29.4697
G01 X22.1244 Y29.5053
G01 X22.1147 Y29.5128
G01 X22.0957 Y29.5283
G01 X22.0422 Y29.5767
G01 X22.0244 Y29.5936
G01 X22.0075 Y29.6114
G01 X21.9673 Y29.6557
G01 X21.9591 Y29.6649
G01 X21.9436 Y29.6839
G01 X21.8933 Y29.7517
G01 X21.8863 Y29.7618
G01 X21.8732 Y29.7825
G01 X21.8424 Y29.8338
G01 X21.8304 Y29.8552
G01 X21.8193 Y29.8771
G01 X21.7886 Y29.9424
G01 X21.7792 Y29.9651
G01 X21.7750 Y29.9766
G01 X21.7508 Y30.0445
G01 X21.7437 Y30.0680
G01 X21.7260 Y30.1379
G01 X21.7206 Y30.1619
G01 X21.7164 Y30.1860
G01 X21.7103 Y30.2275
G01 X21.6980 Y30.1446
G01 X21.6938 Y30.1204
G01 X21.6884 Y30.0965
G01 X21.6626 Y29.9939
G01 X21.6554 Y29.9705
G01 X21.6515 Y29.9589
G01 X21.6200 Y29.8709
G01 X21.6111 Y29.8480
G01 X21.6063 Y29.8367
G01 X21.5612 Y29.7410
G01 X21.5502 Y29.7191
G01 X21.5381 Y29.6977
G01 X21.4900 Y29.6176
G01 X21.4769 Y29.5968
G01 X21.4628 Y29.5768
G01 X21.3997 Y29.4919
G01 X21.3920 Y29.4823
G01 X21.3791 Y29.4673
G01 X21.3791 Y26.2409
G01 X21.3973 Y26.2179
G01 X21.4522 Y26.1438
G01 X21.4663 Y26.1237
G01 X21.4795 Y26.1030
G01 X21.5269 Y26.0239
G01 X21.5390 Y26.0025
G01 X21.5500 Y25.9806
G01 X21.5895 Y25.8972
G01 X21.5994 Y25.8748
G01 X21.6082 Y25.8519
G01 X21.6393 Y25.7651
G01 X21.6470 Y25.7418
G01 X21.6535 Y25.7181
G01 X21.6760 Y25.6286
G01 X21.6813 Y25.6047
G01 X21.6855 Y25.5805
G01 X21.6991 Y25.4893
G01 X21.7021 Y25.4649
G01 X21.7039 Y25.4405
G01 X21.7084 Y25.3483
G01 X21.7090 Y25.3238
G01 X21.7084 Y25.2993
G01 X21.7039 Y25.2071
G01 X21.7031 Y25.1949
G01 X21.7007 Y25.1705
G01 X21.6836 Y25.0550
G01 X21.6788 Y25.0309
G01 X21.6760 Y25.0190
G01 X21.6535 Y24.9295
G01 X21.6470 Y24.9058
G01 X21.6393 Y24.8825
G01 X21.6082 Y24.7957
G01 X21.5994 Y24.7728
G01 X21.5895 Y24.7504
G01 X21.5500 Y24.6670
G01 X21.5390 Y24.6451
G01 X21.5269 Y24.6237
G01 X21.4795 Y24.5446
G01 X21.4663 Y24.5239
G01 X21.4522 Y24.5038
G01 X21.3973 Y24.4297
G01 X21.3822 Y24.4104
G01 X21.3661 Y24.3918
G01 X21.3042 Y24.3235
G01 X21.2873 Y24.3057
G01 X21.2695 Y24.2888
G01 X21.2012 Y24.2269
G01 X21.1826 Y24.2108
G01 X21.1633 Y24.1957
G01 X21.0892 Y24.1408
G01 X21.0691 Y24.1267
G01 X21.0484 Y24.1135
G01 X20.9693 Y24.0661
G01 X20.9475 Y24.0538
G00 Z2.0000
G00 X26.2501 Y29.1338
G01 F60.00
G01 Z-0.0500
G01 F80.00
G01 X26.3182 Y29.0832
G01 X26.3376 Y29.0681
G01 X26.3562 Y29.0521
G01 X26.4290 Y28.9861
G01 X27.4409 Y28.9861
G01 X27.4597 Y29.0045
G01 X27.4721 Y29.0174
G01 X27.4851 Y29.0299
G01 X27.4975 Y29.0428
G01 X27.5105 Y29.0553
G01 X27.5229 Y29.0682
G01 X27.5359 Y29.0807
G01 X27.5483 Y29.0936
G01 X27.5613 Y29.1061
G01 X27.5737 Y29.1190
G01 X27.5867 Y29.1315
G01 X27.5991 Y29.1444
G01 X27.6121 Y29.1569
G01 X27.6245 Y29.1698
G01 X27.6375 Y29.1823
G01 X27.6499 Y29.1952
G01 X27.6629 Y29.2077
G01 X27.6753 Y29.2206
G01 X27.6883 Y29.2331
G01 X27.7007 Y29.2460
G01 X27.7137 Y29.2585
G01 X27.7261 Y29.2714
G01 X27.7391 Y29.2839
G01 X27.7515 Y29.2968
G01 X27.7645 Y29.3093
G01 X27.7769 Y29.3222
G01 X27.7899 Y29.3347
G01 X27.8023 Y29.3476
G01 X27.8153 Y29.3601
G01 X27.8365 Y29.3816
G01 X27.8547 Y29.3981
G01 X27.8641 Y29.4060
G01 X27.8834 Y29.4211
G01 X27.9035 Y29.4352
G01 X27.9138 Y29.4419
G01 X27.9346 Y29.4544
G01 X27.9423 Y29.4617
G01 X27.9547 Y29.4746
G01 X27.9677 Y29.4871
G01 X27.9801 Y29.5000
G01 X27.9931 Y29.5125
G01 X28.0055 Y29.5254
G01 X28.0185 Y29.5379
G01 X28.0309 Y29.5508
G01 X28.0439 Y29.5633
G01 X28.0563 Y29.5762
G01 X28.0693 Y29.5887
G01 X28.0817 Y29.6016
G01 X28.0947 Y29.6141
G01 X28.1071 Y29.6270
G01 X28.1201 Y29.6395
G01 X28.1325 Y29.6524
G01 X28.1455 Y29.6649
G01 X28.1579 Y29.6778
G01 X28.1709 Y29.6903
G01 X28.1833 Y29.7032
G01 X28.1963 Y29.7157
G01 X28.2087 Y29.7286
G01 X28.2217 Y29.7411
G01 X28.2341 Y29.7540
G01 X28.2471 Y29.7665
G01 X28.2595 Y29.7794
G01 X28.2725 Y29.7919
G01 X28.2849 Y29.8048
G01 X28.2979 Y29.8173
G01 X28.3103 Y29.8302
G01 X28.3233 Y29.8427
G01 X28.3357 Y29.8556
G01 X28.3487 Y29.8681
G01 X28.3611 Y29.8810
G01 X28.3741 Y29.8935
G01 X28.3865 Y29.9064
G01 X28.3995 Y29.9189
G01 X28.4119 Y29.9318
G01 X28.4249 Y29.9443
G01 X28.4373 Y29.9572
G01 X28.4503 Y29.9697
G01 X28.4627 Y29.9826
G01 X28.4757 Y29.9951
G01 X28.4881 Y30.0080
G01 X28.5011 Y30.0205
G01 X28.5135 Y30.0334
G01 X28.5265 Y30.0459
G01 X28.5389 Y30.0588
G01 X28.5519 Y30.0713
G01 X28.5731 Y30.0928
G01 X28.5913 Y30.1093
G01 X28.6103 Y30.1249
G01 X28.6200 Y30.1323
G01 X28.6401 Y30.1464
G01 X28.6504 Y30.1531
G01 X28.6712 Y30.1656
G01 X28.6789 Y30.1729
G01 X28.6913 Y30.1858
G01 X28.7043 Y30.1983
G01 X28.7167 Y30.2112
G01 X28.7297 Y30.2237
G01 X28.7421 Y30.2366
G01 X28.7551 Y30.2491
G01 X28.7675 Y30.2620
G01 X28.7805 Y30.2745
G01 X28.7929 Y30.2874
G01 X28.8059 Y30.2999
G01 X28.8183 Y30.3128
G01 X28.8313 Y30.3253
G01 X28.8437 Y30.3382
G01 X28.8567 Y30.3507
G01 X28.8712 Y30.3657
G01 X28.8567 Y30.3807
G01 X28.8438 Y30.3931
G01 X28.8313 Y30.4061
G01 X28.8184 Y30.4185
G01 X28.8059 Y30.4315
G01 X28.7930 Y30.4439
G01 X28.7805 Y30.4569
G01 X28.7676 Y30.4693
G01 X28.7551 Y30.4823
G01 X28.7422 Y30.4947
G01 X28.7297 Y30.5077
G01 X28.7168 Y30.5201
G01 X28.7043 Y30.5331
G01 X28.6914 Y30.5455
G01 X28.6789 Y30.5585
G01 X28.6660 Y30.5709
G01 X28.6535 Y30.5839
G01 X28.6406 Y30.5963
G01 X28.6281 Y30.6093
G01 X28.6152 Y30.6217
G01 X28.6027 Y30.6347
G01 X28.5898 Y30.6471
G01 X28.5773 Y30.6601
G01 X28.5644 Y30.6725
G01 X28.5519 Y30.6855
G01 X28.5390 Y30.6979
G01 X28.5265 Y30.7109
G01 X28.5136 Y30.7233
G01 X28.5011 Y30.7363
G01 X28.4882 Y30.7487
G01 X28.4757 Y30.7617
G01 X28.4628 Y30.7741
G01 X28.4503 Y30.7871
G01 X28.4374 Y30.7995
G01 X28.4249 Y30.8125
G01 X28.4120 Y30.8249
G01 X28.3995 Y30.8379
G01 X28.3866 Y30.8503
G01 X28.3741 Y30.8633
G01 X28.3612 Y30.8757
G01 X28.3487 Y30.8887
G01 X28.3358 Y30.9011
G01 X28.3233 Y30.9141
G01 X28.3104 Y30.9265
G01 X28.2979 Y30.9395
G01 X28.2850 Y30.9519
G01 X28.2725 Y30.9649
G01 X28.2596 Y30.9773
G01 X28.2471 Y30.9903
G01 X28.2342 Y31.0027
G01 X28.2217 Y31.0157
G01 X28.2088 Y31.0281
G01 X28.1963 Y31.0411
G01 X28.1834 Y31.0535
G01 X28.1709 Y31.0665
G01 X28.1580 Y31.0789
G01 X28.1455 Y31.0919
G01 X28.1326 Y31.1043
G01 X28.1201 Y31.1173
G01 X28.1072 Y31.1297
G01 X28.0947 Y31.1427
G01 X28.0818 Y31.1551
G01 X28.0693 Y31.1681
G01 X28.0564 Y31.1805
G01 X28.0439 Y31.1935
G01 X28.0310 Y31.2059
G01 X28.0185 Y31.2189
G01 X28.0056 Y31.2313
G01 X27.9931 Y31.2443
G01 X27.9802 Y31.2567
G01 X27.9677 Y31.2697
G01 X27.9548 Y31.2821
G01 X27.9423 Y31.2951
G01 X27.9294 Y31.3075
G01 X27.9169 Y31.3205
G01 X27.9040 Y31.3329
G01 X27.8915 Y31.3459
G01 X27.8786 Y31.3583
G01 X27.8661 Y31.3713
G01 X27.8532 Y31.3837
G01 X27.8407 Y31.3967
G01 X27.8278 Y31.4091
G01 X27.8153 Y31.4221
G01 X27.8024 Y31.4345
G01 X27.7899 Y31.4475
G01 X27.7770 Y31.4599
G01 X27.7645 Y31.4729
G01 X27.7516 Y31.4853
G01 X27.7391 Y31.4983
G01 X27.7262 Y31.5107
G01 X27.7137 Y31.5237
G01 X27.7008 Y31.5361
G01 X27.6883 Y31.5491
G01 X27.6754 Y31.5615
G01 X27.6629 Y31.5745
G01 X27.6500 Y31.5869
G01 X27.6375 Y31.5999
G01 X27.6246 Y31.6123
G01 X27.6121 Y31.6253
G01 X27.5992 Y31.6377
G01 X27.5867 Y31.6507
G01 X27.5738 Y31.6631
G01 X27.5613 Y31.6761
G01 X27.5484 Y31.6885
G01 X27.5359 Y31.7015
G01 X27.5230 Y31.7139
G01 X27.5105 Y31.7269
G01 X27.4976 Y31.7393
G01 X27.4851 Y31.7523
G01 X27.4722 Y31.7647
G01 X27.4597 Y31.7777
G01 X27.4468 Y31.7901
G01 X27.4343 Y31.8031
G01 X27.4155 Y31.8215
G01 X26.4290 Y31.8215
G01 X26.3562 Y31.7555
G01 X26.3376 Y31.7395
G01 X26.3182 Y31.7244
G01 X26.2501 Y31.6738
G01 X26.3182 Y31.6232
G01 X26.3376 Y31.6081
G01 X26.3562 Y31.5921
G01 X26.4331 Y31.5224
G01 X26.4509 Y31.5055
G01 X26.4594 Y31.4967
G01 X26.5456 Y31.4016
G01 X26.5535 Y31.3922
G01 X26.5686 Y31.3728
G01 X26.6305 Y31.2894
G01 X26.6446 Y31.2694
G01 X26.6578 Y31.2486
G01 X26.7111 Y31.1596
G01 X26.7173 Y31.1490
G01 X26.7289 Y31.1273
G01 X26.7838 Y31.0113
G01 X26.7886 Y31.0000
G01 X26.7974 Y30.9771
G01 X26.8324 Y30.8794
G01 X26.8401 Y30.8561
G01 X26.8467 Y30.8324
G01 X26.8719 Y30.7317
G01 X26.8773 Y30.7077
G01 X26.8815 Y30.6836
G01 X26.8967 Y30.5809
G01 X26.8997 Y30.5565
G01 X26.9015 Y30.5320
G01 X26.9066 Y30.4283
G01 X26.9072 Y30.4038
G01 X26.9066 Y30.3793
G01 X26.9015 Y30.2756
G01 X26.8997 Y30.2511
G01 X26.8967 Y30.2267
G01 X26.8815 Y30.1240
G01 X26.8773 Y30.0998
G01 X26.8719 Y30.0759
G01 X26.8467 Y29.9752
G01 X26.8401 Y29.9515
G01 X26.8324 Y29.9282
G01 X26.7974 Y29.8305
G01 X26.7932 Y29.8190
G01 X26.7838 Y29.7963
G01 X26.7289 Y29.6803
G01 X26.7232 Y29.6694
G01 X26.7111 Y29.6480
G01 X26.6578 Y29.5590
G01 X26.6446 Y29.5382
G01 X26.6305 Y29.5182
G01 X26.5686 Y29.4348
G01 X26.5535 Y29.4154
G01 X26.5456 Y29.4060
G01 X26.4594 Y29.3109
G01 X26.4509 Y29.3021
G01 X26.4331 Y29.2852
G01 X26.3562 Y29.2155
G01 X26.3376 Y29.1995
G01 X26.3182 Y29.1844
G01 X26.2501 Y29.1338
G00 Z2.0000
G00 X24.4483 Y31.6738
G01 F60.00
G01 Z-0.0500
G01 F80.00
G01 X24.3802 Y31.7244
G01 X24.3608 Y31.7395
G01 X24.3422 Y31.7555
G01 X24.2653 Y31.8252
G01 X24.2475 Y31.8421
G01 X24.2306 Y31.8599
G01 X24.1609 Y31.9368
G01 X24.1449 Y31.9554
G01 X24.1298 Y31.9748
G01 X24.0679 Y32.0582
G01 X24.0538 Y32.0782
G01 X24.0406 Y32.0990
G01 X23.9873 Y32.1880
G01 X23.9752 Y32.2094
G01 X23.9641 Y32.2313
G01 X23.9191 Y32.3265
G01 X23.9191 Y31.4883
G01 X24.2312 Y31.4883
G01 X24.2475 Y31.5055
G01 X24.2563 Y31.5140
G01 X24.3514 Y31.6002
G01 X24.3608 Y31.6081
G01 X24.3802 Y31.6232
G01 X24.4483 Y31.6738
G00 Z2.0000
G00 X26.2501 Y34.2138
G01 F60.00
G01 Z-0.0500
G01 F80.00
G01 X26.3182 Y34.1632
G01 X26.3376 Y34.1481
G01 X26.3470 Y34.1402
G01 X26.4331 Y34.0624
G01 X26.4555 Y34.0407
G01 X27.9527 Y34.0407
G01 X27.9772 Y34.0401
G01 X27.9895 Y34.0393
G01 X28.0139 Y34.0369
G01 X28.0382 Y34.0333
G01 X28.0502 Y34.0311
G01 X28.0742 Y34.0257
G01 X28.0860 Y34.0226
G01 X28.1134 Y34.0141
G01 X28.1409 Y34.0115
G01 X28.1652 Y34.0079
G01 X28.1892 Y34.0032
G01 X28.2130 Y33.9972
G01 X28.2248 Y33.9938
G01 X28.2481 Y33.9861
G01 X28.2753 Y33.9754
G01 X28.3010 Y33.9684
G01 X28.3243 Y33.9607
G01 X28.3358 Y33.9564
G01 X28.3585 Y33.9470
G01 X28.3807 Y33.9365
G01 X28.4023 Y33.9249
G01 X28.4129 Y33.9188
G01 X28.4337 Y33.9056
G01 X28.4438 Y33.8987
G01 X28.4537 Y33.8915
G01 X28.4701 Y33.8788
G01 X28.4891 Y33.8680
G01 X28.5099 Y33.8548
G01 X28.5299 Y33.8407
G01 X28.5463 Y33.8280
G01 X28.5653 Y33.8172
G01 X28.5758 Y33.8107
G01 X28.5962 Y33.7971
G01 X28.6159 Y33.7825
G01 X28.6255 Y33.7748
G01 X28.6349 Y33.7669
G01 X28.6530 Y33.7504
G01 X28.6743 Y33.7289
G01 X28.6872 Y33.7165
G01 X28.6997 Y33.7035
G01 X28.7126 Y33.6911
G01 X28.7251 Y33.6781
G01 X28.7380 Y33.6657
G01 X28.7505 Y33.6527
G01 X28.7634 Y33.6403
G01 X28.7759 Y33.6273
G01 X28.7888 Y33.6149
G01 X28.8013 Y33.6019
G01 X28.8142 Y33.5895
G01 X28.8267 Y33.5765
G01 X28.8396 Y33.5641
G01 X28.8521 Y33.5511
G01 X28.8650 Y33.5387
G01 X28.8775 Y33.5257
G01 X28.8904 Y33.5133
G01 X28.9029 Y33.5003
G01 X28.9158 Y33.4879
G01 X28.9283 Y33.4749
G01 X28.9412 Y33.4625
G01 X28.9537 Y33.4495
G01 X28.9666 Y33.4371
G01 X28.9791 Y33.4241
G01 X28.9920 Y33.4117
G01 X29.0045 Y33.3987
G01 X29.0174 Y33.3863
G01 X29.0299 Y33.3733
G01 X29.0428 Y33.3609
G01 X29.0553 Y33.3479
G01 X29.0682 Y33.3355
G01 X29.0807 Y33.3225
G01 X29.0936 Y33.3101
G01 X29.1061 Y33.2971
G01 X29.1190 Y33.2847
G01 X29.1315 Y33.2717
G01 X29.1444 Y33.2593
G01 X29.1569 Y33.2463
G01 X29.1698 Y33.2339
G01 X29.1823 Y33.2209
G01 X29.1952 Y33.2085
G01 X29.2077 Y33.1955
G01 X29.2206 Y33.1831
G01 X29.2331 Y33.1701
G01 X29.2460 Y33.1577
G01 X29.2585 Y33.1447
G01 X29.2714 Y33.1323
G01 X29.2839 Y33.1193
G01 X29.2968 Y33.1069
G01 X29.3093 Y33.0939
G01 X29.3222 Y33.0815
G01 X29.3347 Y33.0685
G01 X29.3476 Y33.0561
G01 X29.3601 Y33.0431
G01 X29.3730 Y33.0307
G01 X29.3855 Y33.0177
G01 X29.3984 Y33.0053
G01 X29.4109 Y32.9923
G01 X29.4238 Y32.9799
G01 X29.4363 Y32.9669
G01 X29.4492 Y32.9545
G01 X29.4617 Y32.9415
G01 X29.4746 Y32.9291
G01 X29.4871 Y32.9161
G01 X29.5000 Y32.9037
G01 X29.5125 Y32.8907
G01 X29.5254 Y32.8783
G01 X29.5379 Y32.8653
G01 X29.5508 Y32.8529
G01 X29.5633 Y32.8399
G01 X29.5762 Y32.8275
G01 X29.5887 Y32.8145
G01 X29.6016 Y32.8021
G01 X29.6141 Y32.7891
G01 X29.6270 Y32.7767
G01 X29.6395 Y32.7637
G01 X29.6524 Y32.7513
G01 X29.6649 Y32.7383
G01 X29.6778 Y32.7259
G01 X29.6903 Y32.7129
G01 X29.7032 Y32.7005
G01 X29.7157 Y32.6875
G01 X29.7286 Y32.6751
G01 X29.7411 Y32.6621
G01 X29.7540 Y32.6497
G01 X29.7665 Y32.6367
G01 X29.7794 Y32.6243
G01 X29.7919 Y32.6113
G01 X29.8048 Y32.5989
G01 X29.8173 Y32.5859
G01 X29.8302 Y32.5735
G01 X29.8427 Y32.5605
G01 X29.8556 Y32.5481
G01 X29.8681 Y32.5351
G01 X29.8810 Y32.5227
G01 X29.8935 Y32.5097
G01 X29.9064 Y32.4973
G01 X29.9189 Y32.4843
G01 X29.9318 Y32.4719
G01 X29.9443 Y32.4589
G01 X29.9572 Y32.4465
G01 X29.9697 Y32.4335
G01 X29.9826 Y32.4211
G01 X29.9951 Y32.4081
G01 X30.0080 Y32.3957
G01 X30.0205 Y32.3827
G01 X30.0334 Y32.3703
G01 X30.0459 Y32.3573
G01 X30.0588 Y32.3449
G01 X30.0713 Y32.3319
G01 X30.0842 Y32.3195
G01 X30.0967 Y32.3065
G01 X30.1096 Y32.2941
G01 X30.1221 Y32.2811
G01 X30.1350 Y32.2687
G01 X30.1475 Y32.2557
G01 X30.1604 Y32.2433
G01 X30.1729 Y32.2303
G01 X30.1858 Y32.2179
G01 X30.1983 Y32.2049
G01 X30.2112 Y32.1925
G01 X30.2237 Y32.1795
G01 X30.2366 Y32.1671
G01 X30.2491 Y32.1541
G01 X30.2620 Y32.1417
G01 X30.2745 Y32.1287
G01 X30.2874 Y32.1163
G01 X30.2999 Y32.1033
G01 X30.3128 Y32.0909
G01 X30.3253 Y32.0779
G01 X30.3382 Y32.0655
G01 X30.3507 Y32.0525
G01 X30.3636 Y32.0401
G01 X30.3761 Y32.0271
G01 X30.3890 Y32.0147
G01 X30.4015 Y32.0017
G01 X30.4144 Y31.9893
G01 X30.4269 Y31.9763
G01 X30.4398 Y31.9639
G01 X30.4523 Y31.9509
G01 X30.4652 Y31.9385
G01 X30.4777 Y31.9255
G01 X30.4906 Y31.9131
G01 X30.5031 Y31.9001
G01 X30.5160 Y31.8877
G01 X30.5285 Y31.8747
G01 X30.5414 Y31.8623
G01 X30.5539 Y31.8493
G01 X30.5668 Y31.8369
G01 X30.5793 Y31.8239
G01 X30.5922 Y31.8115
G01 X30.6047 Y31.7985
G01 X30.6176 Y31.7861
G01 X30.6301 Y31.7731
G01 X30.6430 Y31.7607
G01 X30.6555 Y31.7477
G01 X30.6684 Y31.7353
G01 X30.6809 Y31.7223
G01 X30.6938 Y31.7099
G01 X30.7063 Y31.6969
G01 X30.7192 Y31.6845
G01 X30.7317 Y31.6715
G01 X30.7446 Y31.6591
G01 X30.7571 Y31.6461
G01 X30.7700 Y31.6337
G01 X30.7825 Y31.6207
G01 X30.7954 Y31.6083
G01 X30.8079 Y31.5953
G01 X30.8208 Y31.5829
G01 X30.8333 Y31.5699
G01 X30.8462 Y31.5575
G01 X30.8587 Y31.5445
G01 X30.8716 Y31.5321
G01 X30.8841 Y31.5191
G01 X30.8970 Y31.5067
G01 X30.9095 Y31.4937
G01 X30.9224 Y31.4813
G01 X30.9340 Y31.4692
G01 X31.8446 Y31.4810
G01 X31.8590 Y31.4967
G01 X31.8763 Y31.5140
G01 X31.9714 Y31.6002
G01 X31.9808 Y31.6081
G01 X32.0002 Y31.6232
G01 X32.0683 Y31.6738
G01 X32.0002 Y31.7244
G01 X31.9808 Y31.7395
G01 X31.9622 Y31.7555
G01 X31.8853 Y31.8252
G01 X31.8675 Y31.8421
G01 X31.8590 Y31.8509
G01 X31.7728 Y31.9460
G01 X31.7649 Y31.9554
G01 X31.7498 Y31.9748
G01 X31.6879 Y32.0582
G01 X31.6738 Y32.0782
G01 X31.6606 Y32.0990
G01 X31.6073 Y32.1880
G01 X31.5952 Y32.2094
G01 X31.5841 Y32.2313
G01 X31.5397 Y32.3251
G01 X31.5298 Y32.3476
G01 X31.5210 Y32.3705
G01 X31.4860 Y32.4682
G01 X31.4783 Y32.4915
G01 X31.4717 Y32.5152
G01 X31.4437 Y32.6278
G01 X31.4411 Y32.6399
G01 X31.4369 Y32.6640
G01 X31.4217 Y32.7667
G01 X31.4187 Y32.7911
G01 X31.4169 Y32.8156
G01 X31.4118 Y32.9193
G01 X31.4112 Y32.9438
G01 X31.4118 Y32.9683
G01 X31.4169 Y33.0720
G01 X31.4187 Y33.0965
G01 X31.4217 Y33.1209
G01 X31.4369 Y33.2236
G01 X31.4411 Y33.2478
G01 X31.4465 Y33.2717
G01 X31.4717 Y33.3724
G01 X31.4783 Y33.3961
G01 X31.4860 Y33.4194
G01 X31.5210 Y33.5171
G01 X31.5252 Y33.5286
G01 X31.5346 Y33.5513
G01 X31.5895 Y33.6673
G01 X31.6011 Y33.6890
G01 X31.6073 Y33.6996
G01 X31.6606 Y33.7886
G01 X31.6738 Y33.8094
G01 X31.6879 Y33.8294
G01 X31.7498 Y33.9128
G01 X31.7572 Y33.9226
G01 X31.7728 Y33.9416
G01 X31.8590 Y34.0367
G01 X31.8675 Y34.0455
G01 X31.8853 Y34.0624
G01 X31.9622 Y34.1321
G01 X31.9808 Y34.1481
G01 X32.0002 Y34.1632
G01 X32.0683 Y34.2138
G01 X32.0002 Y34.2644
G01 X31.9808 Y34.2795
G01 X31.9622 Y34.2955
G01 X31.8853 Y34.3652
G01 X31.8675 Y34.3821
G01 X31.8590 Y34.3909
G01 X31.7728 Y34.4860
G01 X31.7572 Y34.5050
G01 X31.7498 Y34.5148
G01 X31.6879 Y34.5982
G01 X31.6738 Y34.6182
G01 X31.6606 Y34.6390
G01 X31.6073 Y34.7280
G01 X31.5952 Y34.7494
G01 X31.5841 Y34.7713
G01 X31.5397 Y34.8651
G01 X31.5298 Y34.8876
G01 X31.5210 Y34.9105
G01 X31.4860 Y35.0082
G01 X31.4783 Y35.0315
G01 X31.4717 Y35.0552
G01 X31.4437 Y35.1678
G01 X31.4411 Y35.1799
G01 X31.4369 Y35.2040
G01 X31.4217 Y35.3067
G01 X31.4187 Y35.3311
G01 X31.4169 Y35.3556
G01 X31.4118 Y35.4593
G01 X31.4112 Y35.4838
G01 X31.4118 Y35.5083
G01 X31.4169 Y35.6120
G01 X31.4187 Y35.6365
G01 X31.4217 Y35.6609
G01 X31.4369 Y35.7636
G01 X31.4411 Y35.7878
G01 X31.4465 Y35.8117
G01 X31.4717 Y35.9124
G01 X31.4783 Y35.9361
G01 X31.4860 Y35.9594
G01 X31.5210 Y36.0571
G01 X31.5298 Y36.0800
G01 X31.5346 Y36.0913
G01 X31.5895 Y36.2073
G01 X31.5952 Y36.2182
G01 X31.6073 Y36.2396
G01 X31.6606 Y36.3286
G01 X31.6738 Y36.3494
G01 X31.6879 Y36.3694
G01 X31.7498 Y36.4528
G01 X31.7649 Y36.4722
G01 X31.7728 Y36.4816
G01 X31.8590 Y36.5767
G01 X31.8763 Y36.5940
G01 X31.8853 Y36.6024
G01 X31.9622 Y36.6721
G01 X31.9808 Y36.6881
G01 X32.0002 Y36.7032
G01 X32.0683 Y36.7538
G01 X32.0002 Y36.8044
G01 X31.9808 Y36.8195
G01 X31.9622 Y36.8355
G01 X31.8853 Y36.9052
G01 X31.8763 Y36.9136
G01 X31.8590 Y36.9309
G01 X31.7809 Y37.0168
G01 X31.7649 Y37.0354
G01 X31.7572 Y37.0450
G01 X31.6807 Y37.1481
G01 X31.6738 Y37.1582
G01 X31.6606 Y37.1790
G01 X31.6011 Y37.2786
G01 X31.5952 Y37.2894
G01 X31.5841 Y37.3113
G01 X31.5397 Y37.4051
G01 X31.5298 Y37.4276
G01 X31.5210 Y37.4505
G01 X31.4860 Y37.5482
G01 X31.4783 Y37.5715
G01 X31.4717 Y37.5952
G01 X31.4465 Y37.6959
G01 X31.4411 Y37.7199
G01 X31.4369 Y37.7440
G01 X31.4217 Y37.8467
G01 X31.4187 Y37.8711
G01 X31.4177 Y37.8833
G01 X31.4118 Y37.9993
G01 X31.4112 Y38.0238
G01 X31.4118 Y38.0483
G01 X31.4169 Y38.1520
G01 X31.4187 Y38.1765
G01 X31.4217 Y38.2009
G01 X31.4369 Y38.3036
G01 X31.4411 Y38.3278
G01 X31.4465 Y38.3517
G01 X31.4717 Y38.4524
G01 X31.4783 Y38.4761
G01 X31.4860 Y38.4994
G01 X31.5210 Y38.5971
G01 X31.5298 Y38.6200
G01 X31.5397 Y38.6425
G01 X31.5841 Y38.7363
G01 X31.5952 Y38.7582
G01 X31.6073 Y38.7796
G01 X31.6606 Y38.8686
G01 X31.6738 Y38.8894
G01 X31.6879 Y38.9094
G01 X31.7498 Y38.9928
G01 X31.7649 Y39.0122
G01 X31.7754 Y39.0246
G01 X31.7544 Y39.0310
G01 X31.7428 Y39.0350
G01 X31.7313 Y39.0393
G01 X31.7086 Y39.0487
G01 X31.6974 Y39.0538
G01 X31.6755 Y39.0648
G01 X31.6648 Y39.0708
G01 X31.6437 Y39.0834
G01 X31.6334 Y39.0901
G01 X31.6134 Y39.1042
G01 X31.5940 Y39.1193
G01 X31.5846 Y39.1272
G01 X31.5754 Y39.1353
G01 X31.5577 Y39.1523
G01 X31.5407 Y39.1700
G01 X31.5326 Y39.1792
G01 X31.5170 Y39.1982
G01 X31.5096 Y39.2080
G01 X31.4955 Y39.2280
G01 X31.4888 Y39.2383
G01 X31.4762 Y39.2594
G01 X31.4702 Y39.2701
G01 X31.4592 Y39.2920
G01 X31.4493 Y39.3145
G01 X31.4447 Y39.3259
G01 X31.4404 Y39.3374
G01 X31.4327 Y39.3607
G01 X31.4262 Y39.3843
G01 X31.4234 Y39.3963
G01 X31.4186 Y39.4203
G01 X31.4166 Y39.4324
G01 X31.4136 Y39.4568
G01 X31.4126 Y39.4690
G01 X31.4118 Y39.4813
G01 X31.4112 Y39.5058
G01 X31.4112 Y41.6218
G01 X31.4118 Y41.6463
G01 X31.4136 Y41.6708
G01 X31.4166 Y41.6952
G01 X31.4186 Y41.7073
G01 X31.4234 Y41.7313
G01 X31.4293 Y41.7552
G01 X31.4364 Y41.7786
G01 X31.4447 Y41.8017
G01 X31.4493 Y41.8131
G01 X31.4592 Y41.8356
G01 X31.4702 Y41.8575
G01 X31.4823 Y41.8788
G01 X31.4955 Y41.8996
G01 X31.5024 Y41.9097
G01 X31.5096 Y41.9196
G01 X31.5247 Y41.9390
G01 X31.5407 Y41.9576
G01 X31.5576 Y41.9753
G01 X31.5754 Y41.9923
G01 X31.5940 Y42.0083
G01 X31.6134 Y42.0234
G01 X31.6233 Y42.0306
G01 X31.6437 Y42.0442
G01 X31.6648 Y42.0568
G01 X31.6755 Y42.0628
G01 X31.6974 Y42.0738
G01 X31.7199 Y42.0837
G01 X31.7313 Y42.0883
G01 X31.7544 Y42.0966
G01 X31.7778 Y42.1037
G01 X31.8017 Y42.1096
G01 X31.8137 Y42.1122
G01 X31.8378 Y42.1164
G01 X31.8593 Y42.1191
G01 X31.8593 Y44.7073
G01 X31.8464 Y44.7223
G01 X31.8387 Y44.7319
G01 X31.7684 Y44.8267
G01 X31.7615 Y44.8368
G01 X31.7484 Y44.8576
G01 X31.7003 Y44.9377
G01 X31.6882 Y44.9591
G01 X31.6826 Y44.9700
G01 X31.6372 Y45.0655
G01 X31.6273 Y45.0880
G01 X31.6184 Y45.1109
G01 X31.5869 Y45.1989
G01 X31.5792 Y45.2222
G01 X31.5727 Y45.2458
G01 X31.5500 Y45.3365
G01 X31.5446 Y45.3604
G01 X31.5404 Y45.3846
G01 X31.5267 Y45.4771
G01 X31.5237 Y45.5014
G01 X31.5219 Y45.5259
G01 X31.5173 Y45.6193
G01 X31.5167 Y45.6438
G01 X31.5169 Y45.6561
G01 X31.5219 Y45.7617
G01 X31.5237 Y45.7862
G01 X31.5267 Y45.8105
G01 X31.5404 Y45.9030
G01 X31.5446 Y45.9272
G01 X31.5500 Y45.9511
G01 X31.5727 Y46.0418
G01 X31.5792 Y46.0654
G01 X31.5869 Y46.0887
G01 X31.6184 Y46.1767
G01 X31.6273 Y46.1996
G01 X31.6372 Y46.2221
G01 X31.6826 Y46.3176
G01 X31.6941 Y46.3393
G01 X31.7003 Y46.3499
G01 X31.7484 Y46.4300
G01 X31.7615 Y46.4508
G01 X31.7684 Y46.4609
G01 X31.8387 Y46.5557
G01 X31.8464 Y46.5653
G01 X31.8593 Y46.5803
G01 X31.8595 Y48.2239
G01 X31.8628 Y48.2935
G01 X31.8647 Y48.3186
G01 X31.8680 Y48.3451
G01 X31.8764 Y48.4016
G01 X31.8807 Y48.4263
G01 X31.8837 Y48.4401
G01 X31.9005 Y48.5077
G01 X31.9077 Y48.5334
G01 X31.9157 Y48.5573
G01 X31.9393 Y48.6228
G01 X31.9446 Y48.6359
G01 X31.9549 Y48.6589
G01 X31.9793 Y48.7105
G01 X31.9906 Y48.7330
G01 X32.0038 Y48.7562
G01 X32.0332 Y48.8051
G01 X32.0467 Y48.8263
G01 X32.0547 Y48.8380
G01 X32.1038 Y48.9040
G01 X32.1126 Y48.9150
G01 X32.1291 Y48.9340
G01 X32.1675 Y48.9762
G01 X32.1859 Y48.9955
G01 X32.2042 Y49.0129
G01 X32.2559 Y49.0595
G01 X32.2667 Y49.0685
G01 X32.2866 Y49.0840
G01 X32.3325 Y49.1179
G01 X32.3544 Y49.1332
G01 X32.3756 Y49.1467
G01 X32.4246 Y49.1760
G01 X32.4465 Y49.1883
G01 X32.4591 Y49.1948
G01 X32.5220 Y49.2247
G01 X32.5450 Y49.2349
G01 X32.5699 Y49.2444
G01 X32.6237 Y49.2636
G01 X32.6476 Y49.2715
G01 X32.6612 Y49.2754
G01 X32.7287 Y49.2924
G01 X32.7533 Y49.2979
G01 X32.7796 Y49.3024
G01 X32.8361 Y49.3108
G01 X32.8610 Y49.3138
G01 X32.8751 Y49.3150
G01 X32.9447 Y49.3185
G01 X32.9698 Y49.3191
G01 X43.1320 Y49.2937
G01 X43.1565 Y49.2930
G01 X43.2135 Y49.2902
G01 X43.2401 Y49.2881
G01 X43.2651 Y49.2850
G01 X43.3216 Y49.2766
G01 X43.3463 Y49.2723
G01 X43.3724 Y49.2664
G01 X43.4277 Y49.2525
G01 X43.4520 Y49.2457
G01 X43.4773 Y49.2373
G01 X43.5428 Y49.2137
G01 X43.5559 Y49.2084
G01 X43.5789 Y49.1981
G01 X43.6305 Y49.1737
G01 X43.6543 Y49.1616
G01 X43.6762 Y49.1492
G01 X43.7358 Y49.1132
G01 X43.7476 Y49.1055
G01 X43.7682 Y49.0909
G01 X43.8140 Y49.0569
G01 X43.8338 Y49.0414
G01 X43.8540 Y49.0239
G01 X43.8962 Y48.9855
G01 X43.9145 Y48.9682
G01 X43.9243 Y48.9581
G01 X43.9711 Y48.9065
G01 X43.9885 Y48.8863
G01 X44.0040 Y48.8664
G01 X44.0453 Y48.8103
G01 X44.0532 Y48.7986
G01 X44.0667 Y48.7774
G01 X44.0960 Y48.7284
G01 X44.1091 Y48.7051
G01 X44.1203 Y48.6826
G01 X44.1499 Y48.6195
G01 X44.1554 Y48.6066
G01 X44.1644 Y48.5831
G01 X44.1836 Y48.5293
G01 X44.1919 Y48.5039
G01 X44.1986 Y48.4797
G01 X44.2153 Y48.4120
G01 X44.2182 Y48.3982
G01 X44.2224 Y48.3734
G01 X44.2308 Y48.3169
G01 X44.2340 Y48.2904
G01 X44.2358 Y48.2653
G01 X44.2385 Y48.2083
G01 X44.2391 Y48.1838
G01 X44.2391 Y46.5803
G01 X44.2520 Y46.5653
G01 X44.2597 Y46.5557
G01 X44.3300 Y46.4609
G01 X44.3369 Y46.4508
G01 X44.3500 Y46.4300
G01 X44.3981 Y46.3499
G01 X44.4102 Y46.3285
G01 X44.4158 Y46.3176
G01 X44.4612 Y46.2221
G01 X44.4711 Y46.1996
G01 X44.4800 Y46.1767
G01 X44.5115 Y46.0887
G01 X44.5192 Y46.0654
G01 X44.5257 Y46.0418
G01 X44.5484 Y45.9511
G01 X44.5538 Y45.9272
G01 X44.5580 Y45.9030
G01 X44.5717 Y45.8105
G01 X44.5747 Y45.7862
G01 X44.5765 Y45.7617
G01 X44.5811 Y45.6683
G01 X44.5817 Y45.6438
G01 X44.5811 Y45.6193
G01 X44.5765 Y45.5259
G01 X44.5747 Y45.5014
G01 X44.5717 Y45.4771
G01 X44.5580 Y45.3846
G01 X44.5538 Y45.3604
G01 X44.5484 Y45.3365
G01 X44.5257 Y45.2458
G01 X44.5192 Y45.2222
G01 X44.5115 Y45.1989
G01 X44.4800 Y45.1109
G01 X44.4711 Y45.0880
G01 X44.4612 Y45.0655
G01 X44.4158 Y44.9700
G01 X44.4043 Y44.9483
G01 X44.3981 Y44.9377
G01 X44.3500 Y44.8576
G01 X44.3369 Y44.8368
G01 X44.3228 Y44.8168
G01 X44.2671 Y44.7417
G01 X44.2520 Y44.7223
G01 X44.2441 Y44.7130
G01 X44.1732 Y44.6345
G01 X44.1563 Y44.6167
G01 X44.1385 Y44.5998
G01 X44.0692 Y44.5370
G01 X44.0507 Y44.5210
G01 X44.0411 Y44.5133
G01 X43.9562 Y44.4502
G01 X43.9362 Y44.4361
G01 X43.9259 Y44.4294
G01 X43.8247 Y44.3687
G01 X43.8030 Y44.3572
G01 X43.7920 Y44.3518
G01 X43.6963 Y44.3067
G01 X43.6737 Y44.2973
G01 X43.6621 Y44.2930
G01 X43.5741 Y44.2615
G01 X43.5508 Y44.2538
G01 X43.5272 Y44.2473
G01 X43.4365 Y44.2246
G01 X43.4126 Y44.2192
G01 X43.4005 Y44.2170
G01 X43.2838 Y44.1996
G01 X43.2593 Y44.1972
G01 X43.2471 Y44.1965
G01 X43.1537 Y44.1919
G01 X43.1292 Y44.1913
G01 X43.1047 Y44.1919
G01 X43.0113 Y44.1965
G01 X42.9868 Y44.1983
G01 X42.9625 Y44.2013
G01 X42.8700 Y44.2150
G01 X42.8458 Y44.2192
G01 X42.8219 Y44.2246
G01 X42.7312 Y44.2473
G01 X42.7076 Y44.2538
G01 X42.6843 Y44.2615
G01 X42.5963 Y44.2930
G01 X42.5734 Y44.3019
G01 X42.5509 Y44.3118
G01 X42.4664 Y44.3518
G01 X42.4445 Y44.3628
G01 X42.4231 Y44.3749
G01 X42.3430 Y44.4230
G01 X42.3222 Y44.4361
G01 X42.3022 Y44.4502
G01 X42.2271 Y44.5059
G01 X42.2077 Y44.5210
G01 X42.1892 Y44.5370
G01 X42.1199 Y44.5998
G01 X42.1021 Y44.6167
G01 X42.0936 Y44.6255
G01 X42.0224 Y44.7038
G01 X42.0064 Y44.7223
G01 X41.9913 Y44.7417
G01 X41.9356 Y44.8168
G01 X41.9215 Y44.8368
G01 X41.9084 Y44.8576
G01 X41.8603 Y44.9377
G01 X41.8482 Y44.9591
G01 X41.8372 Y44.9810
G01 X41.7972 Y45.0655
G01 X41.7873 Y45.0880
G01 X41.7784 Y45.1109
G01 X41.7469 Y45.1989
G01 X41.7392 Y45.2222
G01 X41.7327 Y45.2458
G01 X41.7100 Y45.3365
G01 X41.7046 Y45.3604
G01 X41.7004 Y45.3846
G01 X41.6867 Y45.4771
G01 X41.6837 Y45.5014
G01 X41.6819 Y45.5259
G01 X41.6769 Y45.6315
G01 X41.6769 Y45.6561
G01 X41.6773 Y45.6683
G01 X41.6819 Y45.7617
G01 X41.6837 Y45.7862
G01 X41.6867 Y45.8105
G01 X41.7004 Y45.9030
G01 X41.7046 Y45.9272
G01 X41.7100 Y45.9511
G01 X41.7327 Y46.0418
G01 X41.7392 Y46.0654
G01 X41.7469 Y46.0887
G01 X41.7784 Y46.1767
G01 X41.7873 Y46.1996
G01 X41.7972 Y46.2221
G01 X41.8426 Y46.3176
G01 X41.8482 Y46.3285
G01 X41.8603 Y46.3499
G01 X41.9084 Y46.4300
G01 X41.9148 Y46.4405
G01 X41.9284 Y46.4609
G01 X41.9987 Y46.5557
G01 X42.0064 Y46.5653
G01 X42.0193 Y46.5803
G01 X42.0193 Y47.0767
G01 X38.2168 Y47.0862
G01 X38.3084 Y47.0726
G01 X38.3326 Y47.0684
G01 X38.3565 Y47.0630
G01 X38.4472 Y47.0403
G01 X38.4708 Y47.0338
G01 X38.4941 Y47.0261
G01 X38.5821 Y46.9946
G01 X38.6050 Y46.9857
G01 X38.6275 Y46.9758
G01 X38.7120 Y46.9358
G01 X38.7339 Y46.9248
G01 X38.7553 Y46.9127
G01 X38.8354 Y46.8646
G01 X38.8562 Y46.8515
G01 X38.8762 Y46.8374
G01 X38.9513 Y46.7817
G01 X38.9707 Y46.7666
G01 X38.9892 Y46.7506
G01 X39.0585 Y46.6878
G01 X39.0763 Y46.6709
G01 X39.0932 Y46.6531
G01 X39.1560 Y46.5838
G01 X39.1720 Y46.5653
G01 X39.1871 Y46.5459
G01 X39.2428 Y46.4708
G01 X39.2569 Y46.4508
G01 X39.2700 Y46.4300
G01 X39.3181 Y46.3499
G01 X39.3302 Y46.3285
G01 X39.3412 Y46.3066
G01 X39.3812 Y46.2221
G01 X39.3911 Y46.1996
G01 X39.4000 Y46.1767
G01 X39.4354 Y46.0771
G01 X39.4392 Y46.0654
G01 X39.4457 Y46.0418
G01 X39.4684 Y45.9511
G01 X39.4738 Y45.9272
G01 X39.4780 Y45.9030
G01 X39.4917 Y45.8105
G01 X39.4947 Y45.7862
G01 X39.4965 Y45.7617
G01 X39.5015 Y45.6561
G01 X39.5017 Y45.6438
G01 X39.5011 Y45.6193
G01 X39.4965 Y45.5259
G01 X39.4947 Y45.5014
G01 X39.4917 Y45.4771
G01 X39.4780 Y45.3846
G01 X39.4738 Y45.3604
G01 X39.4684 Y45.3365
G01 X39.4457 Y45.2458
G01 X39.4392 Y45.2222
G01 X39.4354 Y45.2105
G01 X39.4000 Y45.1109
G01 X39.3911 Y45.0880
G01 X39.3812 Y45.0655
G01 X39.3412 Y44.9810
G01 X39.3302 Y44.9591
G01 X39.3181 Y44.9377
G01 X39.2700 Y44.8576
G01 X39.2569 Y44.8368
G01 X39.2428 Y44.8168
G01 X39.1797 Y44.7319
G01 X39.1641 Y44.7130
G01 X39.1533 Y44.7009
G01 X39.1472 Y44.1883
G01 X47.1112 Y44.1883
G01 X47.1051 Y44.7009
G01 X47.0864 Y44.7223
G01 X47.0713 Y44.7417
G01 X47.0084 Y44.8267
G01 X47.0015 Y44.8368
G01 X46.9884 Y44.8576
G01 X46.9403 Y44.9377
G01 X46.9282 Y44.9591
G01 X46.9172 Y44.9810
G01 X46.8772 Y45.0655
G01 X46.8673 Y45.0880
G01 X46.8584 Y45.1109
G01 X46.8269 Y45.1989
G01 X46.8192 Y45.2222
G01 X46.8127 Y45.2458
G01 X46.7900 Y45.3365
G01 X46.7846 Y45.3604
G01 X46.7804 Y45.3846
G01 X46.7667 Y45.4771
G01 X46.7637 Y45.5014
G01 X46.7619 Y45.5259
G01 X46.7573 Y45.6193
G01 X46.7567 Y45.6438
G01 X46.7573 Y45.6683
G01 X46.7619 Y45.7617
G01 X46.7637 Y45.7862
G01 X46.7667 Y45.8105
G01 X46.7804 Y45.9030
G01 X46.7846 Y45.9272
G01 X46.7900 Y45.9511
G01 X46.8127 Y46.0418
G01 X46.8192 Y46.0654
G01 X46.8269 Y46.0887
G01 X46.8584 Y46.1767
G01 X46.8673 Y46.1996
G01 X46.8772 Y46.2221
G01 X46.9172 Y46.3066
G01 X46.9226 Y46.3176
G01 X46.9341 Y46.3393
G01 X46.9884 Y46.4300
G01 X47.0015 Y46.4508
G01 X47.0156 Y46.4708
G01 X47.0713 Y46.5459
G01 X47.0864 Y46.5653
G01 X47.1024 Y46.5838
G01 X47.1652 Y46.6531
G01 X47.1821 Y46.6709
G01 X47.1999 Y46.6878
G01 X47.2692 Y46.7506
G01 X47.2877 Y46.7666
G01 X47.3071 Y46.7817
G01 X47.3822 Y46.8374
G01 X47.4022 Y46.8515
G01 X47.4230 Y46.8646
G01 X47.5137 Y46.9189
G01 X47.5354 Y46.9304
G01 X47.5464 Y46.9358
G01 X47.6309 Y46.9758
G01 X47.6534 Y46.9857
G01 X47.6763 Y46.9946
G01 X47.7643 Y47.0261
G01 X47.7876 Y47.0338
G01 X47.8112 Y47.0403
G01 X47.9019 Y47.0630
G01 X47.9258 Y47.0684
G01 X47.9500 Y47.0726
G01 X48.0425 Y47.0863
G01 X48.0668 Y47.0893
G01 X48.0791 Y47.0904
G01 X48.1847 Y47.0957
G01 X48.2092 Y47.0963
G01 X48.2337 Y47.0957
G01 X48.3271 Y47.0911
G01 X48.3516 Y47.0893
G01 X48.3759 Y47.0863
G01 X48.4684 Y47.0726
G01 X48.4926 Y47.0684
G01 X48.5165 Y47.0630
G01 X48.6072 Y47.0403
G01 X48.6308 Y47.0338
G01 X48.6541 Y47.0261
G01 X48.7421 Y46.9946
G01 X48.7650 Y46.9857
G01 X48.7875 Y46.9758
G01 X48.8720 Y46.9358
G01 X48.8939 Y46.9248
G01 X48.9153 Y46.9127
G01 X48.9954 Y46.8646
G01 X49.0162 Y46.8515
G01 X49.0362 Y46.8374
G01 X49.1113 Y46.7817
G01 X49.1307 Y46.7666
G01 X49.1492 Y46.7506
G01 X49.2185 Y46.6878
G01 X49.2363 Y46.6709
G01 X49.2532 Y46.6531
G01 X49.3160 Y46.5838
G01 X49.3320 Y46.5653
G01 X49.3471 Y46.5459
G01 X49.4028 Y46.4708
G01 X49.4169 Y46.4508
G01 X49.4300 Y46.4300
G01 X49.4781 Y46.3499
G01 X49.4902 Y46.3285
G01 X49.5012 Y46.3066
G01 X49.5412 Y46.2221
G01 X49.5511 Y46.1996
G01 X49.5600 Y46.1767
G01 X49.5915 Y46.0887
G01 X49.5992 Y46.0654
G01 X49.6057 Y46.0418
G01 X49.6284 Y45.9511
G01 X49.6338 Y45.9272
G01 X49.6360 Y45.9151
G01 X49.6517 Y45.8105
G01 X49.6534 Y45.7984
G01 X49.6558 Y45.7739
G01 X49.6615 Y45.6561
G01 X49.6615 Y45.6315
G01 X49.6611 Y45.6193
G01 X49.6565 Y45.5259
G01 X49.6547 Y45.5014
G01 X49.6517 Y45.4771
G01 X49.6380 Y45.3846
G01 X49.6338 Y45.3604
G01 X49.6312 Y45.3484
G01 X49.6057 Y45.2458
G01 X49.5992 Y45.2222
G01 X49.5915 Y45.1989
G01 X49.5600 Y45.1109
G01 X49.5511 Y45.0880
G01 X49.5412 Y45.0655
G01 X49.5012 Y44.9810
G01 X49.4902 Y44.9591
G01 X49.4781 Y44.9377
G01 X49.4300 Y44.8576
G01 X49.4169 Y44.8368
G01 X49.4028 Y44.8168
G01 X49.3471 Y44.7417
G01 X49.3397 Y44.7319
G01 X49.3249 Y44.7139
G01 X49.3444 Y43.0918
G01 X49.3444 Y43.0661
G01 X49.3419 Y43.0074
G01 X49.3401 Y42.9799
G01 X49.3380 Y42.9589
G01 X49.3276 Y42.8856
G01 X49.3210 Y42.8513
G01 X49.3034 Y42.7794
G01 X49.2935 Y42.7459
G01 X49.2690 Y42.6761
G01 X49.2558 Y42.6438
G01 X49.2245 Y42.5766
G01 X49.2083 Y42.5458
G01 X49.1777 Y42.4938
G01 X49.1632 Y42.4704
G01 X49.1514 Y42.4529
G01 X49.1159 Y42.4042
G01 X49.1076 Y42.3931
G01 X49.0945 Y42.3766
G01 X49.0765 Y42.3557
G01 X49.0363 Y42.3109
G01 X49.0117 Y42.2861
G01 X48.9572 Y42.2360
G01 X48.9410 Y42.2224
G01 X48.9194 Y42.2053
G01 X48.8711 Y42.1692
G01 X48.8537 Y42.1572
G01 X48.8422 Y42.1497
G01 X48.7908 Y42.1183
G01 X48.7669 Y42.1045
G01 X48.7483 Y42.0946
G01 X48.6815 Y42.0625
G01 X48.6621 Y42.0541
G01 X48.6364 Y42.0442
G01 X48.5798 Y42.0236
G01 X48.5597 Y42.0172
G01 X48.5331 Y42.0097
G01 X48.4747 Y41.9949
G01 X48.4406 Y41.9878
G01 X48.3674 Y41.9765
G01 X48.3464 Y41.9741
G01 X48.3189 Y41.9720
G01 X48.2587 Y41.9688
G01 X48.2450 Y41.9686
G01 X46.0345 Y41.9685
G01 X46.0791 Y41.9572
G01 X46.1025 Y41.9500
G01 X46.2137 Y41.9103
G01 X46.2250 Y41.9057
G01 X46.2475 Y41.8958
G01 X46.3430 Y41.8504
G01 X46.3647 Y41.8389
G01 X46.3753 Y41.8327
G01 X46.4554 Y41.7846
G01 X46.4762 Y41.7715
G01 X46.4962 Y41.7574
G01 X46.5713 Y41.7017
G01 X46.5907 Y41.6866
G01 X46.6057 Y41.6737
G01 X52.1669 Y41.6737
G01 X52.1669 Y54.6745
G01 X49.1426 Y54.6911
G01 X49.1307 Y54.6810
G01 X49.1113 Y54.6659
G01 X49.0263 Y54.6030
G01 X49.0059 Y54.5894
G01 X48.9954 Y54.5830
G01 X48.9153 Y54.5349
G01 X48.9047 Y54.5287
G01 X48.8830 Y54.5172
G01 X48.7875 Y54.4718
G01 X48.7650 Y54.4619
G01 X48.7421 Y54.4530
G01 X48.6541 Y54.4215
G01 X48.6308 Y54.4138
G01 X48.6072 Y54.4073
G01 X48.5165 Y54.3846
G01 X48.4926 Y54.3792
G01 X48.4684 Y54.3750
G01 X48.3759 Y54.3613
G01 X48.3516 Y54.3583
G01 X48.3271 Y54.3565
G01 X48.2337 Y54.3519
G01 X48.2215 Y54.3515
G01 X48.1969 Y54.3515
G01 X48.0913 Y54.3565
G01 X48.0791 Y54.3572
G01 X48.0546 Y54.3596
G01 X47.9379 Y54.3770
G01 X47.9258 Y54.3792
G01 X47.9019 Y54.3846
G01 X47.7993 Y54.4104
G01 X47.7876 Y54.4138
G01 X47.7643 Y54.4215
G01 X47.6763 Y54.4530
G01 X47.6534 Y54.4619
G01 X47.6309 Y54.4718
G01 X47.5464 Y54.5118
G01 X47.5245 Y54.5228
G01 X47.5031 Y54.5349
G01 X47.4230 Y54.5830
G01 X47.4022 Y54.5961
G01 X47.3822 Y54.6102
G01 X47.3071 Y54.6659
G01 X47.2877 Y54.6810
G01 X47.2692 Y54.6970
G01 X47.1999 Y54.7598
G01 X47.1821 Y54.7767
G01 X47.1652 Y54.7945
G01 X47.1024 Y54.8638
G01 X47.0864 Y54.8823
G01 X47.0747 Y54.8972
G01 X44.2637 Y54.8972
G01 X44.2520 Y54.8823
G01 X44.2391 Y54.8673
G01 X44.2391 Y53.2638
G01 X44.2385 Y53.2393
G01 X44.2356 Y53.1795
G01 X44.2338 Y53.1550
G01 X44.2308 Y53.1307
G01 X44.2200 Y53.0593
G01 X44.2152 Y53.0353
G01 X44.1979 Y52.9653
G01 X44.1913 Y52.9416
G01 X44.1836 Y52.9183
G01 X44.1592 Y52.8505
G01 X44.1546 Y52.8391
G01 X44.1447 Y52.8166
G01 X44.1137 Y52.7515
G01 X44.1021 Y52.7298
G01 X44.0652 Y52.6679
G01 X44.0521 Y52.6472
G01 X44.0379 Y52.6271
G01 X44.0023 Y52.5790
G01 X43.9872 Y52.5597
G01 X43.9793 Y52.5503
G01 X43.9309 Y52.4968
G01 X43.9140 Y52.4790
G01 X43.8962 Y52.4621
G01 X43.8427 Y52.4137
G01 X43.8237 Y52.3982
G01 X43.8140 Y52.3907
G01 X43.7659 Y52.3551
G01 X43.7458 Y52.3409
G01 X43.7251 Y52.3278
G01 X43.6632 Y52.2909
G01 X43.6415 Y52.2793
G01 X43.5764 Y52.2483
G01 X43.5652 Y52.2432
G01 X43.5425 Y52.2338
G01 X43.4747 Y52.2094
G01 X43.4514 Y52.2017
G01 X43.4277 Y52.1951
G01 X43.3697 Y52.1806
G01 X43.3457 Y52.1752
G01 X43.3216 Y52.1710
G01 X43.2502 Y52.1606
G01 X43.2258 Y52.1582
G01 X43.1537 Y52.1545
G01 X43.1292 Y52.1539
G01 X15.2146 Y52.1539
G01 X15.2023 Y52.1540
G01 X15.1438 Y52.1565
G01 X15.1163 Y52.1583
G01 X15.0951 Y52.1604
G01 X15.0356 Y52.1688
G01 X15.0084 Y52.1732
G01 X14.9876 Y52.1774
G01 X14.9157 Y52.1950
G01 X14.8953 Y52.2008
G01 X14.8691 Y52.2094
G01 X14.8124 Y52.2294
G01 X14.7927 Y52.2372
G01 X14.7674 Y52.2483
G01 X14.7130 Y52.2738
G01 X14.6941 Y52.2835
G01 X14.6820 Y52.2901
G01 X14.6302 Y52.3206
G01 X14.6067 Y52.3352
G01 X14.5891 Y52.3470
G01 X14.5295 Y52.3907
G01 X14.5128 Y52.4039
G01 X14.4919 Y52.4219
G01 X14.4472 Y52.4620
G01 X14.4319 Y52.4768
G01 X14.4223 Y52.4867
G01 X14.3815 Y52.5309
G01 X14.3633 Y52.5516
G01 X14.3499 Y52.5681
G01 X14.3137 Y52.6161
G01 X14.2976 Y52.6385
G01 X14.2859 Y52.6562
G01 X14.2546 Y52.7075
G01 X14.2407 Y52.7314
G01 X14.2308 Y52.7501
G01 X14.1988 Y52.8168
G01 X14.1852 Y52.8490
G01 X14.1599 Y52.9185
G01 X14.1495 Y52.9519
G01 X14.1344 Y53.0101
G01 X14.1281 Y53.0370
G01 X14.1240 Y53.0578
G01 X14.1148 Y53.1172
G01 X14.1127 Y53.1309
G01 X14.1104 Y53.1520
G01 X14.1082 Y53.1795
G01 X14.1051 Y53.2380
G01 X14.1048 Y53.2503
G01 X14.0872 Y54.6939
G01 X11.0457 Y54.6939
G01 X11.0307 Y54.6810
G01 X11.0211 Y54.6733
G01 X10.9263 Y54.6030
G01 X10.9162 Y54.5961
G01 X10.8954 Y54.5830
G01 X10.8153 Y54.5349
G01 X10.7939 Y54.5228
G01 X10.7830 Y54.5172
G01 X10.6875 Y54.4718
G01 X10.6650 Y54.4619
G01 X10.6421 Y54.4530
G01 X10.5541 Y54.4215
G01 X10.5308 Y54.4138
G01 X10.5072 Y54.4073
G01 X10.4165 Y54.3846
G01 X10.3926 Y54.3792
G01 X10.3684 Y54.3750
G01 X10.2759 Y54.3613
G01 X10.2516 Y54.3583
G01 X10.2271 Y54.3565
G01 X10.1337 Y54.3519
G01 X10.1092 Y54.3513
G01 X10.0847 Y54.3519
G01 X9.9913 Y54.3565
G01 X9.9668 Y54.3583
G01 X9.9425 Y54.3613
G01 X9.8500 Y54.3750
G01 X9.8258 Y54.3792
G01 X9.8019 Y54.3846
G01 X9.7112 Y54.4073
G01 X9.6876 Y54.4138
G01 X9.6643 Y54.4215
G01 X9.5763 Y54.4530
G01 X9.5534 Y54.4619
G01 X9.5309 Y54.4718
G01 X9.4354 Y54.5172
G01 X9.4137 Y54.5287
G01 X9.4031 Y54.5349
G01 X9.3230 Y54.5830
G01 X9.3022 Y54.5961
G01 X9.2921 Y54.6030
G01 X9.1973 Y54.6733
G01 X9.1877 Y54.6810
G01 X9.1727 Y54.6939
G01 X8.6791 Y54.6939
G01 X8.6791 Y45.8941
G01 X8.6824 Y45.9151
G01 X8.6872 Y45.9392
G01 X8.7127 Y46.0418
G01 X8.7192 Y46.0654
G01 X8.7269 Y46.0887
G01 X8.7584 Y46.1767
G01 X8.7627 Y46.1883
G01 X8.7721 Y46.2109
G01 X8.8172 Y46.3066
G01 X8.8282 Y46.3285
G01 X8.8403 Y46.3499
G01 X8.8884 Y46.4300
G01 X8.9015 Y46.4508
G01 X8.9156 Y46.4708
G01 X8.9713 Y46.5459
G01 X8.9864 Y46.5653
G01 X9.0024 Y46.5838
G01 X9.0652 Y46.6531
G01 X9.0821 Y46.6709
G01 X9.0999 Y46.6878
G01 X9.1692 Y46.7506
G01 X9.1877 Y46.7666
G01 X9.2071 Y46.7817
G01 X9.2822 Y46.8374
G01 X9.3022 Y46.8515
G01 X9.3230 Y46.8646
G01 X9.4031 Y46.9127
G01 X9.4245 Y46.9248
G01 X9.4464 Y46.9358
G01 X9.5309 Y46.9758
G01 X9.5534 Y46.9857
G01 X9.5763 Y46.9946
G01 X9.6643 Y47.0261
G01 X9.6876 Y47.0338
G01 X9.7112 Y47.0403
G01 X9.8019 Y47.0630
G01 X9.8258 Y47.0684
G01 X9.8500 Y47.0726
G01 X9.9425 Y47.0863
G01 X9.9668 Y47.0893
G01 X9.9913 Y47.0911
G01 X10.0847 Y47.0957
G01 X10.1092 Y47.0963
G01 X10.1337 Y47.0957
G01 X10.2271 Y47.0911
G01 X10.2516 Y47.0893
G01 X10.2759 Y47.0863
G01 X10.3684 Y47.0726
G01 X10.3926 Y47.0684
G01 X10.4165 Y47.0630
G01 X10.5072 Y47.0403
G01 X10.5308 Y47.0338
G01 X10.5541 Y47.0261
G01 X10.6421 Y46.9946
G01 X10.6650 Y46.9857
G01 X10.6875 Y46.9758
G01 X10.7720 Y46.9358
G01 X10.7939 Y46.9248
G01 X10.8153 Y46.9127
G01 X10.8954 Y46.8646
G01 X10.9162 Y46.8515
G01 X10.9362 Y46.8374
G01 X11.0113 Y46.7817
G01 X11.0307 Y46.7666
G01 X11.0492 Y46.7506
G01 X11.1185 Y46.6878
G01 X11.1363 Y46.6709
G01 X11.1532 Y46.6531
G01 X11.2160 Y46.5838
G01 X11.2320 Y46.5653
G01 X11.2471 Y46.5459
G01 X11.3028 Y46.4708
G01 X11.3169 Y46.4508
G01 X11.3300 Y46.4300
G01 X11.3781 Y46.3499
G01 X11.3902 Y46.3285
G01 X11.4012 Y46.3066
G01 X11.4412 Y46.2221
G01 X11.4463 Y46.2109
G01 X11.4557 Y46.1883
G01 X11.4915 Y46.0887
G01 X11.4992 Y46.0654
G01 X11.5026 Y46.0537
G01 X11.5312 Y45.9392
G01 X11.5360 Y45.9151
G01 X11.5380 Y45.9030
G01 X11.5534 Y45.7984
G01 X11.5558 Y45.7739
G01 X11.5565 Y45.7617
G01 X11.5611 Y45.6683
G01 X11.5617 Y45.6438
G01 X11.5611 Y45.6193
G01 X11.5565 Y45.5259
G01 X11.5547 Y45.5014
G01 X11.5517 Y45.4771
G01 X11.5380 Y45.3846
G01 X11.5338 Y45.3604
G01 X11.5284 Y45.3365
G01 X11.5057 Y45.2458
G01 X11.4992 Y45.2222
G01 X11.4915 Y45.1989
G01 X11.4600 Y45.1109
G01 X11.4511 Y45.0880
G01 X11.4412 Y45.0655
G01 X11.4012 Y44.9810
G01 X11.3902 Y44.9591
G01 X11.3781 Y44.9377
G01 X11.3300 Y44.8576
G01 X11.3169 Y44.8368
G01 X11.3028 Y44.8168
G01 X11.2471 Y44.7417
G01 X11.2320 Y44.7223
G01 X11.2191 Y44.7073
G01 X11.2191 Y44.1883
G01 X19.1593 Y44.1883
G01 X19.1593 Y44.7073
G01 X19.1464 Y44.7223
G01 X19.1387 Y44.7319
G01 X19.0756 Y44.8168
G01 X19.0615 Y44.8368
G01 X19.0484 Y44.8576
G01 X19.0003 Y44.9377
G01 X18.9882 Y44.9591
G01 X18.9772 Y44.9810
G01 X18.9321 Y45.0767
G01 X18.9273 Y45.0880
G01 X18.9184 Y45.1109
G01 X18.8869 Y45.1989
G01 X18.8792 Y45.2222
G01 X18.8727 Y45.2458
G01 X18.8500 Y45.3365
G01 X18.8446 Y45.3604
G01 X18.8404 Y45.3846
G01 X18.8267 Y45.4771
G01 X18.8237 Y45.5014
G01 X18.8219 Y45.5259
G01 X18.8173 Y45.6193
G01 X18.8167 Y45.6438
G01 X18.8173 Y45.6683
G01 X18.8219 Y45.7617
G01 X18.8237 Y45.7862
G01 X18.8267 Y45.8105
G01 X18.8404 Y45.9030
G01 X18.8446 Y45.9272
G01 X18.8500 Y45.9511
G01 X18.8727 Y46.0418
G01 X18.8792 Y46.0654
G01 X18.8830 Y46.0771
G01 X18.9184 Y46.1767
G01 X18.9273 Y46.1996
G01 X18.9372 Y46.2221
G01 X18.9772 Y46.3066
G01 X18.9882 Y46.3285
G01 X19.0003 Y46.3499
G01 X19.0484 Y46.4300
G01 X19.0615 Y46.4508
G01 X19.0756 Y46.4708
G01 X19.1313 Y46.5459
G01 X19.1464 Y46.5653
G01 X19.1624 Y46.5838
G01 X19.2252 Y46.6531
G01 X19.2421 Y46.6709
G01 X19.2599 Y46.6878
G01 X19.3292 Y46.7506
G01 X19.3477 Y46.7666
G01 X19.3671 Y46.7817
G01 X19.4422 Y46.8374
G01 X19.4622 Y46.8515
G01 X19.4830 Y46.8646
G01 X19.5631 Y46.9127
G01 X19.5845 Y46.9248
G01 X19.6064 Y46.9358
G01 X19.6909 Y46.9758
G01 X19.7134 Y46.9857
G01 X19.7363 Y46.9946
G01 X19.8243 Y47.0261
G01 X19.8476 Y47.0338
G01 X19.8712 Y47.0403
G01 X19.9619 Y47.0630
G01 X19.9858 Y47.0684
G01 X20.0100 Y47.0726
G01 X20.1016 Y47.0862
G01 X16.3112 Y47.0766
G01 X16.3052 Y46.5734
G01 X16.3197 Y46.5557
G01 X16.3271 Y46.5459
G01 X16.3828 Y46.4708
G01 X16.3969 Y46.4508
G01 X16.4100 Y46.4300
G01 X16.4581 Y46.3499
G01 X16.4702 Y46.3285
G01 X16.4812 Y46.3066
G01 X16.5212 Y46.2221
G01 X16.5311 Y46.1996
G01 X16.5400 Y46.1767
G01 X16.5715 Y46.0887
G01 X16.5754 Y46.0771
G01 X16.5826 Y46.0537
G01 X16.6084 Y45.9511
G01 X16.6138 Y45.9272
G01 X16.6180 Y45.9030
G01 X16.6317 Y45.8105
G01 X16.6347 Y45.7862
G01 X16.6365 Y45.7617
G01 X16.6411 Y45.6683
G01 X16.6415 Y45.6561
G01 X16.6415 Y45.6315
G01 X16.6365 Y45.5259
G01 X16.6347 Y45.5014
G01 X16.6317 Y45.4771
G01 X16.6180 Y45.3846
G01 X16.6138 Y45.3604
G01 X16.6084 Y45.3365
G01 X16.5857 Y45.2458
G01 X16.5792 Y45.2222
G01 X16.5715 Y45.1989
G01 X16.5400 Y45.1109
G01 X16.5311 Y45.0880
G01 X16.5212 Y45.0655
G01 X16.4812 Y44.9810
G01 X16.4702 Y44.9591
G01 X16.4581 Y44.9377
G01 X16.4100 Y44.8576
G01 X16.3969 Y44.8368
G01 X16.3828 Y44.8168
G01 X16.3271 Y44.7417
G01 X16.3120 Y44.7223
G01 X16.2960 Y44.7038
G01 X16.2248 Y44.6255
G01 X16.2075 Y44.6082
G01 X16.1985 Y44.5998
G01 X16.1292 Y44.5370
G01 X16.1107 Y44.5210
G01 X16.0913 Y44.5059
G01 X16.0162 Y44.4502
G01 X15.9962 Y44.4361
G01 X15.9754 Y44.4230
G01 X15.8953 Y44.3749
G01 X15.8739 Y44.3628
G01 X15.8520 Y44.3518
G01 X15.7675 Y44.3118
G01 X15.7450 Y44.3019
G01 X15.7221 Y44.2930
G01 X15.6341 Y44.2615
G01 X15.6108 Y44.2538
G01 X15.5872 Y44.2473
G01 X15.4965 Y44.2246
G01 X15.4726 Y44.2192
G01 X15.4484 Y44.2150
G01 X15.3559 Y44.2013
G01 X15.3316 Y44.1983
G01 X15.3071 Y44.1965
G01 X15.2137 Y44.1919
G01 X15.1892 Y44.1913
G01 X15.1647 Y44.1919
G01 X15.0713 Y44.1965
G01 X15.0468 Y44.1983
G01 X15.0346 Y44.1996
G01 X14.9179 Y44.2170
G01 X14.8938 Y44.2218
G01 X14.8819 Y44.2246
G01 X14.7793 Y44.2504
G01 X14.7559 Y44.2576
G01 X14.7443 Y44.2615
G01 X14.6563 Y44.2930
G01 X14.6334 Y44.3019
G01 X14.6109 Y44.3118
G01 X14.5264 Y44.3518
G01 X14.5154 Y44.3572
G01 X14.4937 Y44.3687
G01 X14.3925 Y44.4294
G01 X14.3721 Y44.4430
G01 X14.3622 Y44.4502
G01 X14.2773 Y44.5133
G01 X14.2677 Y44.5210
G01 X14.2492 Y44.5370
G01 X14.1799 Y44.5998
G01 X14.1621 Y44.6167
G01 X14.1452 Y44.6345
G01 X14.0743 Y44.7130
G01 X14.0664 Y44.7223
G01 X14.0513 Y44.7417
G01 X13.9956 Y44.8168
G01 X13.9815 Y44.8368
G01 X13.9684 Y44.8576
G01 X13.9203 Y44.9377
G01 X13.9141 Y44.9483
G01 X13.9026 Y44.9700
G01 X13.8572 Y45.0655
G01 X13.8473 Y45.0880
G01 X13.8384 Y45.1109
G01 X13.8069 Y45.1989
G01 X13.7992 Y45.2222
G01 X13.7927 Y45.2458
G01 X13.7700 Y45.3365
G01 X13.7646 Y45.3604
G01 X13.7604 Y45.3846
G01 X13.7467 Y45.4771
G01 X13.7437 Y45.5014
G01 X13.7419 Y45.5259
G01 X13.7373 Y45.6193
G01 X13.7367 Y45.6438
G01 X13.7369 Y45.6561
G01 X13.7419 Y45.7617
G01 X13.7437 Y45.7862
G01 X13.7467 Y45.8105
G01 X13.7604 Y45.9030
G01 X13.7646 Y45.9272
G01 X13.7700 Y45.9511
G01 X13.7927 Y46.0418
G01 X13.7992 Y46.0654
G01 X13.8069 Y46.0887
G01 X13.8427 Y46.1883
G01 X13.8473 Y46.1996
G01 X13.8572 Y46.2221
G01 X13.8972 Y46.3066
G01 X13.9082 Y46.3285
G01 X13.9203 Y46.3499
G01 X13.9684 Y46.4300
G01 X13.9748 Y46.4405
G01 X13.9884 Y46.4609
G01 X14.0513 Y46.5459
G01 X14.0664 Y46.5653
G01 X14.0854 Y46.5871
G01 X14.1048 Y48.1972
G01 X14.1051 Y48.2094
G01 X14.1080 Y48.2653
G01 X14.1101 Y48.2934
G01 X14.1127 Y48.3163
G01 X14.1236 Y48.3873
G01 X14.1280 Y48.4099
G01 X14.1344 Y48.4373
G01 X14.1488 Y48.4933
G01 X14.1554 Y48.5153
G01 X14.1644 Y48.5420
G01 X14.1842 Y48.5963
G01 X14.1930 Y48.6175
G01 X14.2046 Y48.6432
G01 X14.2296 Y48.6953
G01 X14.2404 Y48.7156
G01 X14.2545 Y48.7400
G01 X14.2845 Y48.7893
G01 X14.3052 Y48.8201
G01 X14.3398 Y48.8664
G01 X14.3572 Y48.8886
G01 X14.3720 Y48.9061
G01 X14.4205 Y48.9592
G01 X14.4367 Y48.9755
G01 X14.4573 Y48.9947
G01 X14.5003 Y49.0333
G01 X14.5180 Y49.0479
G01 X14.5404 Y49.0651
G01 X14.5870 Y49.0992
G01 X14.6061 Y49.1120
G01 X14.6300 Y49.1269
G01 X14.6798 Y49.1563
G01 X14.7000 Y49.1672
G01 X14.7253 Y49.1796
G01 X14.7777 Y49.2040
G01 X14.7989 Y49.2129
G01 X14.8252 Y49.2228
G01 X14.8798 Y49.2419
G01 X14.9017 Y49.2487
G01 X14.9290 Y49.2560
G01 X14.9851 Y49.2697
G01 X15.0215 Y49.2767
G01 X15.0926 Y49.2869
G01 X15.1155 Y49.2893
G01 X15.1436 Y49.2911
G01 X15.1995 Y49.2935
G01 X15.2118 Y49.2937
G01 X25.3333 Y49.3190
G01 X25.4084 Y49.3158
G01 X25.4408 Y49.3128
G01 X25.5164 Y49.3022
G01 X25.5353 Y49.2988
G01 X25.5616 Y49.2930
G01 X25.6096 Y49.2813
G01 X25.6356 Y49.2744
G01 X25.6539 Y49.2688
G01 X25.7133 Y49.2482
G01 X25.7385 Y49.2387
G01 X25.7562 Y49.2313
G01 X25.8133 Y49.2050
G01 X25.8374 Y49.1931
G01 X25.8543 Y49.1840
G01 X25.9200 Y49.1453
G01 X25.9473 Y49.1274
G01 X26.0089 Y49.0823
G01 X26.0343 Y49.0618
G01 X26.0912 Y49.0110
G01 X26.1144 Y48.9881
G01 X26.1661 Y48.9319
G01 X26.1785 Y48.9173
G01 X26.1951 Y48.8962
G01 X26.2329 Y48.8459
G01 X26.2512 Y48.8189
G01 X26.2840 Y48.7652
G01 X26.2975 Y48.7420
G01 X26.3124 Y48.7130
G01 X26.3396 Y48.6563
G01 X26.3472 Y48.6387
G01 X26.3570 Y48.6136
G01 X26.3785 Y48.5546
G01 X26.3882 Y48.5234
G01 X26.4041 Y48.4626
G01 X26.4114 Y48.4308
G01 X26.4161 Y48.4043
G01 X26.4256 Y48.3421
G01 X26.4291 Y48.3097
G01 X26.4327 Y48.2469
G01 X26.4336 Y48.2224
G01 X26.4531 Y46.5870
G01 X26.4720 Y46.5653
G01 X26.4871 Y46.5459
G01 X26.5500 Y46.4609
G01 X26.5569 Y46.4508
G01 X26.5700 Y46.4300
G01 X26.6181 Y46.3499
G01 X26.6302 Y46.3285
G01 X26.6412 Y46.3066
G01 X26.6812 Y46.2221
G01 X26.6863 Y46.2109
G01 X26.6957 Y46.1883
G01 X26.7315 Y46.0887
G01 X26.7392 Y46.0654
G01 X26.7457 Y46.0418
G01 X26.7684 Y45.9511
G01 X26.7738 Y45.9272
G01 X26.7780 Y45.9030
G01 X26.7917 Y45.8105
G01 X26.7947 Y45.7862
G01 X26.7965 Y45.7617
G01 X26.8011 Y45.6683
G01 X26.8017 Y45.6438
G01 X26.8015 Y45.6315
G01 X26.7958 Y45.5137
G01 X26.7947 Y45.5014
G01 X26.7917 Y45.4771
G01 X26.7780 Y45.3846
G01 X26.7738 Y45.3604
G01 X26.7684 Y45.3365
G01 X26.7426 Y45.2339
G01 X26.7392 Y45.2222
G01 X26.7315 Y45.1989
G01 X26.7000 Y45.1109
G01 X26.6911 Y45.0880
G01 X26.6812 Y45.0655
G01 X26.6412 Y44.9810
G01 X26.6358 Y44.9700
G01 X26.6243 Y44.9483
G01 X26.5700 Y44.8576
G01 X26.5569 Y44.8368
G01 X26.5428 Y44.8168
G01 X26.4871 Y44.7417
G01 X26.4720 Y44.7223
G01 X26.4591 Y44.7073
G01 X26.4591 Y41.6570
G01 X26.5375 Y41.5708
G01 X26.5535 Y41.5522
G01 X26.5686 Y41.5328
G01 X26.6305 Y41.4494
G01 X26.6446 Y41.4294
G01 X26.6578 Y41.4086
G01 X26.7111 Y41.3196
G01 X26.7232 Y41.2982
G01 X26.7343 Y41.2763
G01 X26.7787 Y41.1825
G01 X26.7886 Y41.1600
G01 X26.7974 Y41.1371
G01 X26.8324 Y41.0394
G01 X26.8401 Y41.0161
G01 X26.8467 Y40.9924
G01 X26.8719 Y40.8917
G01 X26.8773 Y40.8677
G01 X26.8815 Y40.8436
G01 X26.8967 Y40.7409
G01 X26.8997 Y40.7165
G01 X26.9015 Y40.6920
G01 X26.9066 Y40.5883
G01 X26.9072 Y40.5638
G01 X26.9066 Y40.5393
G01 X26.9015 Y40.4356
G01 X26.8997 Y40.4111
G01 X26.8967 Y40.3867
G01 X26.8815 Y40.2840
G01 X26.8773 Y40.2598
G01 X26.8719 Y40.2359
G01 X26.8467 Y40.1352
G01 X26.8401 Y40.1115
G01 X26.8324 Y40.0882
G01 X26.7974 Y39.9905
G01 X26.7886 Y39.9676
G01 X26.7838 Y39.9563
G01 X26.7289 Y39.8403
G01 X26.7173 Y39.8186
G01 X26.7111 Y39.8080
G01 X26.6578 Y39.7190
G01 X26.6446 Y39.6982
G01 X26.6305 Y39.6782
G01 X26.5686 Y39.5948
G01 X26.5612 Y39.5850
G01 X26.5456 Y39.5660
G01 X26.4594 Y39.4709
G01 X26.4421 Y39.4536
G01 X26.4331 Y39.4452
G01 X26.3562 Y39.3755
G01 X26.3376 Y39.3595
G01 X26.3182 Y39.3444
G01 X26.2501 Y39.2938
G01 X26.3182 Y39.2432
G01 X26.3376 Y39.2281
G01 X26.3470 Y39.2202
G01 X26.4331 Y39.1424
G01 X26.4421 Y39.1340
G01 X26.4594 Y39.1167
G01 X26.5375 Y39.0308
G01 X26.5535 Y39.0122
G01 X26.5686 Y38.9928
G01 X26.6305 Y38.9094
G01 X26.6377 Y38.8995
G01 X26.6513 Y38.8791
G01 X26.7111 Y38.7796
G01 X26.7232 Y38.7582
G01 X26.7343 Y38.7363
G01 X26.7787 Y38.6425
G01 X26.7886 Y38.6200
G01 X26.7974 Y38.5971
G01 X26.8324 Y38.4994
G01 X26.8401 Y38.4761
G01 X26.8467 Y38.4524
G01 X26.8719 Y38.3517
G01 X26.8747 Y38.3398
G01 X26.8795 Y38.3157
G01 X26.8967 Y38.2009
G01 X26.8997 Y38.1765
G01 X26.9015 Y38.1520
G01 X26.9066 Y38.0483
G01 X26.9072 Y38.0238
G01 X26.9066 Y37.9993
G01 X26.9015 Y37.8956
G01 X26.8997 Y37.8711
G01 X26.8967 Y37.8467
G01 X26.8815 Y37.7440
G01 X26.8773 Y37.7198
G01 X26.8719 Y37.6959
G01 X26.8467 Y37.5952
G01 X26.8401 Y37.5715
G01 X26.8324 Y37.5482
G01 X26.7974 Y37.4505
G01 X26.7886 Y37.4276
G01 X26.7787 Y37.4051
G01 X26.7343 Y37.3113
G01 X26.7232 Y37.2894
G01 X26.7111 Y37.2680
G01 X26.6578 Y37.1790
G01 X26.6446 Y37.1582
G01 X26.6305 Y37.1382
G01 X26.5612 Y37.0450
G01 X26.5456 Y37.0260
G01 X26.5375 Y37.0168
G01 X26.4678 Y36.9399
G01 X26.4594 Y36.9309
G01 X26.4421 Y36.9136
G01 X26.3562 Y36.8355
G01 X26.3376 Y36.8195
G01 X26.3182 Y36.8044
G01 X26.2501 Y36.7538
G01 X26.3182 Y36.7032
G01 X26.3376 Y36.6881
G01 X26.3562 Y36.6721
G01 X26.4331 Y36.6024
G01 X26.4509 Y36.5855
G01 X26.4678 Y36.5677
G01 X26.5375 Y36.4908
G01 X26.5535 Y36.4722
G01 X26.5686 Y36.4528
G01 X26.6305 Y36.3694
G01 X26.6446 Y36.3494
G01 X26.6578 Y36.3286
G01 X26.7111 Y36.2396
G01 X26.7232 Y36.2182
G01 X26.7343 Y36.1963
G01 X26.7838 Y36.0913
G01 X26.7886 Y36.0800
G01 X26.7974 Y36.0571
G01 X26.8324 Y35.9594
G01 X26.8401 Y35.9361
G01 X26.8467 Y35.9124
G01 X26.8719 Y35.8117
G01 X26.8773 Y35.7877
G01 X26.8815 Y35.7636
G01 X26.8967 Y35.6609
G01 X26.8997 Y35.6365
G01 X26.9015 Y35.6120
G01 X26.9066 Y35.5083
G01 X26.9072 Y35.4838
G01 X26.9066 Y35.4593
G01 X26.9015 Y35.3556
G01 X26.8997 Y35.3311
G01 X26.8967 Y35.3067
G01 X26.8815 Y35.2040
G01 X26.8773 Y35.1798
G01 X26.8719 Y35.1559
G01 X26.8467 Y35.0552
G01 X26.8401 Y35.0315
G01 X26.8324 Y35.0082
G01 X26.7974 Y34.9105
G01 X26.7886 Y34.8876
G01 X26.7787 Y34.8651
G01 X26.7343 Y34.7713
G01 X26.7289 Y34.7603
G01 X26.7173 Y34.7386
G01 X26.6578 Y34.6390
G01 X26.6513 Y34.6285
G01 X26.6377 Y34.6081
G01 X26.5612 Y34.5050
G01 X26.5456 Y34.4860
G01 X26.5375 Y34.4768
G01 X26.4594 Y34.3909
G01 X26.4421 Y34.3736
G01 X26.4331 Y34.3652
G01 X26.3562 Y34.2955
G01 X26.3376 Y34.2795
G01 X26.3182 Y34.2644
G01 X26.2501 Y34.2138
G00 Z2.0000
G00 X23.9191 Y39.9465
G01 F60.00
G01 Z-0.0500
G01 F80.00
G01 X23.9191 Y39.1337
G01 X24.2560 Y39.1337
G01 X24.3422 Y39.2121
G01 X24.3608 Y39.2281
G01 X24.3802 Y39.2432
G01 X24.4483 Y39.2938
G01 X24.3802 Y39.3444
G01 X24.3608 Y39.3595
G01 X24.3422 Y39.3755
G01 X24.2653 Y39.4452
G01 X24.2475 Y39.4621
G01 X24.2306 Y39.4799
G01 X24.1609 Y39.5568
G01 X24.1449 Y39.5754
G01 X24.1298 Y39.5948
G01 X24.0679 Y39.6782
G01 X24.0538 Y39.6982
G01 X24.0406 Y39.7190
G01 X23.9873 Y39.8080
G01 X23.9752 Y39.8294
G01 X23.9641 Y39.8513
G01 X23.9191 Y39.9465
G00 Z2.0000
G00 X21.6993 Y40.8141
G01 F60.00
G01 Z-0.0500
G01 F80.00
G01 X21.6993 Y41.9685
G01 X20.6345 Y41.9685
G01 X20.6791 Y41.9572
G01 X20.7025 Y41.9500
G01 X20.8137 Y41.9103
G01 X20.8363 Y41.9009
G01 X20.8475 Y41.8958
G01 X20.9320 Y41.8558
G01 X20.9539 Y41.8448
G01 X20.9647 Y41.8389
G01 X21.0554 Y41.7846
G01 X21.0762 Y41.7715
G01 X21.0962 Y41.7574
G01 X21.1811 Y41.6943
G01 X21.1907 Y41.6866
G01 X21.2092 Y41.6706
G01 X21.2785 Y41.6078
G01 X21.2963 Y41.5909
G01 X21.3132 Y41.5731
G01 X21.3760 Y41.5038
G01 X21.3920 Y41.4853
G01 X21.4071 Y41.4659
G01 X21.4628 Y41.3908
G01 X21.4769 Y41.3708
G01 X21.4900 Y41.3500
G01 X21.5381 Y41.2699
G01 X21.5443 Y41.2593
G01 X21.5558 Y41.2376
G01 X21.6012 Y41.1421
G01 X21.6111 Y41.1196
G01 X21.6200 Y41.0967
G01 X21.6554 Y40.9971
G01 X21.6592 Y40.9854
G01 X21.6657 Y40.9618
G01 X21.6884 Y40.8711
G01 X21.6938 Y40.8472
G01 X21.6993 Y40.8141
G00 Z2.0000
G00 X19.9039 Y41.9685
G01 F60.00
G01 Z-0.0500
G01 F80.00
G01 X13.0145 Y41.9685
G01 X13.0591 Y41.9572
G01 X13.0825 Y41.9500
G01 X13.1937 Y41.9103
G01 X13.2050 Y41.9057
G01 X13.2275 Y41.8958
G01 X13.3230 Y41.8504
G01 X13.3339 Y41.8448
G01 X13.3553 Y41.8327
G01 X13.4354 Y41.7846
G01 X13.4562 Y41.7715
G01 X13.4762 Y41.7574
G01 X13.5513 Y41.7017
G01 X13.5707 Y41.6866
G01 X13.5857 Y41.6737
G01 X19.3327 Y41.6737
G01 X19.3477 Y41.6866
G01 X19.3671 Y41.7017
G01 X19.4422 Y41.7574
G01 X19.4622 Y41.7715
G01 X19.4830 Y41.7846
G01 X19.5631 Y41.8327
G01 X19.5737 Y41.8389
G01 X19.5954 Y41.8504
G01 X19.6909 Y41.8958
G01 X19.7134 Y41.9057
G01 X19.7247 Y41.9103
G01 X19.8359 Y41.9500
G01 X19.8593 Y41.9572
G01 X19.9039 Y41.9685
G00 Z2.0000
G00 X20.4308 Y47.0870
G01 F60.00
G01 Z-0.0500
G01 F80.00
G01 X20.5284 Y47.0726
G01 X20.5526 Y47.0684
G01 X20.5765 Y47.0630
G01 X20.6672 Y47.0403
G01 X20.6908 Y47.0338
G01 X20.7141 Y47.0261
G01 X20.8021 Y46.9946
G01 X20.8250 Y46.9857
G01 X20.8475 Y46.9758
G01 X20.9320 Y46.9358
G01 X20.9539 Y46.9248
G01 X20.9753 Y46.9127
G01 X21.0554 Y46.8646
G01 X21.0762 Y46.8515
G01 X21.0962 Y46.8374
G01 X21.1713 Y46.7817
G01 X21.1907 Y46.7666
G01 X21.2092 Y46.7506
G01 X21.2785 Y46.6878
G01 X21.2963 Y46.6709
G01 X21.3132 Y46.6531
G01 X21.3760 Y46.5838
G01 X21.3920 Y46.5653
G01 X21.4071 Y46.5459
G01 X21.4628 Y46.4708
G01 X21.4769 Y46.4508
G01 X21.4900 Y46.4300
G01 X21.5381 Y46.3499
G01 X21.5502 Y46.3285
G01 X21.5612 Y46.3066
G01 X21.6012 Y46.2221
G01 X21.6111 Y46.1996
G01 X21.6200 Y46.1767
G01 X21.6554 Y46.0771
G01 X21.6626 Y46.0537
G01 X21.6657 Y46.0418
G01 X21.6884 Y45.9511
G01 X21.6938 Y45.9272
G01 X21.6980 Y45.9030
G01 X21.7117 Y45.8105
G01 X21.7147 Y45.7862
G01 X21.7165 Y45.7617
G01 X21.7211 Y45.6683
G01 X21.7217 Y45.6438
G01 X21.7211 Y45.6193
G01 X21.7165 Y45.5259
G01 X21.7147 Y45.5014
G01 X21.7117 Y45.4771
G01 X21.6980 Y45.3846
G01 X21.6938 Y45.3604
G01 X21.6884 Y45.3365
G01 X21.6657 Y45.2458
G01 X21.6592 Y45.2222
G01 X21.6515 Y45.1989
G01 X21.6200 Y45.1109
G01 X21.6111 Y45.0880
G01 X21.6063 Y45.0767
G01 X21.5612 Y44.9810
G01 X21.5502 Y44.9591
G01 X21.5381 Y44.9377
G01 X21.4900 Y44.8576
G01 X21.4769 Y44.8368
G01 X21.4628 Y44.8168
G01 X21.3997 Y44.7319
G01 X21.3920 Y44.7223
G01 X21.3791 Y44.7073
G01 X21.3791 Y44.1883
G01 X22.8215 Y44.1882
G01 X22.8935 Y44.1848
G01 X22.9180 Y44.1830
G01 X22.9423 Y44.1800
G01 X23.0016 Y44.1712
G01 X23.0257 Y44.1670
G01 X23.0377 Y44.1644
G01 X23.1077 Y44.1471
G01 X23.1314 Y44.1405
G01 X23.1547 Y44.1328
G01 X23.2110 Y44.1126
G01 X23.2339 Y44.1038
G01 X23.2452 Y44.0990
G01 X23.3105 Y44.0683
G01 X23.3215 Y44.0629
G01 X23.3432 Y44.0513
G01 X23.4155 Y44.0079
G01 X23.4359 Y43.9943
G01 X23.4459 Y43.9871
G01 X23.5037 Y43.9440
G01 X23.5133 Y43.9364
G01 X23.5319 Y43.9203
G01 X23.5762 Y43.8801
G01 X23.5940 Y43.8632
G01 X23.6109 Y43.8454
G01 X23.6511 Y43.8011
G01 X23.6672 Y43.7825
G01 X23.6748 Y43.7729
G01 X23.7251 Y43.7051
G01 X23.7387 Y43.6847
G01 X23.7760 Y43.6230
G01 X23.7821 Y43.6124
G01 X23.7937 Y43.5907
G01 X23.8298 Y43.5144
G01 X23.8392 Y43.4917
G01 X23.8434 Y43.4802
G01 X23.8636 Y43.4239
G01 X23.8713 Y43.4006
G01 X23.8779 Y43.3769
G01 X23.8924 Y43.3189
G01 X23.8978 Y43.2949
G01 X23.9000 Y43.2829
G01 X23.9124 Y43.1994
G01 X23.9138 Y43.1872
G01 X23.9156 Y43.1627
G01 X23.9185 Y43.1029
G01 X23.9191 Y43.0784
G01 X23.9191 Y41.1811
G01 X23.9641 Y41.2763
G01 X23.9752 Y41.2982
G01 X23.9873 Y41.3196
G01 X24.0406 Y41.4086
G01 X24.0538 Y41.4294
G01 X24.0679 Y41.4494
G01 X24.1298 Y41.5328
G01 X24.1449 Y41.5522
G01 X24.1609 Y41.5708
G01 X24.2393 Y41.6570
G01 X24.2393 Y44.7073
G01 X24.2264 Y44.7223
G01 X24.2187 Y44.7319
G01 X24.1484 Y44.8267
G01 X24.1415 Y44.8368
G01 X24.1284 Y44.8576
G01 X24.0803 Y44.9377
G01 X24.0682 Y44.9591
G01 X24.0626 Y44.9700
G01 X24.0172 Y45.0655
G01 X24.0073 Y45.0880
G01 X23.9984 Y45.1109
G01 X23.9669 Y45.1989
G01 X23.9592 Y45.2222
G01 X23.9527 Y45.2458
G01 X23.9300 Y45.3365
G01 X23.9246 Y45.3604
G01 X23.9204 Y45.3846
G01 X23.9067 Y45.4771
G01 X23.9037 Y45.5014
G01 X23.9019 Y45.5259
G01 X23.8973 Y45.6193
G01 X23.8967 Y45.6438
G01 X23.8973 Y45.6683
G01 X23.9019 Y45.7617
G01 X23.9037 Y45.7862
G01 X23.9067 Y45.8105
G01 X23.9204 Y45.9030
G01 X23.9246 Y45.9272
G01 X23.9300 Y45.9511
G01 X23.9527 Y46.0418
G01 X23.9592 Y46.0654
G01 X23.9669 Y46.0887
G01 X23.9984 Y46.1767
G01 X24.0073 Y46.1996
G01 X24.0172 Y46.2221
G01 X24.0626 Y46.3176
G01 X24.0741 Y46.3393
G01 X24.0803 Y46.3499
G01 X24.1284 Y46.4300
G01 X24.1415 Y46.4508
G01 X24.1556 Y46.4708
G01 X24.2113 Y46.5459
G01 X24.2187 Y46.5557
G01 X24.2333 Y46.5734
G01 X24.2271 Y47.0965
G01 X20.4308 Y47.0870
G00 Z2.0000
G00 X15.5545 Y57.2085
G01 F60.00
G01 Z-0.0500
G01 F80.00
G01 X15.5991 Y57.1972
G01 X15.6225 Y57.1900
G01 X15.7337 Y57.1503
G01 X15.7563 Y57.1409
G01 X15.7675 Y57.1358
G01 X15.8520 Y57.0958
G01 X15.8630 Y57.0904
G01 X15.8847 Y57.0789
G01 X15.9754 Y57.0246
G01 X15.9962 Y57.0115
G01 X16.0162 Y56.9974
G01 X16.0913 Y56.9417
G01 X16.1107 Y56.9266
G01 X16.1200 Y56.9187
G01 X16.2075 Y56.8394
G01 X16.2248 Y56.8221
G01 X16.2332 Y56.8131
G01 X16.2960 Y56.7438
G01 X16.3120 Y56.7253
G01 X16.3271 Y56.7059
G01 X16.3828 Y56.6308
G01 X16.3969 Y56.6108
G01 X16.4100 Y56.5900
G01 X16.4581 Y56.5099
G01 X16.4702 Y56.4885
G01 X16.4812 Y56.4666
G01 X16.5212 Y56.3821
G01 X16.5311 Y56.3596
G01 X16.5400 Y56.3367
G01 X16.5715 Y56.2487
G01 X16.5754 Y56.2371
G01 X16.5826 Y56.2137
G01 X16.6084 Y56.1111
G01 X16.6138 Y56.0872
G01 X16.6180 Y56.0630
G01 X16.6317 Y55.9705
G01 X16.6334 Y55.9584
G01 X16.6358 Y55.9339
G01 X16.6411 Y55.8283
G01 X16.6415 Y55.8161
G01 X16.6415 Y55.7915
G01 X16.6358 Y55.6737
G01 X16.6334 Y55.6492
G01 X16.6317 Y55.6371
G01 X16.6180 Y55.5446
G01 X16.6138 Y55.5204
G01 X16.6084 Y55.4965
G01 X16.5857 Y55.4058
G01 X16.5792 Y55.3822
G01 X16.5715 Y55.3589
G01 X16.5400 Y55.2709
G01 X16.5311 Y55.2480
G01 X16.5212 Y55.2255
G01 X16.4812 Y55.1410
G01 X16.4702 Y55.1191
G01 X16.4581 Y55.0977
G01 X16.4100 Y55.0176
G01 X16.3969 Y54.9968
G01 X16.3828 Y54.9768
G01 X16.3271 Y54.9017
G01 X16.3197 Y54.8919
G01 X16.3049 Y54.8740
G01 X16.3111 Y54.3737
G01 X20.0189 Y54.3737
G01 X19.9979 Y54.3770
G01 X19.9738 Y54.3818
G01 X19.8712 Y54.4073
G01 X19.8476 Y54.4138
G01 X19.8243 Y54.4215
G01 X19.7363 Y54.4530
G01 X19.7134 Y54.4619
G01 X19.6909 Y54.4718
G01 X19.6064 Y54.5118
G01 X19.5845 Y54.5228
G01 X19.5631 Y54.5349
G01 X19.4725 Y54.5894
G01 X19.4521 Y54.6030
G01 X19.4422 Y54.6102
G01 X19.3671 Y54.6659
G01 X19.3477 Y54.6810
G01 X19.3292 Y54.6970
G01 X19.2599 Y54.7598
G01 X19.2421 Y54.7767
G01 X19.2252 Y54.7945
G01 X19.1624 Y54.8638
G01 X19.1464 Y54.8823
G01 X19.1313 Y54.9017
G01 X19.0756 Y54.9768
G01 X19.0615 Y54.9968
G01 X19.0484 Y55.0176
G01 X19.0003 Y55.0977
G01 X18.9882 Y55.1191
G01 X18.9772 Y55.1410
G01 X18.9372 Y55.2255
G01 X18.9273 Y55.2480
G01 X18.9184 Y55.2709
G01 X18.8869 Y55.3589
G01 X18.8792 Y55.3822
G01 X18.8727 Y55.4058
G01 X18.8500 Y55.4965
G01 X18.8446 Y55.5204
G01 X18.8404 Y55.5446
G01 X18.8267 Y55.6371
G01 X18.8237 Y55.6614
G01 X18.8219 Y55.6859
G01 X18.8173 Y55.7793
G01 X18.8167 Y55.8038
G01 X18.8173 Y55.8283
G01 X18.8219 Y55.9217
G01 X18.8226 Y55.9339
G01 X18.8250 Y55.9584
G01 X18.8424 Y56.0751
G01 X18.8446 Y56.0872
G01 X18.8500 Y56.1111
G01 X18.8727 Y56.2018
G01 X18.8792 Y56.2254
G01 X18.8869 Y56.2487
G01 X18.9184 Y56.3367
G01 X18.9273 Y56.3596
G01 X18.9372 Y56.3821
G01 X18.9772 Y56.4666
G01 X18.9882 Y56.4885
G01 X19.0003 Y56.5099
G01 X19.0484 Y56.5900
G01 X19.0615 Y56.6108
G01 X19.0756 Y56.6308
G01 X19.1387 Y56.7157
G01 X19.1543 Y56.7346
G01 X19.1716 Y56.7540
G01 X19.1827 Y57.2085
G01 X15.5545 Y57.2085
G00 Z2.0000
G00 X11.2222 Y59.9226
G01 F60.00
G01 Z-0.0500
G01 F80.00
G01 X11.1786 Y59.8745
G01 X11.1617 Y59.8567
G01 X11.1439 Y59.8398
G01 X11.0746 Y59.7770
G01 X11.0654 Y59.7689
G01 X11.0465 Y59.7533
G01 X10.9517 Y59.6830
G01 X10.9313 Y59.6694
G01 X10.9208 Y59.6630
G01 X10.8407 Y59.6149
G01 X10.8193 Y59.6028
G01 X10.7974 Y59.5918
G01 X10.7129 Y59.5518
G01 X10.7017 Y59.5467
G01 X10.6791 Y59.5373
G01 X10.5679 Y59.4976
G01 X10.5445 Y59.4904
G01 X10.5326 Y59.4873
G01 X10.4419 Y59.4646
G01 X10.4180 Y59.4592
G01 X10.3938 Y59.4550
G01 X10.3013 Y59.4413
G01 X10.2770 Y59.4383
G01 X10.2525 Y59.4365
G01 X10.1591 Y59.4319
G01 X10.1346 Y59.4313
G01 X10.1101 Y59.4319
G01 X10.0167 Y59.4365
G01 X9.9922 Y59.4383
G01 X9.9679 Y59.4413
G01 X9.8754 Y59.4550
G01 X9.8512 Y59.4592
G01 X9.8273 Y59.4646
G01 X9.7366 Y59.4873
G01 X9.7130 Y59.4938
G01 X9.6897 Y59.5015
G01 X9.6017 Y59.5330
G01 X9.5788 Y59.5419
G01 X9.5563 Y59.5518
G01 X9.4718 Y59.5918
G01 X9.4499 Y59.6028
G01 X9.4285 Y59.6149
G01 X9.3484 Y59.6630
G01 X9.3276 Y59.6761
G01 X9.3076 Y59.6902
G01 X9.2325 Y59.7459
G01 X9.2131 Y59.7610
G01 X9.1946 Y59.7770
G01 X9.1253 Y59.8398
G01 X9.1075 Y59.8567
G01 X9.0906 Y59.8745
G01 X9.0278 Y59.9438
G01 X9.0118 Y59.9623
G01 X8.9967 Y59.9817
G01 X8.9410 Y60.0568
G01 X8.9338 Y60.0667
G01 X8.9202 Y60.0871
G01 X8.8646 Y60.1796
G01 X8.8154 Y60.0976
G01 X8.8023 Y60.0768
G01 X8.7882 Y60.0568
G01 X8.7325 Y59.9817
G01 X8.7174 Y59.9623
G01 X8.7014 Y59.9438
G01 X8.6386 Y59.8745
G01 X8.6217 Y59.8567
G01 X8.6039 Y59.8398
G01 X8.5346 Y59.7770
G01 X8.5161 Y59.7610
G01 X8.4967 Y59.7459
G01 X8.4117 Y59.6830
G01 X8.3913 Y59.6694
G01 X8.3808 Y59.6630
G01 X8.3007 Y59.6149
G01 X8.2793 Y59.6028
G01 X8.2574 Y59.5918
G01 X8.1729 Y59.5518
G01 X8.1504 Y59.5419
G01 X8.1275 Y59.5330
G01 X8.0395 Y59.5015
G01 X8.0162 Y59.4938
G01 X7.9926 Y59.4873
G01 X7.9019 Y59.4646
G01 X7.8780 Y59.4592
G01 X7.8538 Y59.4550
G01 X7.7613 Y59.4413
G01 X7.7370 Y59.4383
G01 X7.7125 Y59.4365
G01 X7.6191 Y59.4319
G01 X7.5946 Y59.4313
G01 X7.5701 Y59.4319
G01 X7.4645 Y59.4372
G01 X7.4400 Y59.4396
G01 X7.4279 Y59.4413
G01 X7.3354 Y59.4550
G01 X7.3112 Y59.4592
G01 X7.2873 Y59.4646
G01 X7.1966 Y59.4873
G01 X7.1847 Y59.4904
G01 X7.1613 Y59.4976
G01 X7.0617 Y59.5330
G01 X7.0388 Y59.5419
G01 X7.0163 Y59.5518
G01 X6.9318 Y59.5918
G01 X6.9099 Y59.6028
G01 X6.8885 Y59.6149
G01 X6.8084 Y59.6630
G01 X6.7876 Y59.6761
G01 X6.7676 Y59.6902
G01 X6.6925 Y59.7459
G01 X6.6731 Y59.7610
G01 X6.6546 Y59.7770
G01 X6.5763 Y59.8482
G01 X6.5675 Y59.8567
G01 X6.5506 Y59.8745
G01 X6.4878 Y59.9438
G01 X6.4718 Y59.9623
G01 X6.4567 Y59.9817
G01 X6.4010 Y60.0568
G01 X6.3869 Y60.0768
G01 X6.3738 Y60.0976
G01 X6.3257 Y60.1777
G01 X6.3136 Y60.1991
G01 X6.3026 Y60.2210
G01 X6.2626 Y60.3055
G01 X6.2527 Y60.3280
G01 X6.2438 Y60.3509
G01 X6.2123 Y60.4389
G01 X6.2046 Y60.4622
G01 X6.1981 Y60.4858
G01 X6.1754 Y60.5765
G01 X6.1700 Y60.6004
G01 X6.1658 Y60.6246
G01 X6.1504 Y60.7292
G01 X6.1480 Y60.7537
G01 X6.1473 Y60.7659
G01 X6.1427 Y60.8593
G01 X6.1421 Y60.8838
G01 X6.1427 Y60.9083
G01 X6.1473 Y61.0017
G01 X6.1491 Y61.0262
G01 X6.1521 Y61.0505
G01 X6.1658 Y61.1430
G01 X6.1700 Y61.1672
G01 X6.1754 Y61.1911
G01 X6.1981 Y61.2818
G01 X6.2046 Y61.3054
G01 X6.2123 Y61.3287
G01 X6.2481 Y61.4283
G01 X6.2527 Y61.4396
G01 X6.2626 Y61.4621
G01 X6.3026 Y61.5466
G01 X6.3136 Y61.5685
G01 X6.3257 Y61.5899
G01 X6.3738 Y61.6700
G01 X6.3869 Y61.6908
G01 X6.4010 Y61.7108
G01 X6.4567 Y61.7859
G01 X6.4718 Y61.8053
G01 X6.4878 Y61.8238
G01 X6.5590 Y61.9021
G01 X6.5675 Y61.9109
G01 X6.5853 Y61.9278
G01 X6.6546 Y61.9906
G01 X6.6731 Y62.0066
G01 X6.6925 Y62.0217
G01 X6.7676 Y62.0774
G01 X6.7876 Y62.0915
G01 X6.8084 Y62.1046
G01 X6.8885 Y62.1527
G01 X6.9099 Y62.1648
G01 X6.9208 Y62.1704
G01 X7.0163 Y62.2158
G01 X7.0388 Y62.2257
G01 X7.0617 Y62.2346
G01 X7.1497 Y62.2661
G01 X7.1730 Y62.2738
G01 X7.1966 Y62.2803
G01 X7.2873 Y62.3030
G01 X7.3112 Y62.3084
G01 X7.3354 Y62.3126
G01 X7.4055 Y62.3230
G01 X3.6245 Y62.3356
G01 X3.6245 Y40.9291
G01 X3.6358 Y40.9737
G01 X3.6430 Y40.9971
G01 X3.6827 Y41.1083
G01 X3.6921 Y41.1309
G01 X3.6972 Y41.1421
G01 X3.7372 Y41.2266
G01 X3.7426 Y41.2376
G01 X3.7541 Y41.2593
G01 X3.8084 Y41.3500
G01 X3.8215 Y41.3708
G01 X3.8356 Y41.3908
G01 X3.8913 Y41.4659
G01 X3.9064 Y41.4853
G01 X3.9224 Y41.5038
G01 X3.9852 Y41.5731
G01 X4.0021 Y41.5909
G01 X4.0109 Y41.5994
G01 X4.0892 Y41.6706
G01 X4.1077 Y41.6866
G01 X4.1271 Y41.7017
G01 X4.2022 Y41.7574
G01 X4.2222 Y41.7715
G01 X4.2430 Y41.7846
G01 X4.3231 Y41.8327
G01 X4.3445 Y41.8448
G01 X4.3664 Y41.8558
G01 X4.4509 Y41.8958
G01 X4.4734 Y41.9057
G01 X4.4963 Y41.9146
G01 X4.5843 Y41.9461
G01 X4.6076 Y41.9538
G01 X4.6312 Y41.9603
G01 X4.7219 Y41.9830
G01 X4.7458 Y41.9884
G01 X4.7700 Y41.9926
G01 X4.8625 Y42.0063
G01 X4.8868 Y42.0093
G01 X4.9113 Y42.0111
G01 X5.0047 Y42.0157
G01 X5.0292 Y42.0163
G01 X5.0537 Y42.0157
G01 X5.1471 Y42.0111
G01 X5.1716 Y42.0093
G01 X5.1959 Y42.0063
G01 X5.2884 Y41.9926
G01 X5.3126 Y41.9884
G01 X5.3365 Y41.9830
G01 X5.4272 Y41.9603
G01 X5.4508 Y41.9538
G01 X5.4741 Y41.9461
G01 X5.5621 Y41.9146
G01 X5.5850 Y41.9057
G01 X5.6075 Y41.8958
G01 X5.7030 Y41.8504
G01 X5.7247 Y41.8389
G01 X5.7353 Y41.8327
G01 X5.8154 Y41.7846
G01 X5.8259 Y41.7782
G01 X5.8463 Y41.7646
G01 X5.9411 Y41.6943
G01 X5.9600 Y41.6787
G01 X6.0009 Y41.6419
G01 X6.4593 Y41.6364
G01 X6.4594 Y55.8161
G01 X6.4628 Y55.8881
G01 X6.4646 Y55.9126
G01 X6.4676 Y55.9369
G01 X6.4764 Y55.9962
G01 X6.4784 Y56.0083
G01 X6.4832 Y56.0323
G01 X6.5005 Y56.1023
G01 X6.5071 Y56.1260
G01 X6.5148 Y56.1493
G01 X6.5350 Y56.2056
G01 X6.5438 Y56.2285
G01 X6.5537 Y56.2510
G01 X6.5793 Y56.3051
G01 X6.5904 Y56.3270
G01 X6.6024 Y56.3484
G01 X6.6397 Y56.4101
G01 X6.6533 Y56.4305
G01 X6.6961 Y56.4886
G01 X6.7112 Y56.5079
G01 X6.7273 Y56.5265
G01 X6.7675 Y56.5708
G01 X6.7844 Y56.5886
G01 X6.8022 Y56.6055
G01 X6.8465 Y56.6457
G01 X6.8651 Y56.6618
G01 X6.8844 Y56.6769
G01 X6.9325 Y56.7125
G01 X6.9526 Y56.7267
G01 X6.9733 Y56.7398
G01 X7.0246 Y56.7706
G01 X7.0460 Y56.7826
G01 X7.0679 Y56.7937
G01 X7.1220 Y56.8193
G01 X7.1445 Y56.8292
G01 X7.1674 Y56.8380
G01 X7.2237 Y56.8582
G01 X7.2470 Y56.8659
G01 X7.2707 Y56.8725
G01 X7.3287 Y56.8870
G01 X7.3407 Y56.8898
G01 X7.3647 Y56.8946
G01 X7.4482 Y56.9070
G01 X7.4726 Y56.9094
G01 X7.4849 Y56.9102
G01 X7.5569 Y56.9136
G01 X9.1727 Y56.9137
G01 X9.1877 Y56.9266
G01 X9.1973 Y56.9343
G01 X9.2822 Y56.9974
G01 X9.3022 Y57.0115
G01 X9.3230 Y57.0246
G01 X9.4031 Y57.0727
G01 X9.4245 Y57.0848
G01 X9.4464 Y57.0958
G01 X9.5309 Y57.1358
G01 X9.5534 Y57.1457
G01 X9.5763 Y57.1546
G01 X9.6643 Y57.1861
G01 X9.6876 Y57.1938
G01 X9.7112 Y57.2003
G01 X9.8019 Y57.2230
G01 X9.8258 Y57.2284
G01 X9.8500 Y57.2326
G01 X9.9425 Y57.2463
G01 X9.9668 Y57.2493
G01 X9.9913 Y57.2511
G01 X10.0847 Y57.2557
G01 X10.1092 Y57.2563
G01 X10.1337 Y57.2557
G01 X10.2271 Y57.2511
G01 X10.2516 Y57.2493
G01 X10.2759 Y57.2463
G01 X10.3684 Y57.2326
G01 X10.3926 Y57.2284
G01 X10.4165 Y57.2230
G01 X10.5072 Y57.2003
G01 X10.5308 Y57.1938
G01 X10.5541 Y57.1861
G01 X10.6421 Y57.1546
G01 X10.6650 Y57.1457
G01 X10.6875 Y57.1358
G01 X10.7720 Y57.0958
G01 X10.7939 Y57.0848
G01 X10.8153 Y57.0727
G01 X10.8954 Y57.0246
G01 X10.9162 Y57.0115
G01 X10.9362 Y56.9974
G01 X11.0113 Y56.9417
G01 X11.0307 Y56.9266
G01 X11.0457 Y56.9137
G01 X14.2527 Y56.9137
G01 X14.2677 Y56.9266
G01 X14.2871 Y56.9417
G01 X14.3622 Y56.9974
G01 X14.3822 Y57.0115
G01 X14.4030 Y57.0246
G01 X14.4831 Y57.0727
G01 X14.5045 Y57.0848
G01 X14.5154 Y57.0904
G01 X14.6109 Y57.1358
G01 X14.6221 Y57.1409
G01 X14.6447 Y57.1503
G01 X14.7559 Y57.1900
G01 X14.7793 Y57.1972
G01 X14.8239 Y57.2085
G01 X12.6746 Y57.2085
G01 X12.6501 Y57.2091
G01 X12.5780 Y57.2128
G01 X12.5536 Y57.2152
G01 X12.4822 Y57.2256
G01 X12.4581 Y57.2298
G01 X12.4341 Y57.2352
G01 X12.3761 Y57.2497
G01 X12.3524 Y57.2563
G01 X12.3291 Y57.2640
G01 X12.2613 Y57.2884
G01 X12.2499 Y57.2930
G01 X12.2274 Y57.3029
G01 X12.1623 Y57.3339
G01 X12.1406 Y57.3455
G01 X12.0787 Y57.3824
G01 X12.0580 Y57.3955
G01 X12.0379 Y57.4097
G01 X11.9898 Y57.4453
G01 X11.9705 Y57.4604
G01 X11.9519 Y57.4765
G01 X11.8986 Y57.5250
G01 X11.8812 Y57.5424
G01 X11.8729 Y57.5514
G01 X11.8327 Y57.5957
G01 X11.8166 Y57.6143
G01 X11.8015 Y57.6336
G01 X11.7659 Y57.6817
G01 X11.7517 Y57.7018
G01 X11.7386 Y57.7225
G01 X11.7078 Y57.7738
G01 X11.6958 Y57.7952
G01 X11.6847 Y57.8171
G01 X11.6591 Y57.8712
G01 X11.6492 Y57.8937
G01 X11.6446 Y57.9051
G01 X11.6202 Y57.9729
G01 X11.6125 Y57.9962
G01 X11.6059 Y58.0199
G01 X11.5886 Y58.0899
G01 X11.5838 Y58.1139
G01 X11.5818 Y58.1260
G01 X11.5730 Y58.1853
G01 X11.5700 Y58.2096
G01 X11.5682 Y58.2341
G01 X11.5648 Y58.3061
G01 X11.5647 Y59.4567
G01 X11.5422 Y59.4648
G01 X11.5195 Y59.4742
G01 X11.5083 Y59.4793
G01 X11.4864 Y59.4903
G01 X11.4651 Y59.5024
G01 X11.4546 Y59.5089
G01 X11.4342 Y59.5225
G01 X11.4243 Y59.5297
G01 X11.4145 Y59.5371
G01 X11.3955 Y59.5527
G01 X11.3773 Y59.5692
G01 X11.3685 Y59.5777
G01 X11.3600 Y59.5865
G01 X11.3435 Y59.6047
G01 X11.3356 Y59.6141
G01 X11.3205 Y59.6335
G01 X11.3133 Y59.6434
G01 X11.2997 Y59.6638
G01 X11.2871 Y59.6849
G01 X11.2755 Y59.7065
G01 X11.2701 Y59.7175
G01 X11.2602 Y59.7400
G01 X11.2556 Y59.7514
G01 X11.2473 Y59.7745
G01 X11.2402 Y59.7979
G01 X11.2371 Y59.8098
G01 X11.2317 Y59.8338
G01 X11.2295 Y59.8458
G01 X11.2275 Y59.8579
G01 X11.2245 Y59.8823
G01 X11.2227 Y59.9068
G01 X11.2222 Y59.9226
G00 Z2.0000
G00 X11.5742 Y62.3139
G01 F60.00
G01 Z-0.0500
G01 F80.00
G01 X11.2445 Y62.3139
G01 X11.2445 Y61.9842
G01 X11.2513 Y62.0047
G01 X11.2556 Y62.0162
G01 X11.2650 Y62.0389
G01 X11.2701 Y62.0501
G01 X11.2811 Y62.0720
G01 X11.2932 Y62.0933
G01 X11.3064 Y62.1141
G01 X11.3205 Y62.1341
G01 X11.3279 Y62.1439
G01 X11.3435 Y62.1629
G01 X11.3600 Y62.1811
G01 X11.3685 Y62.1899
G01 X11.3773 Y62.1984
G01 X11.3955 Y62.2149
G01 X11.4145 Y62.2305
G01 X11.4243 Y62.2379
G01 X11.4443 Y62.2520
G01 X11.4651 Y62.2652
G01 X11.4757 Y62.2713
G01 X11.4973 Y62.2829
G01 X11.5195 Y62.2934
G01 X11.5422 Y62.3028
G01 X11.5537 Y62.3071
G01 X11.5742 Y62.3139
G00 Z2.0000
G00 X8.8646 Y61.5880
G01 F60.00
G01 Z-0.0500
G01 F80.00
G01 X8.9138 Y61.6700
G01 X8.9269 Y61.6908
G01 X8.9338 Y61.7009
G01 X9.0041 Y61.7957
G01 X9.0118 Y61.8053
G01 X9.0247 Y61.8203
G01 X9.0247 Y62.3176
G01 X7.7923 Y62.3217
G01 X7.8538 Y62.3126
G01 X7.8780 Y62.3084
G01 X7.9019 Y62.3030
G01 X8.0045 Y62.2772
G01 X8.0162 Y62.2738
G01 X8.0395 Y62.2661
G01 X8.1391 Y62.2303
G01 X8.1504 Y62.2257
G01 X8.1729 Y62.2158
G01 X8.2574 Y62.1758
G01 X8.2793 Y62.1648
G01 X8.3007 Y62.1527
G01 X8.3808 Y62.1046
G01 X8.4016 Y62.0915
G01 X8.4216 Y62.0774
G01 X8.4967 Y62.0217
G01 X8.5161 Y62.0066
G01 X8.5346 Y61.9906
G01 X8.6039 Y61.9278
G01 X8.6217 Y61.9109
G01 X8.6386 Y61.8931
G01 X8.7014 Y61.8238
G01 X8.7174 Y61.8053
G01 X8.7325 Y61.7859
G01 X8.7882 Y61.7108
G01 X8.8023 Y61.6908
G01 X8.8090 Y61.6805
G01 X8.8646 Y61.5880
G00 Z2.0000
G00 X8.8646 Y69.2080
G01 F60.00
G01 Z-0.0500
G01 F80.00
G01 X8.8154 Y69.2900
G01 X8.8023 Y69.3108
G01 X8.7882 Y69.3308
G01 X8.7325 Y69.4059
G01 X8.7169 Y69.4258
G01 X8.7169 Y74.7620
G01 X8.7327 Y74.7757
G01 X8.8247 Y74.8590
G01 X8.8424 Y74.8760
G01 X8.8594 Y74.8937
G01 X8.9427 Y74.9857
G01 X8.9587 Y75.0043
G01 X8.9738 Y75.0236
G01 X9.0478 Y75.1233
G01 X9.0619 Y75.1434
G01 X9.0750 Y75.1641
G01 X9.1388 Y75.2706
G01 X9.1509 Y75.2919
G01 X9.1620 Y75.3138
G01 X9.2150 Y75.4260
G01 X9.2201 Y75.4372
G01 X9.2295 Y75.4599
G01 X9.2756 Y75.5882
G01 X9.2833 Y75.6115
G01 X9.2899 Y75.6352
G01 X9.3200 Y75.7556
G01 X9.3254 Y75.7795
G01 X9.3296 Y75.8037
G01 X9.3478 Y75.9265
G01 X9.3508 Y75.9508
G01 X9.3526 Y75.9753
G01 X9.3587 Y76.0993
G01 X9.3593 Y76.1238
G01 X9.3587 Y76.1483
G01 X9.3526 Y76.2723
G01 X9.3508 Y76.2968
G01 X9.3478 Y76.3211
G01 X9.3296 Y76.4439
G01 X9.3254 Y76.4681
G01 X9.3229 Y76.4801
G01 X9.2899 Y76.6124
G01 X9.2833 Y76.6361
G01 X9.2756 Y76.6594
G01 X9.2338 Y76.7762
G01 X9.2250 Y76.7991
G01 X9.2150 Y76.8216
G01 X9.1620 Y76.9338
G01 X9.1509 Y76.9557
G01 X9.1450 Y76.9664
G01 X9.0750 Y77.0835
G01 X9.0619 Y77.1042
G01 X9.0478 Y77.1243
G01 X8.9738 Y77.2240
G01 X8.9587 Y77.2433
G01 X8.9427 Y77.2619
G01 X8.8594 Y77.3539
G01 X8.8424 Y77.3716
G01 X8.8247 Y77.3886
G01 X8.7327 Y77.4719
G01 X8.7141 Y77.4879
G01 X8.6948 Y77.5030
G01 X8.5951 Y77.5770
G01 X8.5750 Y77.5911
G01 X8.5543 Y77.6042
G01 X8.4478 Y77.6680
G01 X8.4265 Y77.6801
G01 X8.4046 Y77.6912
G01 X8.2924 Y77.7442
G01 X8.2699 Y77.7542
G01 X8.2585 Y77.7587
G01 X8.1302 Y77.8048
G01 X8.1069 Y77.8125
G01 X8.0832 Y77.8191
G01 X7.9628 Y77.8492
G01 X7.9509 Y77.8521
G01 X7.9268 Y77.8568
G01 X7.7919 Y77.8770
G01 X7.7676 Y77.8800
G01 X7.7431 Y77.8818
G01 X7.6191 Y77.8879
G01 X7.5946 Y77.8885
G01 X7.5701 Y77.8879
G01 X7.4461 Y77.8818
G01 X7.4216 Y77.8800
G01 X7.3973 Y77.8770
G01 X7.2745 Y77.8588
G01 X7.2503 Y77.8546
G01 X7.2264 Y77.8492
G01 X7.1060 Y77.8191
G01 X7.0823 Y77.8125
G01 X7.0590 Y77.8048
G01 X6.9422 Y77.7630
G01 X6.9193 Y77.7542
G01 X6.8968 Y77.7442
G01 X6.7846 Y77.6912
G01 X6.7627 Y77.6801
G01 X6.7414 Y77.6680
G01 X6.6349 Y77.6042
G01 X6.6142 Y77.5911
G01 X6.5941 Y77.5770
G01 X6.4944 Y77.5030
G01 X6.4751 Y77.4879
G01 X6.4565 Y77.4719
G01 X6.3645 Y77.3886
G01 X6.3468 Y77.3716
G01 X6.3298 Y77.3539
G01 X6.2465 Y77.2619
G01 X6.2305 Y77.2433
G01 X6.2154 Y77.2240
G01 X6.1414 Y77.1243
G01 X6.1273 Y77.1042
G01 X6.1142 Y77.0835
G01 X6.0504 Y76.9770
G01 X6.0383 Y76.9557
G01 X6.0272 Y76.9338
G01 X5.9742 Y76.8216
G01 X5.9642 Y76.7991
G01 X5.9554 Y76.7762
G01 X5.9136 Y76.6594
G01 X5.9059 Y76.6361
G01 X5.8993 Y76.6124
G01 X5.8692 Y76.4920
G01 X5.8638 Y76.4681
G01 X5.8596 Y76.4439
G01 X5.8414 Y76.3211
G01 X5.8384 Y76.2968
G01 X5.8366 Y76.2723
G01 X5.8300 Y76.1361
G01 X5.8299 Y76.1238
G01 X5.8305 Y76.0993
G01 X5.8366 Y75.9753
G01 X5.8384 Y75.9508
G01 X5.8414 Y75.9265
G01 X5.8596 Y75.8037
G01 X5.8638 Y75.7795
G01 X5.8692 Y75.7556
G01 X5.8993 Y75.6352
G01 X5.9059 Y75.6115
G01 X5.9136 Y75.5882
G01 X5.9554 Y75.4714
G01 X5.9642 Y75.4485
G01 X5.9742 Y75.4260
G01 X6.0272 Y75.3138
G01 X6.0383 Y75.2919
G01 X6.0504 Y75.2706
G01 X6.1142 Y75.1641
G01 X6.1273 Y75.1434
G01 X6.1414 Y75.1233
G01 X6.2228 Y75.0139
G01 X6.2305 Y75.0043
G01 X6.2465 Y74.9857
G01 X6.3298 Y74.8937
G01 X6.3468 Y74.8760
G01 X6.3556 Y74.8674
G01 X6.4565 Y74.7757
G01 X6.4751 Y74.7597
G01 X6.4977 Y74.7421
G01 X6.4977 Y69.4547
G01 X6.4797 Y69.4346
G01 X6.4718 Y69.4253
G01 X6.4567 Y69.4059
G01 X6.3938 Y69.3209
G01 X6.3869 Y69.3108
G01 X6.3738 Y69.2900
G01 X6.3257 Y69.2099
G01 X6.3136 Y69.1885
G01 X6.3026 Y69.1666
G01 X6.2626 Y69.0821
G01 X6.2527 Y69.0596
G01 X6.2481 Y69.0483
G01 X6.2123 Y68.9487
G01 X6.2046 Y68.9254
G01 X6.1981 Y68.9018
G01 X6.1754 Y68.8111
G01 X6.1700 Y68.7872
G01 X6.1658 Y68.7630
G01 X6.1521 Y68.6705
G01 X6.1491 Y68.6462
G01 X6.1473 Y68.6217
G01 X6.1423 Y68.5161
G01 X6.1421 Y68.5038
G01 X6.1427 Y68.4793
G01 X6.1473 Y68.3859
G01 X6.1491 Y68.3614
G01 X6.1521 Y68.3371
G01 X6.1658 Y68.2446
G01 X6.1700 Y68.2204
G01 X6.1754 Y68.1965
G01 X6.1981 Y68.1058
G01 X6.2046 Y68.0822
G01 X6.2123 Y68.0589
G01 X6.2438 Y67.9709
G01 X6.2527 Y67.9480
G01 X6.2626 Y67.9255
G01 X6.3026 Y67.8410
G01 X6.3136 Y67.8191
G01 X6.3257 Y67.7977
G01 X6.3738 Y67.7176
G01 X6.3869 Y67.6968
G01 X6.4010 Y67.6768
G01 X6.4567 Y67.6017
G01 X6.4718 Y67.5823
G01 X6.4878 Y67.5638
G01 X6.5506 Y67.4945
G01 X6.5675 Y67.4767
G01 X6.5853 Y67.4598
G01 X6.6546 Y67.3970
G01 X6.6731 Y67.3810
G01 X6.6925 Y67.3659
G01 X6.7676 Y67.3102
G01 X6.7876 Y67.2961
G01 X6.8084 Y67.2830
G01 X6.8885 Y67.2349
G01 X6.9099 Y67.2228
G01 X6.9318 Y67.2118
G01 X7.0163 Y67.1718
G01 X7.0388 Y67.1619
G01 X7.0617 Y67.1530
G01 X7.1497 Y67.1215
G01 X7.1730 Y67.1138
G01 X7.1966 Y67.1073
G01 X7.2873 Y67.0846
G01 X7.3112 Y67.0792
G01 X7.3354 Y67.0750
G01 X7.4279 Y67.0613
G01 X7.4522 Y67.0583
G01 X7.4767 Y67.0565
G01 X7.5701 Y67.0519
G01 X7.5946 Y67.0513
G01 X7.6191 Y67.0519
G01 X7.7125 Y67.0565
G01 X7.7370 Y67.0583
G01 X7.7613 Y67.0613
G01 X7.8538 Y67.0750
G01 X7.8780 Y67.0792
G01 X7.9019 Y67.0846
G01 X7.9926 Y67.1073
G01 X8.0162 Y67.1138
G01 X8.0395 Y67.1215
G01 X8.1275 Y67.1530
G01 X8.1504 Y67.1619
G01 X8.1729 Y67.1718
G01 X8.2574 Y67.2118
G01 X8.2793 Y67.2228
G01 X8.3007 Y67.2349
G01 X8.3808 Y67.2830
G01 X8.4016 Y67.2961
G01 X8.4216 Y67.3102
G01 X8.4967 Y67.3659
G01 X8.5161 Y67.3810
G01 X8.5346 Y67.3970
G01 X8.6039 Y67.4598
G01 X8.6129 Y67.4682
G01 X8.6302 Y67.4855
G01 X8.7095 Y67.5730
G01 X8.7251 Y67.5919
G01 X8.7325 Y67.6017
G01 X8.7882 Y67.6768
G01 X8.8023 Y67.6968
G01 X8.8154 Y67.7176
G01 X8.8646 Y67.7996
G01 X8.9138 Y67.7176
G01 X8.9269 Y67.6968
G01 X8.9410 Y67.6768
G01 X8.9967 Y67.6017
G01 X9.0118 Y67.5823
G01 X9.0278 Y67.5638
G01 X9.0906 Y67.4945
G01 X9.1075 Y67.4767
G01 X9.1253 Y67.4598
G01 X9.1946 Y67.3970
G01 X9.2131 Y67.3810
G01 X9.2325 Y67.3659
G01 X9.3076 Y67.3102
G01 X9.3276 Y67.2961
G01 X9.3484 Y67.2830
G01 X9.4285 Y67.2349
G01 X9.4499 Y67.2228
G01 X9.4718 Y67.2118
G01 X9.5563 Y67.1718
G01 X9.5788 Y67.1619
G01 X9.6017 Y67.1530
G01 X9.6897 Y67.1215
G01 X9.7130 Y67.1138
G01 X9.7366 Y67.1073
G01 X9.8273 Y67.0846
G01 X9.8512 Y67.0792
G01 X9.8754 Y67.0750
G01 X9.9679 Y67.0613
G01 X9.9922 Y67.0583
G01 X10.0167 Y67.0565
G01 X10.1101 Y67.0519
G01 X10.1223 Y67.0515
G01 X10.1469 Y67.0515
G01 X10.2525 Y67.0565
G01 X10.2770 Y67.0583
G01 X10.3013 Y67.0613
G01 X10.3938 Y67.0750
G01 X10.4180 Y67.0792
G01 X10.4300 Y67.0818
G01 X10.5445 Y67.1104
G01 X10.5679 Y67.1176
G01 X10.5795 Y67.1215
G01 X10.6675 Y67.1530
G01 X10.6904 Y67.1619
G01 X10.7129 Y67.1718
G01 X10.7974 Y67.2118
G01 X10.8193 Y67.2228
G01 X10.8407 Y67.2349
G01 X10.9208 Y67.2830
G01 X10.9416 Y67.2961
G01 X10.9616 Y67.3102
G01 X11.0367 Y67.3659
G01 X11.0561 Y67.3810
G01 X11.0746 Y67.3970
G01 X11.1439 Y67.4598
G01 X11.1617 Y67.4767
G01 X11.1786 Y67.4945
G01 X11.2414 Y67.5638
G01 X11.2574 Y67.5823
G01 X11.2725 Y67.6017
G01 X11.3282 Y67.6768
G01 X11.3423 Y67.6968
G01 X11.3554 Y67.7176
G01 X11.4046 Y67.7996
G01 X11.4538 Y67.7176
G01 X11.4669 Y67.6968
G01 X11.4810 Y67.6768
G01 X11.5367 Y67.6017
G01 X11.5518 Y67.5823
G01 X11.5678 Y67.5638
G01 X11.6306 Y67.4945
G01 X11.6475 Y67.4767
G01 X11.6653 Y67.4598
G01 X11.7346 Y67.3970
G01 X11.7531 Y67.3810
G01 X11.7725 Y67.3659
G01 X11.8476 Y67.3102
G01 X11.8676 Y67.2961
G01 X11.8884 Y67.2830
G01 X11.9685 Y67.2349
G01 X11.9899 Y67.2228
G01 X12.0118 Y67.2118
G01 X12.0963 Y67.1718
G01 X12.1188 Y67.1619
G01 X12.1417 Y67.1530
G01 X12.2297 Y67.1215
G01 X12.2530 Y67.1138
G01 X12.2766 Y67.1073
G01 X12.3673 Y67.0846
G01 X12.3912 Y67.0792
G01 X12.4154 Y67.0750
G01 X12.5079 Y67.0613
G01 X12.5322 Y67.0583
G01 X12.5567 Y67.0565
G01 X12.6501 Y67.0519
G01 X12.6746 Y67.0513
G01 X12.6991 Y67.0519
G01 X12.7925 Y67.0565
G01 X12.8170 Y67.0583
G01 X12.8413 Y67.0613
G01 X12.9338 Y67.0750
G01 X12.9580 Y67.0792
G01 X12.9819 Y67.0846
G01 X13.0726 Y67.1073
G01 X13.0845 Y67.1104
G01 X13.1079 Y67.1176
G01 X13.2075 Y67.1530
G01 X13.2304 Y67.1619
G01 X13.2529 Y67.1718
G01 X13.3374 Y67.2118
G01 X13.3593 Y67.2228
G01 X13.3807 Y67.2349
G01 X13.4608 Y67.2830
G01 X13.4816 Y67.2961
G01 X13.5016 Y67.3102
G01 X13.5767 Y67.3659
G01 X13.5961 Y67.3810
G01 X13.6146 Y67.3970
G01 X13.6839 Y67.4598
G01 X13.7017 Y67.4767
G01 X13.7186 Y67.4945
G01 X13.7814 Y67.5638
G01 X13.7974 Y67.5823
G01 X13.8125 Y67.6017
G01 X13.8682 Y67.6768
G01 X13.8823 Y67.6968
G01 X13.8954 Y67.7176
G01 X13.9435 Y67.7977
G01 X13.9556 Y67.8191
G01 X13.9666 Y67.8410
G01 X14.0066 Y67.9255
G01 X14.0117 Y67.9367
G01 X14.0211 Y67.9593
G01 X14.0569 Y68.0589
G01 X14.0646 Y68.0822
G01 X14.0711 Y68.1058
G01 X14.0938 Y68.1965
G01 X14.0992 Y68.2204
G01 X14.1034 Y68.2446
G01 X14.1171 Y68.3371
G01 X14.1188 Y68.3492
G01 X14.1212 Y68.3737
G01 X14.1265 Y68.4793
G01 X14.1271 Y68.5038
G01 X14.1265 Y68.5283
G01 X14.1219 Y68.6217
G01 X14.1201 Y68.6462
G01 X14.1171 Y68.6705
G01 X14.1034 Y68.7630
G01 X14.0992 Y68.7872
G01 X14.0938 Y68.8111
G01 X14.0711 Y68.9018
G01 X14.0680 Y68.9137
G01 X14.0608 Y68.9371
G01 X14.0254 Y69.0367
G01 X14.0165 Y69.0596
G01 X14.0066 Y69.0821
G01 X13.9666 Y69.1666
G01 X13.9556 Y69.1885
G01 X13.9497 Y69.1993
G01 X13.8954 Y69.2900
G01 X13.8890 Y69.3005
G01 X13.8754 Y69.3209
G01 X13.8051 Y69.4157
G01 X13.7895 Y69.4346
G01 X13.7715 Y69.4547
G01 X13.7715 Y74.7421
G01 X13.7941 Y74.7597
G01 X13.8127 Y74.7757
G01 X13.9047 Y74.8590
G01 X13.9224 Y74.8760
G01 X13.9394 Y74.8937
G01 X14.0227 Y74.9857
G01 X14.0387 Y75.0043
G01 X14.0538 Y75.0236
G01 X14.1278 Y75.1233
G01 X14.1419 Y75.1434
G01 X14.1550 Y75.1641
G01 X14.2188 Y75.2706
G01 X14.2309 Y75.2919
G01 X14.2420 Y75.3138
G01 X14.2950 Y75.4260
G01 X14.3050 Y75.4485
G01 X14.3138 Y75.4714
G01 X14.3556 Y75.5882
G01 X14.3633 Y75.6115
G01 X14.3699 Y75.6352
G01 X14.4000 Y75.7556
G01 X14.4054 Y75.7795
G01 X14.4096 Y75.8037
G01 X14.4278 Y75.9265
G01 X14.4308 Y75.9508
G01 X14.4326 Y75.9753
G01 X14.4387 Y76.0993
G01 X14.4393 Y76.1238
G01 X14.4387 Y76.1483
G01 X14.4319 Y76.2845
G01 X14.4295 Y76.3090
G01 X14.4278 Y76.3211
G01 X14.4096 Y76.4439
G01 X14.4054 Y76.4681
G01 X14.4000 Y76.4920
G01 X14.3699 Y76.6124
G01 X14.3633 Y76.6361
G01 X14.3556 Y76.6594
