(G-CODE GENERATED BY FLATCAM v8.994 - www.flatcam.org - Version Date: 2020/11/7)

(Name: SEGUIDOR_DE_VOLTAJE_drill.txt_cnc)
(Type: G-code from Geometry)
(Units: MM)

(Created on Friday, 03 May 2024 at 12:42)

(This preprocessor is the default preprocessor used by FlatCAM.)
(It is made to work with MACH3 compatible motion controllers.)


(TOOLS DIAMETER: )
(Tool: 1 -> Dia: 0.8128)
(Tool: 2 -> Dia: 0.889)
(Tool: 3 -> Dia: 0.9652)

(FEEDRATE Z: )
(Tool: 1 -> Feedrate: 300)
(Tool: 2 -> Feedrate: 300)
(Tool: 3 -> Feedrate: 300)

(FEEDRATE RAPIDS: )
(Tool: 1 -> Feedrate Rapids: 1500)
(Tool: 2 -> Feedrate Rapids: 1500)
(Tool: 3 -> Feedrate Rapids: 1500)

(Z_CUT: )
(Tool: 1 -> Z_Cut: -1.7)
(Tool: 2 -> Z_Cut: -1.7)
(Tool: 3 -> Z_Cut: -1.7)

(Tools Offset: )
(Tool: 1 -> Offset Z: 0.0)
(Tool: 2 -> Offset Z: 0.0)
(Tool: 3 -> Offset Z: 0.0)

(Z_MOVE: )
(Tool: 1 -> Z_Move: 2)
(Tool: 2 -> Z_Move: 2)
(Tool: 3 -> Z_Move: 2)

(Z Toolchange: 15 mm)
(X,Y Toolchange: 0.0000, 0.0000 mm)
(Z Start: None mm)
(Z End: 0.5 mm)
(X,Y End: None mm)
(Steps per circle: 64)
(Preprocessor Excellon: default)

(X range:    7.1374 ...   30.9626  mm)
(Y range:    7.3711 ...   38.6385  mm)

(Spindle Speed: 0 RPM)
G21
G90
G94

G01 F300.00

M5
G00 Z15.0000
T1
G00 X0.0000 Y0.0000                
M6
(MSG, Change to Tool Dia = 0.8128 ||| Total drills for tool T1 = 27)
M0
G00 Z15.0000

G01 F300.00
M03
G00 X22.8600 Y25.4559
G01 Z-1.7000
G01 Z0
G00 Z2.0000
G00 X20.3200 Y25.4559
G01 Z-1.7000
G01 Z0
G00 Z2.0000
G00 X17.7800 Y25.4559
G01 Z-1.7000
G01 Z0
G00 Z2.0000
G00 X15.2400 Y25.4559
G01 Z-1.7000
G01 Z0
G00 Z2.0000
G00 X7.6200 Y27.9959
G01 Z-1.7000
G01 Z0
G00 Z2.0000
G00 X7.6200 Y25.4559
G01 Z-1.7000
G01 Z0
G00 Z2.0000
G00 X7.6200 Y17.8359
G01 Z-1.7000
G01 Z0
G00 Z2.0000
G00 X7.6200 Y15.2959
G01 Z-1.7000
G01 Z0
G00 Z2.0000
G00 X15.2400 Y7.8156
G01 Z-1.7000
G01 Z0
G00 Z2.0000
G00 X15.2400 Y12.8956
G01 Z-1.7000
G01 Z0
G00 Z2.0000
G00 X15.2400 Y17.8359
G01 Z-1.7000
G01 Z0
G00 Z2.0000
G00 X17.7800 Y17.8359
G01 Z-1.7000
G01 Z0
G00 Z2.0000
G00 X20.3200 Y17.8359
G01 Z-1.7000
G01 Z0
G00 Z2.0000
G00 X22.8600 Y17.8359
G01 Z-1.7000
G01 Z0
G00 Z2.0000
G00 X22.8600 Y12.8956
G01 Z-1.7000
G01 Z0
G00 Z2.0000
G00 X22.8600 Y7.8156
G01 Z-1.7000
G01 Z0
G00 Z2.0000
G00 X30.4800 Y15.2959
G01 Z-1.7000
G01 Z0
G00 Z2.0000
G00 X30.4800 Y17.8359
G01 Z-1.7000
G01 Z0
G00 Z2.0000
G00 X30.4800 Y25.4559
G01 Z-1.7000
G01 Z0
G00 Z2.0000
G00 X30.4800 Y27.9959
G01 Z-1.7000
G01 Z0
G00 Z2.0000
G00 X30.4800 Y33.0759
G01 Z-1.7000
G01 Z0
G00 Z2.0000
G00 X30.4800 Y35.6159
G01 Z-1.7000
G01 Z0
G00 Z2.0000
G00 X30.4800 Y38.1559
G01 Z-1.7000
G01 Z0
G00 Z2.0000
G00 X22.8600 Y35.7556
G01 Z-1.7000
G01 Z0
G00 Z2.0000
G00 X15.2400 Y35.7556
G01 Z-1.7000
G01 Z0
G00 Z2.0000
G00 X15.2400 Y30.6756
G01 Z-1.7000
G01 Z0
G00 Z2.0000
G00 X22.8600 Y30.6756
G01 Z-1.7000
G01 Z0
G00 Z2.0000
M05
G00 Z0.50


