(G-CODE GENERATED BY FLATCAM v8.994 - www.flatcam.org - Version Date: 2020/11/7)

(Name: SEGUIDOR_DE_VOLTAJE_copperBottom.gbl_iso_combined_cnc)
(Type: G-code from Geometry)
(Units: MM)

(Created on Saturday, 04 May 2024 at 12:00)

(This preprocessor is the default preprocessor used by FlatCAM.)
(It is made to work with MACH3 compatible motion controllers.)

(TOOL DIAMETER: 0.5 mm)
(Feedrate_XY: 120.0 mm/min)
(Feedrate_Z: 60.0 mm/min)
(Feedrate rapids 1500.0 mm/min)

(Z_Cut: -0.6 mm)
(Z_Move: 2.0 mm)
(Z Start: None mm)
(Z End: 15.0 mm)
(X,Y End: None mm)
(Steps per circle: 64)
(Preprocessor Geometry: default)

(X range:    4.4997 ...   36.0895  mm)
(Y range:    4.6013 ...   41.2965  mm)

(Spindle Speed: 0.0 RPM)
G21
G90
G94

G01 F120.00

M5
G00 Z15.0000
G00 X0.0000 Y0.0000
T1
M6    
(MSG, Change to Tool Dia = 0.5000)
M0
G00 Z15.0000

M03
G01 F120.00
G00 X4.5000 Y15.2785
G01 F60.00
G01 Z-0.6000
G01 F120.00
G01 X4.5023 Y15.2364
G01 X4.5092 Y15.1886
G01 X4.5130 Y15.1706
G01 X4.5218 Y15.1356
G01 X4.5254 Y15.1239
G01 X4.5419 Y15.0784
G01 X4.5597 Y15.0402
G01 X4.5652 Y15.0292
G01 X4.5712 Y15.0185
G01 X4.5898 Y14.9876
G01 X4.5966 Y14.9774
G01 X4.6256 Y14.9387
G01 X4.6537 Y14.9073
G01 X4.6666 Y14.8941
G01 X4.7025 Y14.8618
G01 X4.7318 Y14.8397
G01 X4.7463 Y14.8294
G01 X4.7823 Y14.8074
G01 X4.7930 Y14.8014
G01 X4.8040 Y14.7959
G01 X4.8366 Y14.7805
G01 X4.8479 Y14.7758
G01 X4.8935 Y14.7597
G01 X4.9344 Y14.7492
G01 X4.9463 Y14.7465
G01 X4.9584 Y14.7444
G01 X5.0002 Y14.7385
G01 X5.0485 Y14.7359
G01 X6.5114 Y14.7358
G01 X6.5231 Y14.7114
G01 X6.5288 Y14.7006
G01 X6.5819 Y14.6119
G01 X6.5885 Y14.6016
G01 X6.5955 Y14.5915
G01 X6.6535 Y14.5134
G01 X6.6610 Y14.5038
G01 X6.6690 Y14.4945
G01 X6.7343 Y14.4225
G01 X6.7428 Y14.4136
G01 X6.7517 Y14.4051
G01 X6.8237 Y14.3398
G01 X6.8330 Y14.3318
G01 X6.8426 Y14.3243
G01 X6.9207 Y14.2663
G01 X6.9359 Y14.2559
G01 X7.0245 Y14.2027
G01 X7.0352 Y14.1967
G01 X7.0461 Y14.1912
G01 X7.1340 Y14.1496
G01 X7.1452 Y14.1446
G01 X7.1567 Y14.1402
G01 X7.2482 Y14.1075
G01 X7.2599 Y14.1036
G01 X7.2717 Y14.1003
G01 X7.3660 Y14.0767
G01 X7.3780 Y14.0740
G01 X7.3901 Y14.0719
G01 X7.4862 Y14.0577
G01 X7.4984 Y14.0562
G01 X7.5106 Y14.0553
G01 X7.6139 Y14.0503
G01 X7.6323 Y14.0505
G01 X7.7294 Y14.0553
G01 X7.7416 Y14.0562
G01 X7.7538 Y14.0577
G01 X7.8499 Y14.0719
G01 X7.8620 Y14.0740
G01 X7.8740 Y14.0767
G01 X7.9683 Y14.1003
G01 X7.9801 Y14.1036
G01 X7.9918 Y14.1075
G01 X8.0833 Y14.1402
G01 X8.0948 Y14.1446
G01 X8.1060 Y14.1496
G01 X8.1939 Y14.1912
G01 X8.2048 Y14.1967
G01 X8.2155 Y14.2027
G01 X8.2989 Y14.2527
G01 X8.3092 Y14.2593
G01 X8.3193 Y14.2663
G01 X8.3974 Y14.3243
G01 X8.4070 Y14.3318
G01 X8.4163 Y14.3398
G01 X8.4883 Y14.4051
G01 X8.4972 Y14.4136
G01 X8.5057 Y14.4225
G01 X8.5710 Y14.4945
G01 X8.5790 Y14.5038
G01 X8.5865 Y14.5134
G01 X8.6445 Y14.5915
G01 X8.6515 Y14.6016
G01 X8.6581 Y14.6119
G01 X8.7081 Y14.6953
G01 X8.7141 Y14.7060
G01 X8.7196 Y14.7169
G01 X8.7612 Y14.8048
G01 X8.7662 Y14.8160
G01 X8.7706 Y14.8275
G01 X8.8033 Y14.9190
G01 X8.8072 Y14.9307
G01 X8.8105 Y14.9425
G01 X8.8341 Y15.0368
G01 X8.8368 Y15.0488
G01 X8.8389 Y15.0609
G01 X8.8539 Y15.1631
G01 X8.8555 Y15.1814
G01 X8.8603 Y15.2785
G01 X8.8606 Y15.2908
G01 X8.8603 Y15.3031
G01 X8.8555 Y15.4002
G01 X8.8546 Y15.4124
G01 X8.8531 Y15.4246
G01 X8.8389 Y15.5207
G01 X8.8368 Y15.5328
G01 X8.8341 Y15.5448
G01 X8.8105 Y15.6391
G01 X8.8072 Y15.6509
G01 X8.8033 Y15.6626
G01 X8.7706 Y15.7541
G01 X8.7662 Y15.7656
G01 X8.7612 Y15.7768
G01 X8.7196 Y15.8647
G01 X8.7141 Y15.8756
G01 X8.7081 Y15.8863
G01 X8.6581 Y15.9697
G01 X8.6515 Y15.9800
G01 X8.6445 Y15.9901
G01 X8.5865 Y16.0682
G01 X8.5790 Y16.0778
G01 X8.5710 Y16.0871
G01 X8.5057 Y16.1591
G01 X8.4972 Y16.1680
G01 X8.4883 Y16.1765
G01 X8.4163 Y16.2418
G01 X8.4070 Y16.2498
G01 X8.3974 Y16.2573
G01 X8.3193 Y16.3153
G01 X8.3092 Y16.3223
G01 X8.2989 Y16.3289
G01 X8.2155 Y16.3789
G01 X8.2048 Y16.3849
G01 X8.1939 Y16.3904
G01 X8.1060 Y16.4320
G01 X8.0948 Y16.4370
G01 X8.0833 Y16.4414
G01 X7.9918 Y16.4741
G01 X7.9801 Y16.4780
G01 X7.9683 Y16.4813
G01 X7.8740 Y16.5049
G01 X7.8620 Y16.5076
G01 X7.8499 Y16.5097
G01 X7.7538 Y16.5239
G01 X7.7416 Y16.5254
G01 X7.7294 Y16.5263
G01 X7.6323 Y16.5311
G01 X7.6200 Y16.5314
G01 X7.6077 Y16.5311
G01 X7.5106 Y16.5263
G01 X7.4984 Y16.5254
G01 X7.4862 Y16.5239
G01 X7.3901 Y16.5097
G01 X7.3780 Y16.5076
G01 X7.3660 Y16.5049
G01 X7.2717 Y16.4813
G01 X7.2599 Y16.4780
G01 X7.2482 Y16.4741
G01 X7.1567 Y16.4414
G01 X7.1452 Y16.4370
G01 X7.1340 Y16.4320
G01 X7.0406 Y16.3877
G01 X7.0245 Y16.3789
G01 X6.9411 Y16.3289
G01 X6.9308 Y16.3223
G01 X6.9207 Y16.3153
G01 X6.8426 Y16.2573
G01 X6.8330 Y16.2498
G01 X6.8237 Y16.2418
G01 X6.7517 Y16.1765
G01 X6.7428 Y16.1680
G01 X6.7343 Y16.1591
G01 X6.6690 Y16.0871
G01 X6.6610 Y16.0778
G01 X6.6535 Y16.0682
G01 X6.5920 Y15.9851
G01 X6.5819 Y15.9697
G01 X6.5288 Y15.8810
G01 X6.5231 Y15.8702
G01 X6.5114 Y15.8458
G01 X5.6095 Y15.8458
G01 X5.6096 Y24.9398
G01 X6.4957 Y24.9290
G01 X6.5204 Y24.8769
G01 X6.5288 Y24.8606
G01 X6.5819 Y24.7719
G01 X6.5920 Y24.7565
G01 X6.6535 Y24.6734
G01 X6.6610 Y24.6638
G01 X6.6690 Y24.6545
G01 X6.7343 Y24.5825
G01 X6.7472 Y24.5693
G01 X6.8237 Y24.4998
G01 X6.8330 Y24.4918
G01 X6.8426 Y24.4843
G01 X6.9207 Y24.4263
G01 X6.9308 Y24.4193
G01 X6.9411 Y24.4127
G01 X7.0245 Y24.3627
G01 X7.0352 Y24.3567
G01 X7.0461 Y24.3512
G01 X7.1340 Y24.3096
G01 X7.1452 Y24.3046
G01 X7.1567 Y24.3002
G01 X7.2482 Y24.2675
G01 X7.2599 Y24.2636
G01 X7.2717 Y24.2603
G01 X7.3660 Y24.2367
G01 X7.3780 Y24.2340
G01 X7.3901 Y24.2319
G01 X7.4862 Y24.2177
G01 X7.4984 Y24.2162
G01 X7.5106 Y24.2153
G01 X7.6139 Y24.2103
G01 X7.6323 Y24.2105
G01 X7.7294 Y24.2153
G01 X7.7416 Y24.2162
G01 X7.7538 Y24.2177
G01 X7.8560 Y24.2329
G01 X7.8740 Y24.2367
G01 X7.9742 Y24.2619
G01 X7.9918 Y24.2675
G01 X8.0319 Y24.2818
G01 X12.3384 Y19.9985
G01 X12.3641 Y19.9752
G01 X12.3742 Y19.9665
G01 X12.4071 Y19.9418
G01 X12.4180 Y19.9341
G01 X12.4531 Y19.9128
G01 X12.4648 Y19.9062
G01 X12.5018 Y19.8885
G01 X12.5141 Y19.8831
G01 X12.5527 Y19.8690
G01 X12.5654 Y19.8648
G01 X12.5776 Y19.8615
G01 X12.6175 Y19.8518
G01 X12.6307 Y19.8496
G01 X12.6713 Y19.8439
G01 X12.6847 Y19.8429
G01 X12.7254 Y19.8413
G01 X17.7546 Y19.8413
G01 X17.7669 Y19.8416
G01 X17.8090 Y19.8439
G01 X17.8508 Y19.8498
G01 X17.8629 Y19.8519
G01 X17.8748 Y19.8546
G01 X17.9098 Y19.8634
G01 X17.9215 Y19.8670
G01 X17.9613 Y19.8812
G01 X17.9782 Y19.8885
G01 X18.0162 Y19.9068
G01 X18.0525 Y19.9282
G01 X18.0680 Y19.9382
G01 X18.1019 Y19.9634
G01 X18.1159 Y19.9752
G01 X18.1426 Y19.9995
G01 X20.5245 Y22.3813
G01 X30.5054 Y22.3813
G01 X30.5177 Y22.3814
G01 X30.5476 Y22.3830
G01 X30.5720 Y22.3853
G01 X30.6152 Y22.3922
G01 X30.6257 Y22.3945
G01 X30.6547 Y22.4019
G01 X30.6782 Y22.4089
G01 X30.7192 Y22.4241
G01 X30.7291 Y22.4284
G01 X30.7623 Y22.4443
G01 X30.7837 Y22.4563
G01 X30.8092 Y22.4718
G01 X30.8182 Y22.4778
G01 X30.8533 Y22.5039
G01 X30.8720 Y22.5198
G01 X30.8940 Y22.5400
G01 X30.9064 Y22.5526
G01 X30.9354 Y22.5854
G01 X30.9420 Y22.5937
G01 X30.9638 Y22.6235
G01 X30.9771 Y22.6441
G01 X30.9922 Y22.6699
G01 X30.9973 Y22.6794
G01 X31.0160 Y22.7189
G01 X31.0250 Y22.7418
G01 X31.0348 Y22.7700
G01 X31.0380 Y22.7803
G01 X31.0416 Y22.7936
G01 X31.0500 Y22.8295
G01 X31.0529 Y22.8469
G01 X31.0578 Y22.8834
G01 X31.0591 Y22.9010
G01 X31.0603 Y22.9378
G01 X31.0428 Y24.3459
G01 X31.0594 Y24.3539
G01 X31.0755 Y24.3627
G01 X31.1589 Y24.4127
G01 X31.1692 Y24.4193
G01 X31.1793 Y24.4263
G01 X31.2574 Y24.4843
G01 X31.2670 Y24.4918
G01 X31.2763 Y24.4998
G01 X31.3483 Y24.5651
G01 X31.3615 Y24.5780
G01 X31.4310 Y24.6545
G01 X31.4390 Y24.6638
G01 X31.4465 Y24.6734
G01 X31.5080 Y24.7565
G01 X31.5181 Y24.7719
G01 X31.5712 Y24.8606
G01 X31.5796 Y24.8769
G01 X31.6006 Y24.9212
G01 X32.4397 Y24.9212
G01 X32.4396 Y13.3058
G01 X31.0350 Y13.3058
G01 X31.0350 Y14.1822
G01 X31.0594 Y14.1939
G01 X31.0702 Y14.1996
G01 X31.1589 Y14.2527
G01 X31.1743 Y14.2628
G01 X31.2574 Y14.3243
G01 X31.2670 Y14.3318
G01 X31.2763 Y14.3398
G01 X31.3483 Y14.4051
G01 X31.3572 Y14.4136
G01 X31.3657 Y14.4225
G01 X31.4310 Y14.4945
G01 X31.4390 Y14.5038
G01 X31.4465 Y14.5134
G01 X31.5045 Y14.5915
G01 X31.5115 Y14.6016
G01 X31.5181 Y14.6119
G01 X31.5681 Y14.6953
G01 X31.5769 Y14.7114
G01 X31.6212 Y14.8048
G01 X31.6262 Y14.8160
G01 X31.6306 Y14.8275
G01 X31.6633 Y14.9190
G01 X31.6672 Y14.9307
G01 X31.6705 Y14.9425
G01 X31.6941 Y15.0368
G01 X31.6968 Y15.0488
G01 X31.6989 Y15.0609
G01 X31.7131 Y15.1570
G01 X31.7146 Y15.1692
G01 X31.7155 Y15.1814
G01 X31.7203 Y15.2785
G01 X31.7206 Y15.2908
G01 X31.7203 Y15.3031
G01 X31.7155 Y15.4002
G01 X31.7146 Y15.4124
G01 X31.7131 Y15.4246
G01 X31.6979 Y15.5268
G01 X31.6941 Y15.5448
G01 X31.6705 Y15.6391
G01 X31.6672 Y15.6509
G01 X31.6633 Y15.6626
G01 X31.6306 Y15.7541
G01 X31.6262 Y15.7656
G01 X31.6212 Y15.7768
G01 X31.5796 Y15.8647
G01 X31.5741 Y15.8756
G01 X31.5681 Y15.8863
G01 X31.5181 Y15.9697
G01 X31.5115 Y15.9800
G01 X31.5045 Y15.9901
G01 X31.4465 Y16.0682
G01 X31.4390 Y16.0778
G01 X31.4310 Y16.0871
G01 X31.3657 Y16.1591
G01 X31.3572 Y16.1680
G01 X31.3483 Y16.1765
G01 X31.2763 Y16.2418
G01 X31.2670 Y16.2498
G01 X31.2574 Y16.2573
G01 X31.1793 Y16.3153
G01 X31.1692 Y16.3223
G01 X31.1589 Y16.3289
G01 X31.0755 Y16.3789
G01 X31.0648 Y16.3849
G01 X31.0539 Y16.3904
G01 X30.9660 Y16.4320
G01 X30.9548 Y16.4370
G01 X30.9433 Y16.4414
G01 X30.8518 Y16.4741
G01 X30.8401 Y16.4780
G01 X30.8283 Y16.4813
G01 X30.7340 Y16.5049
G01 X30.7220 Y16.5076
G01 X30.7099 Y16.5097
G01 X30.6138 Y16.5239
G01 X30.6016 Y16.5254
G01 X30.5894 Y16.5263
G01 X30.4923 Y16.5311
G01 X30.4800 Y16.5314
G01 X30.4677 Y16.5311
G01 X30.3706 Y16.5263
G01 X30.3584 Y16.5254
G01 X30.3462 Y16.5239
G01 X30.2501 Y16.5097
G01 X30.2380 Y16.5076
G01 X30.2260 Y16.5049
G01 X30.1317 Y16.4813
G01 X30.1199 Y16.4780
G01 X30.1082 Y16.4741
G01 X30.0167 Y16.4414
G01 X30.0052 Y16.4370
G01 X29.9940 Y16.4320
G01 X29.9061 Y16.3904
G01 X29.8952 Y16.3849
G01 X29.8845 Y16.3789
G01 X29.8011 Y16.3289
G01 X29.7908 Y16.3223
G01 X29.7807 Y16.3153
G01 X29.7026 Y16.2573
G01 X29.6930 Y16.2498
G01 X29.6837 Y16.2418
G01 X29.6117 Y16.1765
G01 X29.6028 Y16.1680
G01 X29.5943 Y16.1591
G01 X29.5290 Y16.0871
G01 X29.5210 Y16.0778
G01 X29.5135 Y16.0682
G01 X29.4555 Y15.9901
G01 X29.4485 Y15.9800
G01 X29.4419 Y15.9697
G01 X29.3919 Y15.8863
G01 X29.3859 Y15.8756
G01 X29.3804 Y15.8647
G01 X29.3388 Y15.7768
G01 X29.3338 Y15.7656
G01 X29.3294 Y15.7541
G01 X29.2967 Y15.6626
G01 X29.2928 Y15.6509
G01 X29.2895 Y15.6391
G01 X29.2659 Y15.5448
G01 X29.2621 Y15.5268
G01 X29.2469 Y15.4246
G01 X29.2454 Y15.4124
G01 X29.2445 Y15.4002
G01 X29.2397 Y15.3031
G01 X29.2394 Y15.2908
G01 X29.2397 Y15.2785
G01 X29.2445 Y15.1814
G01 X29.2454 Y15.1692
G01 X29.2469 Y15.1570
G01 X29.2611 Y15.0609
G01 X29.2632 Y15.0488
G01 X29.2659 Y15.0368
G01 X29.2895 Y14.9425
G01 X29.2928 Y14.9307
G01 X29.2967 Y14.9190
G01 X29.3294 Y14.8275
G01 X29.3338 Y14.8160
G01 X29.3388 Y14.8048
G01 X29.3831 Y14.7114
G01 X29.3919 Y14.6953
G01 X29.4419 Y14.6119
G01 X29.4485 Y14.6016
G01 X29.4555 Y14.5915
G01 X29.5135 Y14.5134
G01 X29.5210 Y14.5038
G01 X29.5290 Y14.4945
G01 X29.5943 Y14.4225
G01 X29.6028 Y14.4136
G01 X29.6117 Y14.4051
G01 X29.6837 Y14.3398
G01 X29.6930 Y14.3318
G01 X29.7026 Y14.3243
G01 X29.7857 Y14.2628
G01 X29.8011 Y14.2527
G01 X29.8898 Y14.1996
G01 X29.9006 Y14.1939
G01 X29.9250 Y14.1822
G01 X29.9250 Y13.3157
G01 X23.9437 Y13.4217
G01 X23.9260 Y13.4591
G01 X23.9175 Y13.4754
G01 X23.8664 Y13.5609
G01 X23.8564 Y13.5763
G01 X23.7971 Y13.6564
G01 X23.7895 Y13.6661
G01 X23.7815 Y13.6753
G01 X23.7146 Y13.7491
G01 X23.7014 Y13.7620
G01 X23.6321 Y13.8247
G01 X23.6229 Y13.8327
G01 X23.6132 Y13.8403
G01 X23.5381 Y13.8960
G01 X23.5281 Y13.9030
G01 X23.5177 Y13.9096
G01 X23.4322 Y13.9607
G01 X23.4159 Y13.9692
G01 X23.3314 Y14.0092
G01 X23.3202 Y14.0142
G01 X23.3087 Y14.0186
G01 X23.2207 Y14.0501
G01 X23.2091 Y14.0539
G01 X23.1972 Y14.0572
G01 X23.1066 Y14.0799
G01 X23.0946 Y14.0826
G01 X23.0825 Y14.0847
G01 X22.9900 Y14.0984
G01 X22.9779 Y14.0999
G01 X22.9656 Y14.1008
G01 X22.8723 Y14.1054
G01 X22.8600 Y14.1057
G01 X22.8477 Y14.1054
G01 X22.7482 Y14.1004
G01 X22.7300 Y14.0984
G01 X22.6375 Y14.0847
G01 X22.6254 Y14.0826
G01 X22.6134 Y14.0799
G01 X22.5228 Y14.0572
G01 X22.5109 Y14.0539
G01 X22.4993 Y14.0501
G01 X22.4113 Y14.0186
G01 X22.3998 Y14.0142
G01 X22.3886 Y14.0092
G01 X22.3041 Y13.9692
G01 X22.2931 Y13.9637
G01 X22.2825 Y13.9577
G01 X22.2023 Y13.9096
G01 X22.1919 Y13.9030
G01 X22.1819 Y13.8960
G01 X22.1068 Y13.8403
G01 X22.0971 Y13.8327
G01 X22.0879 Y13.8247
G01 X22.0186 Y13.7620
G01 X22.0097 Y13.7535
G01 X22.0012 Y13.7446
G01 X21.9385 Y13.6753
G01 X21.9305 Y13.6661
G01 X21.9229 Y13.6564
G01 X21.8672 Y13.5813
G01 X21.8602 Y13.5713
G01 X21.8536 Y13.5609
G01 X21.8055 Y13.4807
G01 X21.7995 Y13.4701
G01 X21.7940 Y13.4591
G01 X21.7540 Y13.3746
G01 X21.7490 Y13.3634
G01 X21.7446 Y13.3519
G01 X21.7131 Y13.2639
G01 X21.7093 Y13.2523
G01 X21.7060 Y13.2404
G01 X21.6833 Y13.1498
G01 X21.6806 Y13.1378
G01 X21.6785 Y13.1257
G01 X21.6648 Y13.0332
G01 X21.6633 Y13.0211
G01 X21.6624 Y13.0088
G01 X21.6578 Y12.9155
G01 X21.6575 Y12.9032
G01 X21.6578 Y12.8909
G01 X21.6628 Y12.7914
G01 X21.6648 Y12.7732
G01 X21.6785 Y12.6807
G01 X21.6806 Y12.6686
G01 X21.6833 Y12.6566
G01 X21.7060 Y12.5660
G01 X21.7093 Y12.5541
G01 X21.7131 Y12.5425
G01 X21.7446 Y12.4545
G01 X21.7490 Y12.4430
G01 X21.7540 Y12.4318
G01 X21.7940 Y12.3473
G01 X21.7995 Y12.3363
G01 X21.8055 Y12.3257
G01 X21.8536 Y12.2455
G01 X21.8602 Y12.2351
G01 X21.8672 Y12.2251
G01 X21.9229 Y12.1500
G01 X21.9305 Y12.1403
G01 X21.9385 Y12.1311
G01 X22.0012 Y12.0618
G01 X22.0097 Y12.0529
G01 X22.0186 Y12.0444
G01 X22.0879 Y11.9817
G01 X22.0971 Y11.9737
G01 X22.1068 Y11.9661
G01 X22.1819 Y11.9104
G01 X22.1919 Y11.9034
G01 X22.2023 Y11.8968
G01 X22.2825 Y11.8487
G01 X22.2931 Y11.8427
G01 X22.3041 Y11.8372
G01 X22.3886 Y11.7972
G01 X22.3998 Y11.7922
G01 X22.4113 Y11.7878
G01 X22.4993 Y11.7563
G01 X22.5109 Y11.7525
G01 X22.5228 Y11.7492
G01 X22.6134 Y11.7265
G01 X22.6254 Y11.7238
G01 X22.6375 Y11.7217
G01 X22.7300 Y11.7080
G01 X22.7421 Y11.7065
G01 X22.7544 Y11.7056
G01 X22.8477 Y11.7010
G01 X22.8600 Y11.7007
G01 X22.8723 Y11.7010
G01 X22.9656 Y11.7056
G01 X22.9779 Y11.7065
G01 X22.9900 Y11.7080
G01 X23.0825 Y11.7217
G01 X23.0946 Y11.7238
G01 X23.1066 Y11.7265
G01 X23.1972 Y11.7492
G01 X23.2091 Y11.7525
G01 X23.2207 Y11.7563
G01 X23.3087 Y11.7878
G01 X23.3202 Y11.7922
G01 X23.3314 Y11.7972
G01 X23.4159 Y11.8372
G01 X23.4322 Y11.8457
G01 X23.5177 Y11.8968
G01 X23.5281 Y11.9034
G01 X23.5381 Y11.9104
G01 X23.6132 Y11.9661
G01 X23.6229 Y11.9737
G01 X23.6321 Y11.9817
G01 X23.7014 Y12.0444
G01 X23.7103 Y12.0529
G01 X23.7188 Y12.0618
G01 X23.7815 Y12.1311
G01 X23.7895 Y12.1403
G01 X23.7971 Y12.1500
G01 X23.8528 Y12.2251
G01 X23.8598 Y12.2351
G01 X23.8664 Y12.2455
G01 X23.9065 Y12.3123
G01 X30.4800 Y12.1959
G01 X33.0007 Y12.1959
G01 X33.0429 Y12.1980
G01 X33.0612 Y12.2000
G01 X33.1029 Y12.2065
G01 X33.1439 Y12.2165
G01 X33.1615 Y12.2216
G01 X33.2013 Y12.2358
G01 X33.2182 Y12.2431
G01 X33.2562 Y12.2614
G01 X33.2978 Y12.2860
G01 X33.3129 Y12.2964
G01 X33.3467 Y12.3218
G01 X33.3781 Y12.3499
G01 X33.3913 Y12.3628
G01 X33.4236 Y12.3987
G01 X33.4526 Y12.4374
G01 X33.4626 Y12.4529
G01 X33.4840 Y12.4892
G01 X33.5023 Y12.5272
G01 X33.5096 Y12.5441
G01 X33.5257 Y12.5897
G01 X33.5376 Y12.6365
G01 X33.5410 Y12.6546
G01 X33.5469 Y12.6964
G01 X33.5495 Y12.7447
G01 X33.5495 Y30.5308
G01 X33.5478 Y30.5730
G01 X33.5462 Y30.5913
G01 X33.5400 Y30.6330
G01 X33.5362 Y30.6510
G01 X33.5257 Y30.6919
G01 X33.5117 Y30.7317
G01 X33.5049 Y30.7488
G01 X33.4840 Y30.7924
G01 X33.4594 Y30.8340
G01 X33.4490 Y30.8491
G01 X33.4236 Y30.8829
G01 X33.3955 Y30.9143
G01 X33.3826 Y30.9275
G01 X33.3514 Y30.9558
G01 X33.3370 Y30.9673
G01 X33.3029 Y30.9922
G01 X33.2669 Y31.0142
G01 X33.2508 Y31.0230
G01 X33.2126 Y31.0411
G01 X33.1955 Y31.0479
G01 X33.1557 Y31.0619
G01 X33.1148 Y31.0724
G01 X33.0968 Y31.0762
G01 X33.0551 Y31.0824
G01 X33.0368 Y31.0840
G01 X32.9946 Y31.0857
G01 X31.0350 Y31.0858
G01 X31.0350 Y31.9622
G01 X31.0594 Y31.9739
G01 X31.0702 Y31.9796
G01 X31.1589 Y32.0327
G01 X31.1743 Y32.0428
G01 X31.2574 Y32.1043
G01 X31.2670 Y32.1118
G01 X31.2763 Y32.1198
G01 X31.3528 Y32.1893
G01 X31.3657 Y32.2025
G01 X31.4310 Y32.2745
G01 X31.4390 Y32.2838
G01 X31.4465 Y32.2934
G01 X31.5045 Y32.3715
G01 X31.5115 Y32.3816
G01 X31.5181 Y32.3919
G01 X31.5681 Y32.4753
G01 X31.5741 Y32.4860
G01 X31.5796 Y32.4969
G01 X31.6212 Y32.5848
G01 X31.6262 Y32.5960
G01 X31.6306 Y32.6075
G01 X31.6633 Y32.6990
G01 X31.6672 Y32.7107
G01 X31.6705 Y32.7225
G01 X31.6941 Y32.8168
G01 X31.6968 Y32.8288
G01 X31.6989 Y32.8409
G01 X31.7131 Y32.9370
G01 X31.7146 Y32.9492
G01 X31.7155 Y32.9614
G01 X31.7203 Y33.0585
G01 X31.7206 Y33.0708
G01 X31.7203 Y33.0831
G01 X31.7155 Y33.1802
G01 X31.7146 Y33.1924
G01 X31.7131 Y33.2046
G01 X31.6989 Y33.3007
G01 X31.6968 Y33.3128
G01 X31.6941 Y33.3248
G01 X31.6705 Y33.4191
G01 X31.6672 Y33.4309
G01 X31.6633 Y33.4426
G01 X31.6306 Y33.5341
G01 X31.6262 Y33.5456
G01 X31.6212 Y33.5568
G01 X31.5796 Y33.6447
G01 X31.5741 Y33.6556
G01 X31.5681 Y33.6663
G01 X31.5181 Y33.7497
G01 X31.5115 Y33.7600
G01 X31.5045 Y33.7701
G01 X31.4465 Y33.8482
G01 X31.4390 Y33.8578
G01 X31.4310 Y33.8671
G01 X31.3657 Y33.9391
G01 X31.3572 Y33.9480
G01 X31.3483 Y33.9565
G01 X31.2763 Y34.0218
G01 X31.2670 Y34.0298
G01 X31.2574 Y34.0373
G01 X31.1793 Y34.0953
G01 X31.1692 Y34.1023
G01 X31.1589 Y34.1089
G01 X31.0755 Y34.1589
G01 X31.0648 Y34.1649
G01 X31.0539 Y34.1704
G01 X30.9660 Y34.2120
G01 X30.9548 Y34.2170
G01 X30.9433 Y34.2214
G01 X30.8518 Y34.2541
G01 X30.8401 Y34.2580
G01 X30.8283 Y34.2613
G01 X30.7340 Y34.2849
G01 X30.7220 Y34.2876
G01 X30.7099 Y34.2897
G01 X30.6138 Y34.3039
G01 X30.5955 Y34.3060
G01 X30.4923 Y34.3111
G01 X30.4800 Y34.3114
G01 X30.4677 Y34.3111
G01 X30.3706 Y34.3063
G01 X30.3584 Y34.3054
G01 X30.3462 Y34.3039
G01 X30.2501 Y34.2897
G01 X30.2380 Y34.2876
G01 X30.2260 Y34.2849
G01 X30.1317 Y34.2613
G01 X30.1199 Y34.2580
G01 X30.1082 Y34.2541
G01 X30.0167 Y34.2214
G01 X30.0052 Y34.2170
G01 X29.9940 Y34.2120
G01 X29.9061 Y34.1704
G01 X29.8952 Y34.1649
G01 X29.8845 Y34.1589
G01 X29.8011 Y34.1089
G01 X29.7908 Y34.1023
G01 X29.7807 Y34.0953
G01 X29.7026 Y34.0373
G01 X29.6930 Y34.0298
G01 X29.6837 Y34.0218
G01 X29.6117 Y33.9565
G01 X29.6028 Y33.9480
G01 X29.5943 Y33.9391
G01 X29.5290 Y33.8671
G01 X29.5210 Y33.8578
G01 X29.5135 Y33.8482
G01 X29.4555 Y33.7701
G01 X29.4485 Y33.7600
G01 X29.4419 Y33.7497
G01 X29.3919 Y33.6663
G01 X29.3859 Y33.6556
G01 X29.3804 Y33.6447
G01 X29.3388 Y33.5568
G01 X29.3338 Y33.5456
G01 X29.3294 Y33.5341
G01 X29.2967 Y33.4426
G01 X29.2928 Y33.4309
G01 X29.2895 Y33.4191
G01 X29.2659 Y33.3248
G01 X29.2632 Y33.3128
G01 X29.2611 Y33.3007
G01 X29.2469 Y33.2046
G01 X29.2454 Y33.1924
G01 X29.2445 Y33.1802
G01 X29.2397 Y33.0831
G01 X29.2394 Y33.0708
G01 X29.2397 Y33.0585
G01 X29.2445 Y32.9614
G01 X29.2454 Y32.9492
G01 X29.2469 Y32.9370
G01 X29.2611 Y32.8409
G01 X29.2632 Y32.8288
G01 X29.2659 Y32.8168
G01 X29.2895 Y32.7225
G01 X29.2928 Y32.7107
G01 X29.2967 Y32.6990
G01 X29.3294 Y32.6075
G01 X29.3338 Y32.5960
G01 X29.3388 Y32.5848
G01 X29.3831 Y32.4914
G01 X29.3919 Y32.4753
G01 X29.4419 Y32.3919
G01 X29.4485 Y32.3816
G01 X29.4555 Y32.3715
G01 X29.5135 Y32.2934
G01 X29.5210 Y32.2838
G01 X29.5290 Y32.2745
G01 X29.5943 Y32.2025
G01 X29.6028 Y32.1936
G01 X29.6117 Y32.1851
G01 X29.6837 Y32.1198
G01 X29.6930 Y32.1118
G01 X29.7026 Y32.1043
G01 X29.7857 Y32.0428
G01 X29.8011 Y32.0327
G01 X29.8898 Y31.9796
G01 X29.9006 Y31.9739
G01 X29.9250 Y31.9622
G01 X29.9250 Y31.0957
G01 X23.9437 Y31.2017
G01 X23.9260 Y31.2391
G01 X23.9175 Y31.2554
G01 X23.8632 Y31.3461
G01 X23.8528 Y31.3613
G01 X23.7934 Y31.4413
G01 X23.7815 Y31.4553
G01 X23.7188 Y31.5246
G01 X23.7103 Y31.5335
G01 X23.7014 Y31.5420
G01 X23.6276 Y31.6088
G01 X23.6132 Y31.6203
G01 X23.5381 Y31.6760
G01 X23.5281 Y31.6830
G01 X23.5177 Y31.6896
G01 X23.4375 Y31.7377
G01 X23.4269 Y31.7437
G01 X23.4159 Y31.7492
G01 X23.3314 Y31.7892
G01 X23.3202 Y31.7942
G01 X23.3087 Y31.7986
G01 X23.2207 Y31.8301
G01 X23.2032 Y31.8356
G01 X23.1066 Y31.8599
G01 X23.0946 Y31.8626
G01 X23.0825 Y31.8647
G01 X22.9900 Y31.8784
G01 X22.9779 Y31.8799
G01 X22.9656 Y31.8808
G01 X22.8723 Y31.8854
G01 X22.8600 Y31.8857
G01 X22.8477 Y31.8854
G01 X22.7544 Y31.8808
G01 X22.7421 Y31.8799
G01 X22.7300 Y31.8784
G01 X22.6375 Y31.8647
G01 X22.6254 Y31.8626
G01 X22.6134 Y31.8599
G01 X22.5228 Y31.8372
G01 X22.5109 Y31.8339
G01 X22.4993 Y31.8301
G01 X22.4113 Y31.7986
G01 X22.3998 Y31.7942
G01 X22.3886 Y31.7892
G01 X22.3041 Y31.7492
G01 X22.2931 Y31.7437
G01 X22.2825 Y31.7377
G01 X22.1971 Y31.6864
G01 X22.1819 Y31.6760
G01 X22.1068 Y31.6203
G01 X22.0971 Y31.6127
G01 X22.0879 Y31.6047
G01 X22.0186 Y31.5420
G01 X22.0097 Y31.5335
G01 X22.0012 Y31.5246
G01 X21.9385 Y31.4553
G01 X21.9305 Y31.4461
G01 X21.9229 Y31.4364
G01 X21.8672 Y31.3613
G01 X21.8602 Y31.3513
G01 X21.8536 Y31.3409
G01 X21.8055 Y31.2607
G01 X21.7995 Y31.2501
G01 X21.7940 Y31.2391
G01 X21.7540 Y31.1546
G01 X21.7490 Y31.1434
G01 X21.7446 Y31.1319
G01 X21.7131 Y31.0439
G01 X21.7093 Y31.0323
G01 X21.7060 Y31.0204
G01 X21.6833 Y30.9298
G01 X21.6806 Y30.9178
G01 X21.6785 Y30.9057
G01 X21.6648 Y30.8132
G01 X21.6633 Y30.8011
G01 X21.6624 Y30.7888
G01 X21.6578 Y30.6955
G01 X21.6575 Y30.6832
G01 X21.6578 Y30.6709
G01 X21.6624 Y30.5776
G01 X21.6633 Y30.5653
G01 X21.6648 Y30.5532
G01 X21.6785 Y30.4607
G01 X21.6806 Y30.4486
G01 X21.6833 Y30.4366
G01 X21.7060 Y30.3460
G01 X21.7093 Y30.3341
G01 X21.7131 Y30.3225
G01 X21.7446 Y30.2345
G01 X21.7490 Y30.2230
G01 X21.7540 Y30.2118
G01 X21.7940 Y30.1273
G01 X21.7995 Y30.1163
G01 X21.8055 Y30.1057
G01 X21.8536 Y30.0255
G01 X21.8602 Y30.0151
G01 X21.8672 Y30.0051
G01 X21.9229 Y29.9300
G01 X21.9305 Y29.9203
G01 X21.9385 Y29.9111
G01 X22.0012 Y29.8418
G01 X22.0097 Y29.8329
G01 X22.0186 Y29.8244
G01 X22.0879 Y29.7617
G01 X22.0971 Y29.7537
G01 X22.1068 Y29.7461
G01 X22.1819 Y29.6904
G01 X22.1919 Y29.6834
G01 X22.2023 Y29.6768
G01 X22.2825 Y29.6287
G01 X22.2931 Y29.6227
G01 X22.3041 Y29.6172
G01 X22.3886 Y29.5772
G01 X22.3998 Y29.5722
G01 X22.4113 Y29.5678
G01 X22.4993 Y29.5363
G01 X22.5109 Y29.5325
G01 X22.5228 Y29.5292
G01 X22.6134 Y29.5065
G01 X22.6314 Y29.5027
G01 X22.7300 Y29.4880
G01 X22.7421 Y29.4865
G01 X22.7544 Y29.4856
G01 X22.8477 Y29.4810
G01 X22.8600 Y29.4807
G01 X22.8723 Y29.4810
G01 X22.9656 Y29.4856
G01 X22.9779 Y29.4865
G01 X22.9900 Y29.4880
G01 X23.0825 Y29.5017
G01 X23.0946 Y29.5038
G01 X23.1066 Y29.5065
G01 X23.1972 Y29.5292
G01 X23.2091 Y29.5325
G01 X23.2207 Y29.5363
G01 X23.3087 Y29.5678
G01 X23.3202 Y29.5722
G01 X23.3314 Y29.5772
G01 X23.4159 Y29.6172
G01 X23.4269 Y29.6227
G01 X23.4375 Y29.6287
G01 X23.5177 Y29.6768
G01 X23.5281 Y29.6834
G01 X23.5381 Y29.6904
G01 X23.6132 Y29.7461
G01 X23.6229 Y29.7537
G01 X23.6321 Y29.7617
G01 X23.7014 Y29.8244
G01 X23.7103 Y29.8329
G01 X23.7188 Y29.8418
G01 X23.7815 Y29.9111
G01 X23.7895 Y29.9203
G01 X23.7971 Y29.9300
G01 X23.8528 Y30.0051
G01 X23.8598 Y30.0151
G01 X23.8664 Y30.0255
G01 X23.9065 Y30.0923
G01 X30.4702 Y29.9759
G01 X32.4396 Y29.9758
G01 X32.4396 Y26.0312
G01 X31.5764 Y26.0312
G01 X31.5681 Y26.0463
G01 X31.5181 Y26.1297
G01 X31.5115 Y26.1400
G01 X31.5045 Y26.1501
G01 X31.4465 Y26.2282
G01 X31.4390 Y26.2378
G01 X31.4310 Y26.2471
G01 X31.3657 Y26.3191
G01 X31.3572 Y26.3280
G01 X31.3483 Y26.3365
G01 X31.2763 Y26.4018
G01 X31.2670 Y26.4098
G01 X31.2574 Y26.4173
G01 X31.1793 Y26.4753
G01 X31.1692 Y26.4823
G01 X31.1589 Y26.4889
G01 X31.0755 Y26.5389
G01 X31.0648 Y26.5449
G01 X31.0539 Y26.5504
G01 X30.9660 Y26.5920
G01 X30.9548 Y26.5970
G01 X30.9433 Y26.6014
G01 X30.8518 Y26.6341
G01 X30.8401 Y26.6380
G01 X30.8283 Y26.6413
G01 X30.7340 Y26.6649
G01 X30.7220 Y26.6676
G01 X30.7099 Y26.6697
G01 X30.6138 Y26.6839
G01 X30.6016 Y26.6854
G01 X30.5894 Y26.6863
G01 X30.4923 Y26.6911
G01 X30.4800 Y26.6914
G01 X30.4677 Y26.6911
G01 X30.3706 Y26.6863
G01 X30.3584 Y26.6854
G01 X30.3462 Y26.6839
G01 X30.2501 Y26.6697
G01 X30.2380 Y26.6676
G01 X30.2260 Y26.6649
G01 X30.1317 Y26.6413
G01 X30.1199 Y26.6380
G01 X30.1082 Y26.6341
G01 X30.0167 Y26.6014
G01 X30.0052 Y26.5970
G01 X29.9940 Y26.5920
G01 X29.9061 Y26.5504
G01 X29.8952 Y26.5449
G01 X29.8845 Y26.5389
G01 X29.8011 Y26.4889
G01 X29.7908 Y26.4823
G01 X29.7807 Y26.4753
G01 X29.7026 Y26.4173
G01 X29.6930 Y26.4098
G01 X29.6837 Y26.4018
G01 X29.6117 Y26.3365
G01 X29.6028 Y26.3280
G01 X29.5943 Y26.3191
G01 X29.5290 Y26.2471
G01 X29.5210 Y26.2378
G01 X29.5135 Y26.2282
G01 X29.4555 Y26.1501
G01 X29.4485 Y26.1400
G01 X29.4419 Y26.1297
G01 X29.3919 Y26.0463
G01 X29.3859 Y26.0356
G01 X29.3804 Y26.0247
G01 X29.3388 Y25.9368
G01 X29.3338 Y25.9256
G01 X29.3294 Y25.9141
G01 X29.2967 Y25.8226
G01 X29.2928 Y25.8109
G01 X29.2895 Y25.7991
G01 X29.2659 Y25.7048
G01 X29.2632 Y25.6928
G01 X29.2611 Y25.6807
G01 X29.2469 Y25.5846
G01 X29.2454 Y25.5724
G01 X29.2445 Y25.5602
G01 X29.2397 Y25.4631
G01 X29.2394 Y25.4508
G01 X29.2397 Y25.4385
G01 X29.2445 Y25.3414
G01 X29.2461 Y25.3231
G01 X29.2611 Y25.2209
G01 X29.2632 Y25.2088
G01 X29.2659 Y25.1968
G01 X29.2895 Y25.1025
G01 X29.2928 Y25.0907
G01 X29.2967 Y25.0790
G01 X29.3294 Y24.9875
G01 X29.3338 Y24.9760
G01 X29.3388 Y24.9648
G01 X29.3804 Y24.8769
G01 X29.3859 Y24.8660
G01 X29.3919 Y24.8553
G01 X29.4419 Y24.7719
G01 X29.4520 Y24.7565
G01 X29.5135 Y24.6734
G01 X29.5210 Y24.6638
G01 X29.5290 Y24.6545
G01 X29.5943 Y24.5825
G01 X29.6028 Y24.5736
G01 X29.6117 Y24.5651
G01 X29.6883 Y24.4958
G01 X29.7026 Y24.4843
G01 X29.7807 Y24.4263
G01 X29.7959 Y24.4159
G01 X29.8898 Y24.3596
G01 X29.9006 Y24.3539
G01 X29.9329 Y24.3385
G01 X29.9435 Y23.4911
G01 X20.2946 Y23.4911
G01 X20.2823 Y23.4908
G01 X20.2402 Y23.4885
G01 X20.1984 Y23.4826
G01 X20.1863 Y23.4805
G01 X20.1394 Y23.4690
G01 X20.1219 Y23.4634
G01 X20.0822 Y23.4489
G01 X20.0710 Y23.4439
G01 X20.0330 Y23.4256
G01 X19.9914 Y23.4010
G01 X19.9763 Y23.3906
G01 X19.9425 Y23.3652
G01 X19.9066 Y23.3329
G01 X17.5247 Y20.9511
G01 X12.9544 Y20.9512
G01 X8.8036 Y25.0798
G01 X8.8072 Y25.0907
G01 X8.8105 Y25.1025
G01 X8.8341 Y25.1968
G01 X8.8368 Y25.2088
G01 X8.8389 Y25.2209
G01 X8.8531 Y25.3170
G01 X8.8546 Y25.3292
G01 X8.8555 Y25.3414
G01 X8.8603 Y25.4385
G01 X8.8606 Y25.4508
G01 X8.8603 Y25.4631
G01 X8.8555 Y25.5602
G01 X8.8546 Y25.5724
G01 X8.8531 Y25.5846
G01 X8.8389 Y25.6807
G01 X8.8368 Y25.6928
G01 X8.8341 Y25.7048
G01 X8.8105 Y25.7991
G01 X8.8072 Y25.8109
G01 X8.8033 Y25.8226
G01 X8.7706 Y25.9141
G01 X8.7662 Y25.9256
G01 X8.7612 Y25.9368
G01 X8.7196 Y26.0247
G01 X8.7141 Y26.0356
G01 X8.7081 Y26.0463
G01 X8.6581 Y26.1297
G01 X8.6515 Y26.1400
G01 X8.6445 Y26.1501
G01 X8.5865 Y26.2282
G01 X8.5790 Y26.2378
G01 X8.5710 Y26.2471
G01 X8.5057 Y26.3191
G01 X8.4972 Y26.3280
G01 X8.4883 Y26.3365
G01 X8.4163 Y26.4018
G01 X8.4070 Y26.4098
G01 X8.3974 Y26.4173
G01 X8.3193 Y26.4753
G01 X8.3092 Y26.4823
G01 X8.2989 Y26.4889
G01 X8.2155 Y26.5389
G01 X8.2048 Y26.5449
G01 X8.1939 Y26.5504
G01 X8.1060 Y26.5920
G01 X8.0891 Y26.5992
G01 X7.9918 Y26.6341
G01 X7.9801 Y26.6380
G01 X7.9683 Y26.6413
G01 X7.8740 Y26.6649
G01 X7.8620 Y26.6676
G01 X7.8499 Y26.6697
G01 X7.7538 Y26.6839
G01 X7.7416 Y26.6854
G01 X7.7294 Y26.6863
G01 X7.6323 Y26.6911
G01 X7.6200 Y26.6914
G01 X7.6077 Y26.6911
G01 X7.5106 Y26.6863
G01 X7.4984 Y26.6854
G01 X7.4862 Y26.6839
G01 X7.3901 Y26.6697
G01 X7.3780 Y26.6676
G01 X7.3660 Y26.6649
G01 X7.2717 Y26.6413
G01 X7.2599 Y26.6380
G01 X7.2482 Y26.6341
G01 X7.1567 Y26.6014
G01 X7.1452 Y26.5970
G01 X7.1340 Y26.5920
G01 X7.0461 Y26.5504
G01 X7.0352 Y26.5449
G01 X7.0245 Y26.5389
G01 X6.9411 Y26.4889
G01 X6.9308 Y26.4823
G01 X6.9207 Y26.4753
G01 X6.8426 Y26.4173
G01 X6.8330 Y26.4098
G01 X6.8237 Y26.4018
G01 X6.7517 Y26.3365
G01 X6.7428 Y26.3280
G01 X6.7343 Y26.3191
G01 X6.6690 Y26.2471
G01 X6.6610 Y26.2378
G01 X6.6535 Y26.2282
G01 X6.5955 Y26.1501
G01 X6.5885 Y26.1400
G01 X6.5819 Y26.1297
G01 X6.5276 Y26.0386
G01 X5.0492 Y26.0565
G01 X5.0054 Y26.0544
G01 X4.9949 Y26.0533
G01 X4.9651 Y26.0491
G01 X4.9411 Y26.0448
G01 X4.9052 Y26.0360
G01 X4.8884 Y26.0310
G01 X4.8471 Y26.0163
G01 X4.8310 Y26.0093
G01 X4.8038 Y25.9966
G01 X4.7943 Y25.9917
G01 X4.7565 Y25.9696
G01 X4.7363 Y25.9560
G01 X4.7120 Y25.9382
G01 X4.7037 Y25.9315
G01 X4.6709 Y25.9025
G01 X4.6537 Y25.8851
G01 X4.6334 Y25.8629
G01 X4.6266 Y25.8548
G01 X4.6001 Y25.8199
G01 X4.5866 Y25.7995
G01 X4.5710 Y25.7738
G01 X4.5659 Y25.7645
G01 X4.5467 Y25.7251
G01 X4.5375 Y25.7025
G01 X4.5272 Y25.6743
G01 X4.5240 Y25.6642
G01 X4.5128 Y25.6217
G01 X4.5082 Y25.5978
G01 X4.5037 Y25.5681
G01 X4.5025 Y25.5575
G01 X4.4998 Y25.5137
G01 X4.4997 Y15.2908
G01 X4.5000 Y15.2785
G00 Z2.0000
G00 X8.7269 Y17.2724
G01 F60.00
G01 Z-0.6000
G01 F120.00
G01 X12.1451 Y17.2535
G01 X12.1451 Y5.1755
G01 X12.1471 Y5.1345
G01 X12.1484 Y5.1213
G01 X12.1544 Y5.0806
G01 X12.1584 Y5.0614
G01 X12.1689 Y5.0208
G01 X12.1824 Y4.9820
G01 X12.1896 Y4.9637
G01 X12.2044 Y4.9322
G01 X12.2135 Y4.9148
G01 X12.2346 Y4.8795
G01 X12.2420 Y4.8684
G01 X12.2664 Y4.8353
G01 X12.2790 Y4.8203
G01 X12.3068 Y4.7900
G01 X12.3165 Y4.7807
G01 X12.3423 Y4.7574
G01 X12.3526 Y4.7489
G01 X12.3856 Y4.7243
G01 X12.3967 Y4.7169
G01 X12.4265 Y4.6989
G01 X12.4381 Y4.6923
G01 X12.4494 Y4.6867
G01 X12.4809 Y4.6718
G01 X12.4932 Y4.6667
G01 X12.5259 Y4.6548
G01 X12.5386 Y4.6506
G01 X12.5507 Y4.6473
G01 X12.5907 Y4.6375
G01 X12.6038 Y4.6352
G01 X12.6445 Y4.6294
G01 X12.6578 Y4.6284
G01 X12.6925 Y4.6267
G01 X22.8597 Y4.6013
G01 X22.9008 Y4.6029
G01 X22.9141 Y4.6039
G01 X22.9548 Y4.6096
G01 X22.9741 Y4.6131
G01 X23.0140 Y4.6231
G01 X23.0268 Y4.6270
G01 X23.0655 Y4.6408
G01 X23.0836 Y4.6485
G01 X23.1213 Y4.6666
G01 X23.1568 Y4.6875
G01 X23.1732 Y4.6982
G01 X23.2013 Y4.7188
G01 X23.2166 Y4.7311
G01 X23.2471 Y4.7586
G01 X23.2566 Y4.7681
G01 X23.2842 Y4.7985
G01 X23.2927 Y4.8088
G01 X23.3136 Y4.8367
G01 X23.3213 Y4.8476
G01 X23.3280 Y4.8583
G01 X23.3493 Y4.8943
G01 X23.3672 Y4.9313
G01 X23.3726 Y4.9435
G01 X23.3771 Y4.9553
G01 X23.3907 Y4.9941
G01 X23.4013 Y5.0346
G01 X23.4042 Y5.0476
G01 X23.4064 Y5.0600
G01 X23.4115 Y5.0945
G01 X23.4128 Y5.1078
G01 X23.4149 Y5.1551
G01 X23.4150 Y6.7567
G01 X23.4269 Y6.7627
G01 X23.4375 Y6.7687
G01 X23.5177 Y6.8168
G01 X23.5281 Y6.8234
G01 X23.5381 Y6.8304
G01 X23.6132 Y6.8861
G01 X23.6229 Y6.8937
G01 X23.6321 Y6.9017
G01 X23.7014 Y6.9644
G01 X23.7103 Y6.9729
G01 X23.7188 Y6.9818
G01 X23.7815 Y7.0511
G01 X23.7895 Y7.0603
G01 X23.7971 Y7.0700
G01 X23.8528 Y7.1451
G01 X23.8598 Y7.1551
G01 X23.8664 Y7.1655
G01 X23.9145 Y7.2457
G01 X23.9205 Y7.2563
G01 X23.9260 Y7.2673
G01 X23.9660 Y7.3518
G01 X23.9710 Y7.3630
G01 X23.9754 Y7.3745
G01 X24.0069 Y7.4625
G01 X24.0107 Y7.4741
G01 X24.0140 Y7.4860
G01 X24.0367 Y7.5766
G01 X24.0394 Y7.5886
G01 X24.0415 Y7.6007
G01 X24.0552 Y7.6932
G01 X24.0567 Y7.7053
G01 X24.0576 Y7.7176
G01 X24.0622 Y7.8109
G01 X24.0625 Y7.8232
G01 X24.0622 Y7.8355
G01 X24.0572 Y7.9350
G01 X24.0552 Y7.9532
G01 X24.0415 Y8.0457
G01 X24.0394 Y8.0578
G01 X24.0367 Y8.0698
G01 X24.0140 Y8.1604
G01 X24.0107 Y8.1723
G01 X24.0069 Y8.1839
G01 X23.9754 Y8.2719
G01 X23.9710 Y8.2834
G01 X23.9660 Y8.2946
G01 X23.9260 Y8.3791
G01 X23.9205 Y8.3901
G01 X23.9145 Y8.4007
G01 X23.8664 Y8.4809
G01 X23.8598 Y8.4913
G01 X23.8528 Y8.5013
G01 X23.7971 Y8.5764
G01 X23.7895 Y8.5861
G01 X23.7815 Y8.5953
G01 X23.7188 Y8.6646
G01 X23.7103 Y8.6735
G01 X23.7014 Y8.6820
G01 X23.6321 Y8.7447
G01 X23.6229 Y8.7527
G01 X23.6132 Y8.7603
G01 X23.5381 Y8.8160
G01 X23.5281 Y8.8230
G01 X23.5177 Y8.8296
G01 X23.4375 Y8.8777
G01 X23.4269 Y8.8837
G01 X23.4159 Y8.8892
G01 X23.3314 Y8.9292
G01 X23.3202 Y8.9342
G01 X23.3087 Y8.9386
G01 X23.2207 Y8.9701
G01 X23.2091 Y8.9739
G01 X23.1972 Y8.9772
G01 X23.1066 Y8.9999
G01 X23.0946 Y9.0026
G01 X23.0825 Y9.0047
G01 X22.9900 Y9.0184
G01 X22.9779 Y9.0199
G01 X22.9656 Y9.0208
G01 X22.8723 Y9.0254
G01 X22.8600 Y9.0257
G01 X22.8477 Y9.0254
G01 X22.7544 Y9.0208
G01 X22.7421 Y9.0199
G01 X22.7300 Y9.0184
G01 X22.6375 Y9.0047
G01 X22.6254 Y9.0026
G01 X22.6134 Y8.9999
G01 X22.5228 Y8.9772
G01 X22.5109 Y8.9739
G01 X22.4993 Y8.9701
G01 X22.4113 Y8.9386
G01 X22.3998 Y8.9342
G01 X22.3886 Y8.9292
G01 X22.3041 Y8.8892
G01 X22.2931 Y8.8837
G01 X22.2825 Y8.8777
G01 X22.2023 Y8.8296
G01 X22.1919 Y8.8230
G01 X22.1819 Y8.8160
G01 X22.1068 Y8.7603
G01 X22.0971 Y8.7527
G01 X22.0879 Y8.7447
G01 X22.0186 Y8.6820
G01 X22.0097 Y8.6735
G01 X22.0012 Y8.6646
G01 X21.9385 Y8.5953
G01 X21.9305 Y8.5861
G01 X21.9229 Y8.5764
G01 X21.8672 Y8.5013
G01 X21.8602 Y8.4913
G01 X21.8536 Y8.4809
G01 X21.8055 Y8.4007
G01 X21.7995 Y8.3901
G01 X21.7940 Y8.3791
G01 X21.7540 Y8.2946
G01 X21.7490 Y8.2834
G01 X21.7446 Y8.2719
G01 X21.7131 Y8.1839
G01 X21.7093 Y8.1723
G01 X21.7060 Y8.1604
G01 X21.6833 Y8.0698
G01 X21.6806 Y8.0578
G01 X21.6785 Y8.0457
G01 X21.6648 Y7.9532
G01 X21.6633 Y7.9411
G01 X21.6624 Y7.9288
G01 X21.6578 Y7.8355
G01 X21.6575 Y7.8232
G01 X21.6578 Y7.8109
G01 X21.6624 Y7.7176
G01 X21.6633 Y7.7053
G01 X21.6648 Y7.6932
G01 X21.6785 Y7.6007
G01 X21.6806 Y7.5886
G01 X21.6833 Y7.5766
G01 X21.7060 Y7.4860
G01 X21.7093 Y7.4741
G01 X21.7131 Y7.4625
G01 X21.7446 Y7.3745
G01 X21.7490 Y7.3630
G01 X21.7540 Y7.3518
G01 X21.7940 Y7.2673
G01 X21.7995 Y7.2563
G01 X21.8055 Y7.2457
G01 X21.8536 Y7.1655
G01 X21.8602 Y7.1551
G01 X21.8672 Y7.1451
G01 X21.9229 Y7.0700
G01 X21.9305 Y7.0603
G01 X21.9385 Y7.0511
G01 X22.0012 Y6.9818
G01 X22.0097 Y6.9729
G01 X22.0186 Y6.9644
G01 X22.0879 Y6.9017
G01 X22.0971 Y6.8937
G01 X22.1068 Y6.8861
G01 X22.1819 Y6.8304
G01 X22.1919 Y6.8234
G01 X22.2023 Y6.8168
G01 X22.2825 Y6.7687
G01 X22.2931 Y6.7627
G01 X22.3050 Y6.7567
G01 X22.3050 Y5.7125
G01 X13.2549 Y5.7352
G01 X13.2550 Y17.2570
G01 X14.2795 Y17.2692
G01 X14.3075 Y17.2225
G01 X14.3175 Y17.2071
G01 X14.3716 Y17.1340
G01 X14.3831 Y17.1196
G01 X14.4441 Y17.0523
G01 X14.4526 Y17.0434
G01 X14.4615 Y17.0349
G01 X14.5288 Y16.9739
G01 X14.5432 Y16.9624
G01 X14.6113 Y16.9119
G01 X14.6213 Y16.9049
G01 X14.6317 Y16.8983
G01 X14.7044 Y16.8547
G01 X14.7151 Y16.8487
G01 X14.7260 Y16.8432
G01 X14.8026 Y16.8069
G01 X14.8195 Y16.7997
G01 X14.9051 Y16.7690
G01 X14.9167 Y16.7652
G01 X14.9286 Y16.7619
G01 X15.0108 Y16.7413
G01 X15.0227 Y16.7386
G01 X15.0348 Y16.7365
G01 X15.1187 Y16.7241
G01 X15.1308 Y16.7226
G01 X15.1431 Y16.7217
G01 X15.2277 Y16.7175
G01 X15.2400 Y16.7172
G01 X15.2523 Y16.7175
G01 X15.3369 Y16.7217
G01 X15.3492 Y16.7226
G01 X15.3613 Y16.7241
G01 X15.4452 Y16.7365
G01 X15.4573 Y16.7386
G01 X15.4692 Y16.7413
G01 X15.5514 Y16.7619
G01 X15.5691 Y16.7670
G01 X15.6547 Y16.7976
G01 X15.6662 Y16.8020
G01 X15.6774 Y16.8069
G01 X15.7540 Y16.8432
G01 X15.7649 Y16.8487
G01 X15.7756 Y16.8547
G01 X15.8483 Y16.8983
G01 X15.8587 Y16.9049
G01 X15.8687 Y16.9119
G01 X15.9368 Y16.9624
G01 X15.9465 Y16.9700
G01 X15.9558 Y16.9780
G01 X16.0185 Y17.0349
G01 X16.0274 Y17.0434
G01 X16.0359 Y17.0523
G01 X16.0928 Y17.1150
G01 X16.1008 Y17.1243
G01 X16.1084 Y17.1340
G01 X16.1589 Y17.2021
G01 X16.1659 Y17.2121
G01 X16.1725 Y17.2225
G01 X16.2161 Y17.2952
G01 X16.2221 Y17.3059
G01 X16.2276 Y17.3168
G01 X16.2639 Y17.3934
G01 X16.2688 Y17.4046
G01 X16.2732 Y17.4161
G01 X16.3018 Y17.4959
G01 X16.3056 Y17.5075
G01 X16.3089 Y17.5194
G01 X16.3295 Y17.6016
G01 X16.3322 Y17.6135
G01 X16.3343 Y17.6256
G01 X16.3467 Y17.7095
G01 X16.3482 Y17.7216
G01 X16.3491 Y17.7339
G01 X16.3533 Y17.8185
G01 X16.3536 Y17.8308
G01 X16.3533 Y17.8431
G01 X16.3491 Y17.9277
G01 X16.3482 Y17.9400
G01 X16.3467 Y17.9521
G01 X16.3343 Y18.0360
G01 X16.3322 Y18.0481
G01 X16.3295 Y18.0600
G01 X16.3089 Y18.1422
G01 X16.3056 Y18.1541
G01 X16.3018 Y18.1657
G01 X16.2711 Y18.2513
G01 X16.2639 Y18.2682
G01 X16.2276 Y18.3448
G01 X16.2221 Y18.3557
G01 X16.2161 Y18.3664
G01 X16.1725 Y18.4391
G01 X16.1659 Y18.4495
G01 X16.1589 Y18.4595
G01 X16.1084 Y18.5276
G01 X16.1008 Y18.5373
G01 X16.0928 Y18.5466
G01 X16.0359 Y18.6093
G01 X16.0274 Y18.6182
G01 X16.0185 Y18.6267
G01 X15.9558 Y18.6836
G01 X15.9465 Y18.6916
G01 X15.9368 Y18.6992
G01 X15.8687 Y18.7497
G01 X15.8587 Y18.7567
G01 X15.8483 Y18.7633
G01 X15.7756 Y18.8069
G01 X15.7649 Y18.8129
G01 X15.7540 Y18.8184
G01 X15.6774 Y18.8547
G01 X15.6662 Y18.8596
G01 X15.6547 Y18.8640
G01 X15.5749 Y18.8926
G01 X15.5633 Y18.8964
G01 X15.5514 Y18.8997
G01 X15.4692 Y18.9203
G01 X15.4573 Y18.9230
G01 X15.4452 Y18.9251
G01 X15.3613 Y18.9375
G01 X15.3492 Y18.9390
G01 X15.3369 Y18.9399
G01 X15.2523 Y18.9441
G01 X15.2400 Y18.9444
G01 X15.2277 Y18.9441
G01 X15.1431 Y18.9399
G01 X15.1308 Y18.9390
G01 X15.1187 Y18.9375
G01 X15.0348 Y18.9251
G01 X15.0227 Y18.9230
G01 X15.0108 Y18.9203
G01 X14.9286 Y18.8997
G01 X14.9167 Y18.8964
G01 X14.9051 Y18.8926
G01 X14.8253 Y18.8640
G01 X14.8138 Y18.8596
G01 X14.8026 Y18.8547
G01 X14.7260 Y18.8184
G01 X14.7151 Y18.8129
G01 X14.7044 Y18.8069
G01 X14.6317 Y18.7633
G01 X14.6213 Y18.7567
G01 X14.6113 Y18.7497
G01 X14.5432 Y18.6992
G01 X14.5335 Y18.6916
G01 X14.5242 Y18.6836
G01 X14.4615 Y18.6267
G01 X14.4526 Y18.6182
G01 X14.4441 Y18.6093
G01 X14.3872 Y18.5466
G01 X14.3792 Y18.5373
G01 X14.3716 Y18.5276
G01 X14.3211 Y18.4595
G01 X14.3141 Y18.4495
G01 X14.3075 Y18.4391
G01 X14.2715 Y18.3791
G01 X12.6982 Y18.3604
G01 X8.7302 Y18.3823
G01 X8.7169 Y18.4102
G01 X8.7112 Y18.4210
G01 X8.6549 Y18.5149
G01 X8.6445 Y18.5301
G01 X8.5865 Y18.6082
G01 X8.5750 Y18.6225
G01 X8.5057 Y18.6991
G01 X8.4972 Y18.7080
G01 X8.4883 Y18.7165
G01 X8.4163 Y18.7818
G01 X8.4070 Y18.7898
G01 X8.3974 Y18.7973
G01 X8.3193 Y18.8553
G01 X8.3041 Y18.8657
G01 X8.2155 Y18.9189
G01 X8.2048 Y18.9249
G01 X8.1939 Y18.9304
G01 X8.1060 Y18.9720
G01 X8.0948 Y18.9770
G01 X8.0833 Y18.9814
G01 X7.9918 Y19.0141
G01 X7.9801 Y19.0180
G01 X7.9683 Y19.0213
G01 X7.8740 Y19.0449
G01 X7.8620 Y19.0476
G01 X7.8499 Y19.0497
G01 X7.7538 Y19.0639
G01 X7.7416 Y19.0654
G01 X7.7294 Y19.0663
G01 X7.6261 Y19.0713
G01 X7.6077 Y19.0711
G01 X7.5106 Y19.0663
G01 X7.4984 Y19.0654
G01 X7.4862 Y19.0639
G01 X7.3901 Y19.0497
G01 X7.3780 Y19.0476
G01 X7.3660 Y19.0449
G01 X7.2717 Y19.0213
G01 X7.2599 Y19.0180
G01 X7.2482 Y19.0141
G01 X7.1567 Y18.9814
G01 X7.1452 Y18.9770
G01 X7.1340 Y18.9720
G01 X7.0461 Y18.9304
G01 X7.0352 Y18.9249
G01 X7.0245 Y18.9189
G01 X6.9411 Y18.8689
G01 X6.9308 Y18.8623
G01 X6.9207 Y18.8553
G01 X6.8426 Y18.7973
G01 X6.8330 Y18.7898
G01 X6.8237 Y18.7818
G01 X6.7517 Y18.7165
G01 X6.7428 Y18.7080
G01 X6.7343 Y18.6991
G01 X6.6690 Y18.6271
G01 X6.6610 Y18.6178
G01 X6.6535 Y18.6082
G01 X6.5955 Y18.5301
G01 X6.5885 Y18.5200
G01 X6.5819 Y18.5097
G01 X6.5319 Y18.4263
G01 X6.5231 Y18.4102
G01 X6.4788 Y18.3168
G01 X6.4738 Y18.3056
G01 X6.4694 Y18.2941
G01 X6.4367 Y18.2026
G01 X6.4328 Y18.1909
G01 X6.4295 Y18.1791
G01 X6.4059 Y18.0848
G01 X6.4032 Y18.0728
G01 X6.4011 Y18.0607
G01 X6.3869 Y17.9646
G01 X6.3854 Y17.9524
G01 X6.3845 Y17.9402
G01 X6.3797 Y17.8431
G01 X6.3794 Y17.8308
G01 X6.3797 Y17.8185
G01 X6.3845 Y17.7214
G01 X6.3854 Y17.7092
G01 X6.3869 Y17.6970
G01 X6.4011 Y17.6009
G01 X6.4032 Y17.5888
G01 X6.4059 Y17.5768
G01 X6.4295 Y17.4825
G01 X6.4328 Y17.4707
G01 X6.4367 Y17.4590
G01 X6.4694 Y17.3675
G01 X6.4738 Y17.3560
G01 X6.4788 Y17.3448
G01 X6.5204 Y17.2569
G01 X6.5259 Y17.2460
G01 X6.5319 Y17.2353
G01 X6.5819 Y17.1519
G01 X6.5885 Y17.1416
G01 X6.5955 Y17.1315
G01 X6.6535 Y17.0534
G01 X6.6610 Y17.0438
G01 X6.6690 Y17.0345
G01 X6.7343 Y16.9625
G01 X6.7428 Y16.9536
G01 X6.7517 Y16.9451
G01 X6.8237 Y16.8798
G01 X6.8330 Y16.8718
G01 X6.8426 Y16.8643
G01 X6.9207 Y16.8063
G01 X6.9308 Y16.7993
G01 X6.9411 Y16.7927
G01 X7.0245 Y16.7427
G01 X7.0406 Y16.7339
G01 X7.1340 Y16.6896
G01 X7.1452 Y16.6846
G01 X7.1567 Y16.6802
G01 X7.2482 Y16.6475
G01 X7.2599 Y16.6436
G01 X7.2717 Y16.6403
G01 X7.3660 Y16.6167
G01 X7.3780 Y16.6140
G01 X7.3901 Y16.6119
G01 X7.4862 Y16.5977
G01 X7.4984 Y16.5962
G01 X7.5106 Y16.5953
G01 X7.6077 Y16.5905
G01 X7.6200 Y16.5902
G01 X7.6323 Y16.5905
G01 X7.7294 Y16.5953
G01 X7.7416 Y16.5962
G01 X7.7538 Y16.5977
G01 X7.8499 Y16.6119
G01 X7.8620 Y16.6140
G01 X7.8740 Y16.6167
G01 X7.9683 Y16.6403
G01 X7.9860 Y16.6455
G01 X8.0833 Y16.6802
G01 X8.0948 Y16.6846
G01 X8.1060 Y16.6896
G01 X8.1939 Y16.7312
G01 X8.2048 Y16.7367
G01 X8.2155 Y16.7427
G01 X8.2989 Y16.7927
G01 X8.3092 Y16.7993
G01 X8.3193 Y16.8063
G01 X8.3974 Y16.8643
G01 X8.4117 Y16.8758
G01 X8.4883 Y16.9451
G01 X8.4972 Y16.9536
G01 X8.5057 Y16.9625
G01 X8.5710 Y17.0345
G01 X8.5828 Y17.0486
G01 X8.6445 Y17.1315
G01 X8.6549 Y17.1467
G01 X8.7112 Y17.2406
G01 X8.7169 Y17.2514
G01 X8.7269 Y17.2724
G00 Z2.0000
G00 X8.0319 Y26.8218
G01 F60.00
G01 Z-0.6000
G01 F120.00
G01 X12.3340 Y22.5427
G01 X12.3641 Y22.5152
G01 X12.3742 Y22.5065
G01 X12.3842 Y22.4988
G01 X12.4174 Y22.4746
G01 X12.4287 Y22.4674
G01 X12.4641 Y22.4466
G01 X12.4761 Y22.4406
G01 X12.5075 Y22.4258
G01 X12.5259 Y22.4185
G01 X12.5646 Y22.4050
G01 X12.5776 Y22.4015
G01 X12.6175 Y22.3918
G01 X12.6307 Y22.3896
G01 X12.6713 Y22.3839
G01 X12.6847 Y22.3829
G01 X12.7254 Y22.3813
G01 X17.7607 Y22.3813
G01 X17.7970 Y22.3829
G01 X17.8075 Y22.3838
G01 X17.8212 Y22.3854
G01 X17.8578 Y22.3909
G01 X17.8681 Y22.3930
G01 X17.9041 Y22.4018
G01 X17.9208 Y22.4068
G01 X17.9493 Y22.4167
G01 X17.9719 Y22.4256
G01 X18.0055 Y22.4412
G01 X18.0209 Y22.4494
G01 X18.0586 Y22.4719
G01 X18.0674 Y22.4778
G01 X18.0972 Y22.4997
G01 X18.1108 Y22.5107
G01 X18.1433 Y22.5401
G01 X18.1555 Y22.5527
G01 X18.1803 Y22.5802
G01 X18.1911 Y22.5938
G01 X18.2131 Y22.6236
G01 X18.2226 Y22.6383
G01 X18.2416 Y22.6700
G01 X18.2495 Y22.6856
G01 X18.2653 Y22.7191
G01 X18.2717 Y22.7353
G01 X18.2841 Y22.7702
G01 X18.2889 Y22.7869
G01 X18.2979 Y22.8229
G01 X18.3010 Y22.8400
G01 X18.3063 Y22.8767
G01 X18.3078 Y22.8940
G01 X18.3095 Y22.9295
G01 X18.3282 Y24.4823
G01 X18.3883 Y24.5183
G01 X18.3987 Y24.5249
G01 X18.4087 Y24.5319
G01 X18.4768 Y24.5824
G01 X18.4865 Y24.5900
G01 X18.4958 Y24.5980
G01 X18.5585 Y24.6549
G01 X18.5674 Y24.6634
G01 X18.5759 Y24.6723
G01 X18.6328 Y24.7350
G01 X18.6408 Y24.7443
G01 X18.6484 Y24.7540
G01 X18.6989 Y24.8221
G01 X18.7059 Y24.8321
G01 X18.7125 Y24.8425
G01 X18.7561 Y24.9152
G01 X18.7621 Y24.9259
G01 X18.7676 Y24.9368
G01 X18.8039 Y25.0134
G01 X18.8088 Y25.0246
G01 X18.8132 Y25.0361
G01 X18.8418 Y25.1159
G01 X18.8456 Y25.1275
G01 X18.8489 Y25.1394
G01 X18.8695 Y25.2216
G01 X18.8722 Y25.2335
G01 X18.8743 Y25.2456
G01 X18.8867 Y25.3295
G01 X18.8882 Y25.3416
G01 X18.8891 Y25.3539
G01 X18.8933 Y25.4385
G01 X18.8936 Y25.4508
G01 X18.8933 Y25.4631
G01 X18.8891 Y25.5477
G01 X18.8882 Y25.5600
G01 X18.8867 Y25.5721
G01 X18.8743 Y25.6560
G01 X18.8722 Y25.6681
G01 X18.8695 Y25.6800
G01 X18.8489 Y25.7622
G01 X18.8456 Y25.7741
G01 X18.8418 Y25.7857
G01 X18.8132 Y25.8655
G01 X18.8088 Y25.8770
G01 X18.8039 Y25.8882
G01 X18.7676 Y25.9648
G01 X18.7621 Y25.9757
G01 X18.7561 Y25.9864
G01 X18.7125 Y26.0591
G01 X18.7059 Y26.0695
G01 X18.6989 Y26.0795
G01 X18.6484 Y26.1476
G01 X18.6408 Y26.1573
G01 X18.6328 Y26.1666
G01 X18.5759 Y26.2293
G01 X18.5674 Y26.2382
G01 X18.5585 Y26.2467
G01 X18.4958 Y26.3036
G01 X18.4865 Y26.3116
G01 X18.4768 Y26.3192
G01 X18.4087 Y26.3697
G01 X18.3987 Y26.3767
G01 X18.3883 Y26.3833
G01 X18.3218 Y26.4232
G01 X18.2840 Y28.0293
G01 X18.2820 Y28.0645
G01 X18.2800 Y28.0836
G01 X18.2783 Y28.0957
G01 X18.2735 Y28.1245
G01 X18.2694 Y28.1432
G01 X18.2620 Y28.1714
G01 X18.2563 Y28.1897
G01 X18.2419 Y28.2286
G01 X18.2342 Y28.2462
G01 X18.2214 Y28.2724
G01 X18.2092 Y28.2945
G01 X18.1940 Y28.3194
G01 X18.1832 Y28.3353
G01 X18.1620 Y28.3635
G01 X18.1457 Y28.3829
G01 X18.1216 Y28.4086
G01 X18.1078 Y28.4219
G01 X18.0813 Y28.4452
G01 X18.0612 Y28.4607
G01 X18.0426 Y28.4742
G01 X18.0266 Y28.4847
G01 X17.9962 Y28.5027
G01 X17.9792 Y28.5116
G01 X17.9472 Y28.5265
G01 X17.9295 Y28.5338
G01 X17.8961 Y28.5454
G01 X17.8778 Y28.5509
G01 X17.8435 Y28.5592
G01 X17.8246 Y28.5629
G01 X17.7897 Y28.5678
G01 X17.7645 Y28.5700
G01 X17.7292 Y28.5711
G01 X13.2549 Y28.5712
G01 X13.2550 Y37.5492
G01 X22.3050 Y37.6171
G01 X22.3050 Y36.8297
G01 X22.2931 Y36.8237
G01 X22.2825 Y36.8177
G01 X22.2023 Y36.7696
G01 X22.1919 Y36.7630
G01 X22.1819 Y36.7560
G01 X22.1068 Y36.7003
G01 X22.0971 Y36.6927
G01 X22.0879 Y36.6847
G01 X22.0186 Y36.6220
G01 X22.0097 Y36.6135
G01 X22.0012 Y36.6046
G01 X21.9385 Y36.5353
G01 X21.9305 Y36.5261
G01 X21.9229 Y36.5164
G01 X21.8672 Y36.4413
G01 X21.8602 Y36.4313
G01 X21.8536 Y36.4209
G01 X21.8055 Y36.3407
G01 X21.7995 Y36.3301
G01 X21.7940 Y36.3191
G01 X21.7540 Y36.2346
G01 X21.7490 Y36.2234
G01 X21.7446 Y36.2119
G01 X21.7131 Y36.1239
G01 X21.7093 Y36.1123
G01 X21.7060 Y36.1004
G01 X21.6833 Y36.0098
G01 X21.6806 Y35.9978
G01 X21.6785 Y35.9857
G01 X21.6648 Y35.8932
G01 X21.6633 Y35.8811
G01 X21.6624 Y35.8688
G01 X21.6578 Y35.7755
G01 X21.6575 Y35.7632
G01 X21.6578 Y35.7509
G01 X21.6624 Y35.6576
G01 X21.6633 Y35.6453
G01 X21.6648 Y35.6332
G01 X21.6785 Y35.5407
G01 X21.6819 Y35.5226
G01 X21.7060 Y35.4260
G01 X21.7093 Y35.4141
G01 X21.7131 Y35.4025
G01 X21.7446 Y35.3145
G01 X21.7490 Y35.3030
G01 X21.7540 Y35.2918
G01 X21.7940 Y35.2073
G01 X21.7995 Y35.1963
G01 X21.8055 Y35.1857
G01 X21.8536 Y35.1055
G01 X21.8602 Y35.0951
G01 X21.8672 Y35.0851
G01 X21.9229 Y35.0100
G01 X21.9305 Y35.0003
G01 X21.9385 Y34.9911
G01 X22.0012 Y34.9218
G01 X22.0097 Y34.9129
G01 X22.0186 Y34.9044
G01 X22.0879 Y34.8417
G01 X22.0971 Y34.8337
G01 X22.1068 Y34.8261
G01 X22.1819 Y34.7704
G01 X22.1919 Y34.7634
G01 X22.2023 Y34.7568
G01 X22.2825 Y34.7087
G01 X22.2931 Y34.7027
G01 X22.3041 Y34.6972
G01 X22.3886 Y34.6572
G01 X22.3998 Y34.6522
G01 X22.4113 Y34.6478
G01 X22.4993 Y34.6163
G01 X22.5109 Y34.6125
G01 X22.5228 Y34.6092
G01 X22.6134 Y34.5865
G01 X22.6254 Y34.5838
G01 X22.6375 Y34.5817
G01 X22.7300 Y34.5680
G01 X22.7421 Y34.5665
G01 X22.7544 Y34.5656
G01 X22.8477 Y34.5610
G01 X22.8600 Y34.5607
G01 X22.8723 Y34.5610
G01 X22.9656 Y34.5656
G01 X22.9779 Y34.5665
G01 X22.9900 Y34.5680
G01 X23.0825 Y34.5817
G01 X23.0946 Y34.5838
G01 X23.1066 Y34.5865
G01 X23.1972 Y34.6092
G01 X23.2091 Y34.6125
G01 X23.2207 Y34.6163
G01 X23.3087 Y34.6478
G01 X23.3202 Y34.6522
G01 X23.3314 Y34.6572
G01 X23.4159 Y34.6972
G01 X23.4269 Y34.7027
G01 X23.4375 Y34.7087
G01 X23.5177 Y34.7568
G01 X23.5281 Y34.7634
G01 X23.5381 Y34.7704
G01 X23.6132 Y34.8261
G01 X23.6229 Y34.8337
G01 X23.6321 Y34.8417
G01 X23.7014 Y34.9044
G01 X23.7103 Y34.9129
G01 X23.7188 Y34.9218
G01 X23.7815 Y34.9911
G01 X23.7895 Y35.0003
G01 X23.7971 Y35.0100
G01 X23.8528 Y35.0851
G01 X23.8598 Y35.0951
G01 X23.8664 Y35.1055
G01 X23.9145 Y35.1857
G01 X23.9205 Y35.1963
G01 X23.9260 Y35.2073
G01 X23.9660 Y35.2918
G01 X23.9710 Y35.3030
G01 X23.9754 Y35.3145
G01 X24.0069 Y35.4025
G01 X24.0107 Y35.4141
G01 X24.0140 Y35.4260
G01 X24.0367 Y35.5166
G01 X24.0394 Y35.5286
G01 X24.0415 Y35.5407
G01 X24.0552 Y35.6332
G01 X24.0572 Y35.6514
G01 X24.0622 Y35.7509
G01 X24.0625 Y35.7632
G01 X24.0622 Y35.7755
G01 X24.0576 Y35.8688
G01 X24.0567 Y35.8811
G01 X24.0552 Y35.8932
G01 X24.0415 Y35.9857
G01 X24.0394 Y35.9978
G01 X24.0367 Y36.0098
G01 X24.0140 Y36.1004
G01 X24.0107 Y36.1123
G01 X24.0069 Y36.1239
G01 X23.9754 Y36.2119
G01 X23.9710 Y36.2234
G01 X23.9660 Y36.2346
G01 X23.9260 Y36.3191
G01 X23.9205 Y36.3301
G01 X23.9145 Y36.3407
G01 X23.8664 Y36.4209
G01 X23.8598 Y36.4313
G01 X23.8528 Y36.4413
G01 X23.7971 Y36.5164
G01 X23.7895 Y36.5261
G01 X23.7815 Y36.5353
G01 X23.7188 Y36.6046
G01 X23.7103 Y36.6135
G01 X23.7014 Y36.6220
G01 X23.6321 Y36.6847
G01 X23.6229 Y36.6927
G01 X23.6132 Y36.7003
G01 X23.5381 Y36.7560
G01 X23.5281 Y36.7630
G01 X23.5177 Y36.7696
G01 X23.4375 Y36.8177
G01 X23.4269 Y36.8237
G01 X23.4149 Y36.8297
G01 X23.4149 Y38.1762
G01 X23.4145 Y38.1926
G01 X23.4128 Y38.2249
G01 X23.4103 Y38.2469
G01 X23.4053 Y38.2789
G01 X23.4022 Y38.2941
G01 X23.3908 Y38.3382
G01 X23.3859 Y38.3529
G01 X23.3748 Y38.3833
G01 X23.3660 Y38.4036
G01 X23.3520 Y38.4328
G01 X23.3447 Y38.4464
G01 X23.3209 Y38.4853
G01 X23.3120 Y38.4979
G01 X23.2925 Y38.5238
G01 X23.2782 Y38.5407
G01 X23.2517 Y38.5693
G01 X23.2405 Y38.5799
G01 X23.2113 Y38.6058
G01 X23.1991 Y38.6153
G01 X23.1730 Y38.6344
G01 X23.1656 Y38.6394
G01 X23.1323 Y38.6596
G01 X23.1129 Y38.6701
G01 X23.0776 Y38.6867
G01 X23.0632 Y38.6926
G01 X23.0265 Y38.7055
G01 X23.0053 Y38.7116
G01 X22.9673 Y38.7207
G01 X22.9586 Y38.7223
G01 X22.9266 Y38.7270
G01 X22.9046 Y38.7293
G01 X22.8657 Y38.7311
G01 X12.6958 Y38.6549
G01 X12.6578 Y38.6532
G01 X12.6447 Y38.6522
G01 X12.6358 Y38.6512
G01 X12.6038 Y38.6464
G01 X12.5821 Y38.6422
G01 X12.5507 Y38.6343
G01 X12.5358 Y38.6301
G01 X12.5233 Y38.6259
G01 X12.4868 Y38.6123
G01 X12.4786 Y38.6088
G01 X12.4494 Y38.5949
G01 X12.4298 Y38.5847
G01 X12.4021 Y38.5680
G01 X12.3890 Y38.5596
G01 X12.3783 Y38.5520
G01 X12.3472 Y38.5284
G01 X12.3404 Y38.5227
G01 X12.3165 Y38.5009
G01 X12.3007 Y38.4854
G01 X12.2790 Y38.4613
G01 X12.2690 Y38.4496
G01 X12.2609 Y38.4391
G01 X12.2381 Y38.4075
G01 X12.2332 Y38.4001
G01 X12.2166 Y38.3723
G01 X12.2061 Y38.3529
G01 X12.1923 Y38.3236
G01 X12.1861 Y38.3094
G01 X12.1728 Y38.2727
G01 X12.1680 Y38.2580
G01 X12.1646 Y38.2453
G01 X12.1555 Y38.2073
G01 X12.1529 Y38.1921
G01 X12.1476 Y38.1535
G01 X12.1465 Y38.1380
G01 X12.1451 Y38.1000
G01 X12.1451 Y28.0162
G01 X12.1454 Y28.0039
G01 X12.1477 Y27.9618
G01 X12.1536 Y27.9200
G01 X12.1557 Y27.9079
G01 X12.1584 Y27.8960
G01 X12.1672 Y27.8610
G01 X12.1708 Y27.8493
G01 X12.1873 Y27.8038
G01 X12.2051 Y27.7656
G01 X12.2135 Y27.7492
G01 X12.2386 Y27.7079
G01 X12.2672 Y27.6689
G01 X12.2790 Y27.6549
G01 X12.3076 Y27.6238
G01 X12.3165 Y27.6153
G01 X12.3479 Y27.5872
G01 X12.3866 Y27.5582
G01 X12.4021 Y27.5482
G01 X12.4384 Y27.5268
G01 X12.4764 Y27.5085
G01 X12.4876 Y27.5035
G01 X12.4991 Y27.4991
G01 X12.5389 Y27.4851
G01 X12.5798 Y27.4746
G01 X12.5917 Y27.4719
G01 X12.6038 Y27.4698
G01 X12.6395 Y27.4646
G01 X12.6517 Y27.4634
G01 X12.7000 Y27.4613
G01 X17.1872 Y27.4612
G01 X17.2119 Y26.4074
G01 X17.1717 Y26.3833
G01 X17.1563 Y26.3733
G01 X17.0783 Y26.3155
G01 X17.0642 Y26.3036
G01 X17.0015 Y26.2467
G01 X16.9883 Y26.2338
G01 X16.9272 Y26.1666
G01 X16.9192 Y26.1573
G01 X16.9116 Y26.1476
G01 X16.8611 Y26.0795
G01 X16.8541 Y26.0695
G01 X16.8475 Y26.0591
G01 X16.8009 Y25.9811
G01 X16.7924 Y25.9648
G01 X16.7561 Y25.8882
G01 X16.7512 Y25.8770
G01 X16.7468 Y25.8655
G01 X16.7182 Y25.7857
G01 X16.7144 Y25.7741
G01 X16.7111 Y25.7622
G01 X16.6905 Y25.6800
G01 X16.6878 Y25.6681
G01 X16.6857 Y25.6560
G01 X16.6733 Y25.5721
G01 X16.6718 Y25.5600
G01 X16.6709 Y25.5477
G01 X16.6667 Y25.4631
G01 X16.6664 Y25.4508
G01 X16.6667 Y25.4385
G01 X16.6709 Y25.3539
G01 X16.6718 Y25.3416
G01 X16.6733 Y25.3295
G01 X16.6857 Y25.2456
G01 X16.6878 Y25.2335
G01 X16.6905 Y25.2216
G01 X16.7111 Y25.1394
G01 X16.7144 Y25.1275
G01 X16.7182 Y25.1159
G01 X16.7468 Y25.0361
G01 X16.7512 Y25.0246
G01 X16.7561 Y25.0134
G01 X16.7924 Y24.9368
G01 X16.8009 Y24.9205
G01 X16.8475 Y24.8425
G01 X16.8541 Y24.8321
G01 X16.8611 Y24.8221
G01 X16.9116 Y24.7540
G01 X16.9192 Y24.7443
G01 X16.9272 Y24.7350
G01 X16.9883 Y24.6678
G01 X17.0015 Y24.6549
G01 X17.0642 Y24.5980
G01 X17.0783 Y24.5861
G01 X17.1513 Y24.5319
G01 X17.1613 Y24.5249
G01 X17.2183 Y24.4904
G01 X17.2063 Y23.4911
G01 X12.9544 Y23.4912
G01 X8.8036 Y27.6198
G01 X8.8072 Y27.6307
G01 X8.8105 Y27.6425
G01 X8.8341 Y27.7368
G01 X8.8368 Y27.7488
G01 X8.8389 Y27.7609
G01 X8.8531 Y27.8570
G01 X8.8546 Y27.8692
G01 X8.8555 Y27.8814
G01 X8.8603 Y27.9785
G01 X8.8606 Y27.9908
G01 X8.8603 Y28.0031
G01 X8.8555 Y28.1002
G01 X8.8546 Y28.1124
G01 X8.8531 Y28.1246
G01 X8.8389 Y28.2207
G01 X8.8368 Y28.2328
G01 X8.8341 Y28.2448
G01 X8.8105 Y28.3391
G01 X8.8072 Y28.3509
G01 X8.8033 Y28.3626
G01 X8.7706 Y28.4541
G01 X8.7662 Y28.4656
G01 X8.7612 Y28.4768
G01 X8.7196 Y28.5647
G01 X8.7141 Y28.5756
G01 X8.7081 Y28.5863
G01 X8.6581 Y28.6697
G01 X8.6515 Y28.6800
G01 X8.6445 Y28.6901
G01 X8.5865 Y28.7682
G01 X8.5790 Y28.7778
G01 X8.5710 Y28.7871
G01 X8.5057 Y28.8591
G01 X8.4972 Y28.8680
G01 X8.4883 Y28.8765
G01 X8.4163 Y28.9418
G01 X8.4070 Y28.9498
G01 X8.3974 Y28.9573
G01 X8.3193 Y29.0153
G01 X8.3092 Y29.0223
G01 X8.2989 Y29.0289
G01 X8.2155 Y29.0789
G01 X8.2048 Y29.0849
G01 X8.1939 Y29.0904
G01 X8.1060 Y29.1320
G01 X8.0948 Y29.1370
G01 X8.0833 Y29.1414
G01 X7.9918 Y29.1741
G01 X7.9801 Y29.1780
G01 X7.9683 Y29.1813
G01 X7.8740 Y29.2049
G01 X7.8620 Y29.2076
G01 X7.8499 Y29.2097
G01 X7.7538 Y29.2239
G01 X7.7416 Y29.2254
G01 X7.7294 Y29.2263
G01 X7.6323 Y29.2311
G01 X7.6200 Y29.2314
G01 X7.6077 Y29.2311
G01 X7.5106 Y29.2263
G01 X7.4984 Y29.2254
G01 X7.4862 Y29.2239
G01 X7.3901 Y29.2097
G01 X7.3780 Y29.2076
G01 X7.3660 Y29.2049
G01 X7.2717 Y29.1813
G01 X7.2540 Y29.1761
G01 X7.1567 Y29.1414
G01 X7.1452 Y29.1370
G01 X7.1340 Y29.1320
G01 X7.0461 Y29.0904
G01 X7.0352 Y29.0849
G01 X7.0245 Y29.0789
G01 X6.9411 Y29.0289
G01 X6.9308 Y29.0223
G01 X6.9207 Y29.0153
G01 X6.8426 Y28.9573
G01 X6.8330 Y28.9498
G01 X6.8237 Y28.9418
G01 X6.7517 Y28.8765
G01 X6.7428 Y28.8680
G01 X6.7343 Y28.8591
G01 X6.6690 Y28.7871
G01 X6.6610 Y28.7778
G01 X6.6535 Y28.7682
G01 X6.5955 Y28.6901
G01 X6.5885 Y28.6800
G01 X6.5819 Y28.6697
G01 X6.5319 Y28.5863
G01 X6.5259 Y28.5756
G01 X6.5204 Y28.5647
G01 X6.4788 Y28.4768
G01 X6.4738 Y28.4656
G01 X6.4694 Y28.4541
G01 X6.4367 Y28.3626
G01 X6.4328 Y28.3509
G01 X6.4295 Y28.3391
G01 X6.4059 Y28.2448
G01 X6.4032 Y28.2328
G01 X6.4011 Y28.2207
G01 X6.3869 Y28.1246
G01 X6.3854 Y28.1124
G01 X6.3845 Y28.1002
G01 X6.3797 Y28.0031
G01 X6.3794 Y27.9908
G01 X6.3797 Y27.9785
G01 X6.3845 Y27.8814
G01 X6.3854 Y27.8692
G01 X6.3869 Y27.8570
G01 X6.4011 Y27.7609
G01 X6.4032 Y27.7488
G01 X6.4059 Y27.7368
G01 X6.4295 Y27.6425
G01 X6.4347 Y27.6248
G01 X6.4694 Y27.5275
G01 X6.4738 Y27.5160
G01 X6.4788 Y27.5048
G01 X6.5204 Y27.4169
G01 X6.5259 Y27.4060
G01 X6.5319 Y27.3953
G01 X6.5819 Y27.3119
G01 X6.5885 Y27.3016
G01 X6.5955 Y27.2915
G01 X6.6535 Y27.2134
G01 X6.6610 Y27.2038
G01 X6.6690 Y27.1945
G01 X6.7343 Y27.1225
G01 X6.7428 Y27.1136
G01 X6.7517 Y27.1051
G01 X6.8237 Y27.0398
G01 X6.8330 Y27.0318
G01 X6.8426 Y27.0243
G01 X6.9207 Y26.9663
G01 X6.9308 Y26.9593
G01 X6.9411 Y26.9527
G01 X7.0245 Y26.9027
G01 X7.0406 Y26.8939
G01 X7.1340 Y26.8496
G01 X7.1452 Y26.8446
G01 X7.1567 Y26.8402
G01 X7.2482 Y26.8075
G01 X7.2599 Y26.8036
G01 X7.2717 Y26.8003
G01 X7.3660 Y26.7767
G01 X7.3780 Y26.7740
G01 X7.3901 Y26.7719
G01 X7.4862 Y26.7577
G01 X7.5045 Y26.7556
G01 X7.6077 Y26.7505
G01 X7.6200 Y26.7502
G01 X7.6323 Y26.7505
G01 X7.7294 Y26.7553
G01 X7.7477 Y26.7569
G01 X7.8499 Y26.7719
G01 X7.8680 Y26.7753
G01 X7.9742 Y26.8019
G01 X7.9918 Y26.8075
G01 X8.0319 Y26.8218
G00 Z2.0000
G00 X14.6850 Y31.7497
G01 F60.00
G01 Z-0.6000
G01 F120.00
G01 X14.6731 Y31.7437
G01 X14.6625 Y31.7377
G01 X14.5823 Y31.6896
G01 X14.5719 Y31.6830
G01 X14.5619 Y31.6760
G01 X14.4868 Y31.6203
G01 X14.4771 Y31.6127
G01 X14.4679 Y31.6047
G01 X14.3986 Y31.5420
G01 X14.3897 Y31.5335
G01 X14.3812 Y31.5246
G01 X14.3185 Y31.4553
G01 X14.3105 Y31.4461
G01 X14.3029 Y31.4364
G01 X14.2472 Y31.3613
G01 X14.2402 Y31.3513
G01 X14.2336 Y31.3409
G01 X14.1855 Y31.2607
G01 X14.1795 Y31.2501
G01 X14.1740 Y31.2391
G01 X14.1340 Y31.1546
G01 X14.1290 Y31.1434
G01 X14.1246 Y31.1319
G01 X14.0931 Y31.0439
G01 X14.0893 Y31.0323
G01 X14.0860 Y31.0204
G01 X14.0633 Y30.9298
G01 X14.0606 Y30.9178
G01 X14.0585 Y30.9057
G01 X14.0448 Y30.8132
G01 X14.0433 Y30.8011
G01 X14.0424 Y30.7888
G01 X14.0378 Y30.6955
G01 X14.0375 Y30.6832
G01 X14.0378 Y30.6709
G01 X14.0424 Y30.5776
G01 X14.0433 Y30.5653
G01 X14.0448 Y30.5532
G01 X14.0585 Y30.4607
G01 X14.0606 Y30.4486
G01 X14.0633 Y30.4366
G01 X14.0860 Y30.3460
G01 X14.0893 Y30.3341
G01 X14.0931 Y30.3225
G01 X14.1246 Y30.2345
G01 X14.1290 Y30.2230
G01 X14.1340 Y30.2118
G01 X14.1740 Y30.1273
G01 X14.1795 Y30.1163
G01 X14.1855 Y30.1057
G01 X14.2336 Y30.0255
G01 X14.2402 Y30.0151
G01 X14.2472 Y30.0051
G01 X14.3029 Y29.9300
G01 X14.3105 Y29.9203
G01 X14.3185 Y29.9111
G01 X14.3812 Y29.8418
G01 X14.3897 Y29.8329
G01 X14.3986 Y29.8244
G01 X14.4679 Y29.7617
G01 X14.4771 Y29.7537
G01 X14.4868 Y29.7461
G01 X14.5619 Y29.6904
G01 X14.5719 Y29.6834
G01 X14.5823 Y29.6768
G01 X14.6625 Y29.6287
G01 X14.6731 Y29.6227
G01 X14.6841 Y29.6172
G01 X14.7686 Y29.5772
G01 X14.7798 Y29.5722
G01 X14.7913 Y29.5678
G01 X14.8851 Y29.5343
G01 X14.9028 Y29.5292
G01 X14.9934 Y29.5065
G01 X15.0054 Y29.5038
G01 X15.0175 Y29.5017
G01 X15.1100 Y29.4880
G01 X15.1221 Y29.4865
G01 X15.1344 Y29.4856
G01 X15.2277 Y29.4810
G01 X15.2400 Y29.4807
G01 X15.2523 Y29.4810
G01 X15.3456 Y29.4856
G01 X15.3579 Y29.4865
G01 X15.3700 Y29.4880
G01 X15.4625 Y29.5017
G01 X15.4746 Y29.5038
G01 X15.4866 Y29.5065
G01 X15.5772 Y29.5292
G01 X15.5891 Y29.5325
G01 X15.6007 Y29.5363
G01 X15.6945 Y29.5700
G01 X15.7114 Y29.5772
G01 X15.7959 Y29.6172
G01 X15.8069 Y29.6227
G01 X15.8175 Y29.6287
G01 X15.8977 Y29.6768
G01 X15.9081 Y29.6834
G01 X15.9181 Y29.6904
G01 X15.9932 Y29.7461
G01 X16.0076 Y29.7576
G01 X16.0814 Y29.8244
G01 X16.0903 Y29.8329
G01 X16.0988 Y29.8418
G01 X16.1615 Y29.9111
G01 X16.1695 Y29.9203
G01 X16.1771 Y29.9300
G01 X16.2328 Y30.0051
G01 X16.2398 Y30.0151
G01 X16.2464 Y30.0255
G01 X16.2831 Y30.0867
G01 X19.8099 Y29.9909
G01 X19.7711 Y26.4189
G01 X19.7117 Y26.3833
G01 X19.7013 Y26.3767
G01 X19.6913 Y26.3697
G01 X19.6232 Y26.3192
G01 X19.6135 Y26.3116
G01 X19.6042 Y26.3036
G01 X19.5415 Y26.2467
G01 X19.5326 Y26.2382
G01 X19.5241 Y26.2293
G01 X19.4672 Y26.1666
G01 X19.4592 Y26.1573
G01 X19.4516 Y26.1476
G01 X19.4011 Y26.0795
G01 X19.3941 Y26.0695
G01 X19.3875 Y26.0591
G01 X19.3439 Y25.9864
G01 X19.3379 Y25.9757
G01 X19.3324 Y25.9648
G01 X19.2936 Y25.8826
G01 X19.2868 Y25.8655
G01 X19.2582 Y25.7857
G01 X19.2544 Y25.7741
G01 X19.2511 Y25.7622
G01 X19.2305 Y25.6800
G01 X19.2278 Y25.6681
G01 X19.2257 Y25.6560
G01 X19.2133 Y25.5721
G01 X19.2118 Y25.5600
G01 X19.2109 Y25.5477
G01 X19.2067 Y25.4631
G01 X19.2064 Y25.4508
G01 X19.2067 Y25.4385
G01 X19.2109 Y25.3539
G01 X19.2118 Y25.3416
G01 X19.2133 Y25.3295
G01 X19.2257 Y25.2456
G01 X19.2291 Y25.2275
G01 X19.2511 Y25.1394
G01 X19.2544 Y25.1275
G01 X19.2582 Y25.1159
G01 X19.2868 Y25.0361
G01 X19.2912 Y25.0246
G01 X19.2961 Y25.0134
G01 X19.3324 Y24.9368
G01 X19.3379 Y24.9259
G01 X19.3439 Y24.9152
G01 X19.3875 Y24.8425
G01 X19.3941 Y24.8321
G01 X19.4011 Y24.8221
G01 X19.4516 Y24.7540
G01 X19.4592 Y24.7443
G01 X19.4672 Y24.7350
G01 X19.5241 Y24.6723
G01 X19.5326 Y24.6634
G01 X19.5415 Y24.6549
G01 X19.6042 Y24.5980
G01 X19.6135 Y24.5900
G01 X19.6232 Y24.5824
G01 X19.6913 Y24.5319
G01 X19.7013 Y24.5249
G01 X19.7117 Y24.5183
G01 X19.7844 Y24.4747
G01 X19.7951 Y24.4687
G01 X19.8060 Y24.4632
G01 X19.8826 Y24.4269
G01 X19.8938 Y24.4220
G01 X19.9053 Y24.4176
G01 X19.9851 Y24.3890
G01 X19.9967 Y24.3852
G01 X20.0086 Y24.3819
G01 X20.0908 Y24.3613
G01 X20.1027 Y24.3586
G01 X20.1148 Y24.3565
G01 X20.1987 Y24.3441
G01 X20.2108 Y24.3426
G01 X20.2231 Y24.3417
G01 X20.3077 Y24.3375
G01 X20.3200 Y24.3372
G01 X20.3323 Y24.3375
G01 X20.4169 Y24.3417
G01 X20.4292 Y24.3426
G01 X20.4413 Y24.3441
G01 X20.5252 Y24.3565
G01 X20.5373 Y24.3586
G01 X20.5492 Y24.3613
G01 X20.6314 Y24.3819
G01 X20.6433 Y24.3852
G01 X20.6549 Y24.3890
G01 X20.7347 Y24.4176
G01 X20.7462 Y24.4220
G01 X20.7574 Y24.4269
G01 X20.8340 Y24.4632
G01 X20.8449 Y24.4687
G01 X20.8556 Y24.4747
G01 X20.9283 Y24.5183
G01 X20.9387 Y24.5249
G01 X20.9487 Y24.5319
G01 X21.0168 Y24.5824
G01 X21.0265 Y24.5900
G01 X21.0358 Y24.5980
G01 X21.0985 Y24.6549
G01 X21.1074 Y24.6634
G01 X21.1159 Y24.6723
G01 X21.1728 Y24.7350
G01 X21.1808 Y24.7443
G01 X21.1884 Y24.7540
G01 X21.2389 Y24.8221
G01 X21.2459 Y24.8321
G01 X21.2525 Y24.8425
G01 X21.2961 Y24.9152
G01 X21.3021 Y24.9259
G01 X21.3076 Y24.9368
G01 X21.3439 Y25.0134
G01 X21.3488 Y25.0246
G01 X21.3532 Y25.0361
G01 X21.3818 Y25.1159
G01 X21.3856 Y25.1275
G01 X21.3889 Y25.1394
G01 X21.4095 Y25.2216
G01 X21.4122 Y25.2335
G01 X21.4143 Y25.2456
G01 X21.4267 Y25.3295
G01 X21.4282 Y25.3416
G01 X21.4291 Y25.3539
G01 X21.4333 Y25.4385
G01 X21.4335 Y25.4569
G01 X21.4291 Y25.5477
G01 X21.4282 Y25.5600
G01 X21.4267 Y25.5721
G01 X21.4143 Y25.6560
G01 X21.4122 Y25.6681
G01 X21.4095 Y25.6800
G01 X21.3889 Y25.7622
G01 X21.3856 Y25.7741
G01 X21.3818 Y25.7857
G01 X21.3532 Y25.8655
G01 X21.3488 Y25.8770
G01 X21.3439 Y25.8882
G01 X21.3076 Y25.9648
G01 X21.2991 Y25.9811
G01 X21.2525 Y26.0591
G01 X21.2459 Y26.0695
G01 X21.2389 Y26.0795
G01 X21.1884 Y26.1476
G01 X21.1808 Y26.1573
G01 X21.1728 Y26.1666
G01 X21.1117 Y26.2338
G01 X21.0985 Y26.2467
G01 X21.0358 Y26.3036
G01 X21.0217 Y26.3155
G01 X20.9487 Y26.3697
G01 X20.9387 Y26.3767
G01 X20.8810 Y26.4116
G01 X20.9257 Y30.5309
G01 X20.9247 Y30.5651
G01 X20.9223 Y30.5914
G01 X20.9175 Y30.6262
G01 X20.9152 Y30.6382
G01 X20.9090 Y30.6655
G01 X20.9021 Y30.6910
G01 X20.8909 Y30.7244
G01 X20.8838 Y30.7423
G01 X20.8694 Y30.7744
G01 X20.8606 Y30.7916
G01 X20.8393 Y30.8282
G01 X20.8327 Y30.8383
G01 X20.8123 Y30.8670
G01 X20.8003 Y30.8821
G01 X20.7723 Y30.9139
G01 X20.7638 Y30.9225
G01 X20.7382 Y30.9467
G01 X20.7235 Y30.9592
G01 X20.6899 Y30.9848
G01 X20.6799 Y30.9917
G01 X20.6500 Y31.0104
G01 X20.6332 Y31.0198
G01 X20.5952 Y31.0384
G01 X20.5840 Y31.0431
G01 X20.5511 Y31.0556
G01 X20.5328 Y31.0616
G01 X20.4918 Y31.0724
G01 X20.4800 Y31.0749
G01 X20.4452 Y31.0807
G01 X20.4261 Y31.0830
G01 X20.3859 Y31.0855
G01 X16.3265 Y31.1959
G01 X16.3060 Y31.2391
G01 X16.2975 Y31.2554
G01 X16.2464 Y31.3409
G01 X16.2364 Y31.3563
G01 X16.1771 Y31.4364
G01 X16.1695 Y31.4461
G01 X16.1615 Y31.4553
G01 X16.0946 Y31.5291
G01 X16.0814 Y31.5420
G01 X16.0121 Y31.6047
G01 X16.0029 Y31.6127
G01 X15.9932 Y31.6203
G01 X15.9181 Y31.6760
G01 X15.9081 Y31.6830
G01 X15.8977 Y31.6896
G01 X15.8175 Y31.7377
G01 X15.8069 Y31.7437
G01 X15.7950 Y31.7497
G01 X15.7950 Y34.6967
G01 X15.8069 Y34.7027
G01 X15.8175 Y34.7087
G01 X15.8977 Y34.7568
G01 X15.9081 Y34.7634
G01 X15.9181 Y34.7704
G01 X15.9932 Y34.8261
G01 X16.0029 Y34.8337
G01 X16.0121 Y34.8417
G01 X16.0814 Y34.9044
G01 X16.0903 Y34.9129
G01 X16.0988 Y34.9218
G01 X16.1615 Y34.9911
G01 X16.1695 Y35.0003
G01 X16.1771 Y35.0100
G01 X16.2328 Y35.0851
G01 X16.2398 Y35.0951
G01 X16.2464 Y35.1055
G01 X16.2945 Y35.1857
G01 X16.3005 Y35.1963
G01 X16.3060 Y35.2073
G01 X16.3460 Y35.2918
G01 X16.3510 Y35.3030
G01 X16.3554 Y35.3145
G01 X16.3869 Y35.4025
G01 X16.3907 Y35.4141
G01 X16.3940 Y35.4260
G01 X16.4167 Y35.5166
G01 X16.4194 Y35.5286
G01 X16.4215 Y35.5407
G01 X16.4352 Y35.6332
G01 X16.4367 Y35.6453
G01 X16.4376 Y35.6576
G01 X16.4422 Y35.7509
G01 X16.4425 Y35.7632
G01 X16.4422 Y35.7755
G01 X16.4372 Y35.8750
G01 X16.4352 Y35.8932
G01 X16.4215 Y35.9857
G01 X16.4194 Y35.9978
G01 X16.4167 Y36.0098
G01 X16.3940 Y36.1004
G01 X16.3907 Y36.1123
G01 X16.3869 Y36.1239
G01 X16.3554 Y36.2119
G01 X16.3510 Y36.2234
G01 X16.3460 Y36.2346
G01 X16.3060 Y36.3191
G01 X16.3005 Y36.3301
G01 X16.2945 Y36.3407
G01 X16.2464 Y36.4209
G01 X16.2398 Y36.4313
G01 X16.2328 Y36.4413
G01 X16.1771 Y36.5164
G01 X16.1695 Y36.5261
G01 X16.1615 Y36.5353
G01 X16.0988 Y36.6046
G01 X16.0903 Y36.6135
G01 X16.0814 Y36.6220
G01 X16.0121 Y36.6847
G01 X16.0029 Y36.6927
G01 X15.9932 Y36.7003
G01 X15.9181 Y36.7560
G01 X15.9081 Y36.7630
G01 X15.8977 Y36.7696
G01 X15.8175 Y36.8177
G01 X15.8069 Y36.8237
G01 X15.7959 Y36.8292
G01 X15.7114 Y36.8692
G01 X15.7002 Y36.8742
G01 X15.6887 Y36.8786
G01 X15.6007 Y36.9101
G01 X15.5891 Y36.9139
G01 X15.5772 Y36.9172
G01 X15.4866 Y36.9399
G01 X15.4746 Y36.9426
G01 X15.4625 Y36.9447
G01 X15.3640 Y36.9592
G01 X15.3456 Y36.9608
G01 X15.2523 Y36.9654
G01 X15.2400 Y36.9657
G01 X15.2277 Y36.9654
G01 X15.1344 Y36.9608
G01 X15.1221 Y36.9599
G01 X15.1100 Y36.9584
G01 X15.0175 Y36.9447
G01 X15.0054 Y36.9426
G01 X14.9934 Y36.9399
G01 X14.9028 Y36.9172
G01 X14.8909 Y36.9139
G01 X14.8793 Y36.9101
G01 X14.7913 Y36.8786
G01 X14.7798 Y36.8742
G01 X14.7686 Y36.8692
G01 X14.6841 Y36.8292
G01 X14.6731 Y36.8237
G01 X14.6625 Y36.8177
G01 X14.5823 Y36.7696
G01 X14.5719 Y36.7630
G01 X14.5619 Y36.7560
G01 X14.4868 Y36.7003
G01 X14.4771 Y36.6927
G01 X14.4679 Y36.6847
G01 X14.3986 Y36.6220
G01 X14.3897 Y36.6135
G01 X14.3812 Y36.6046
G01 X14.3185 Y36.5353
G01 X14.3105 Y36.5261
G01 X14.3029 Y36.5164
G01 X14.2472 Y36.4413
G01 X14.2402 Y36.4313
G01 X14.2336 Y36.4209
G01 X14.1855 Y36.3407
G01 X14.1795 Y36.3301
G01 X14.1740 Y36.3191
G01 X14.1340 Y36.2346
G01 X14.1290 Y36.2234
G01 X14.1246 Y36.2119
G01 X14.0931 Y36.1239
G01 X14.0893 Y36.1123
G01 X14.0860 Y36.1004
G01 X14.0633 Y36.0098
G01 X14.0606 Y35.9978
G01 X14.0585 Y35.9857
G01 X14.0440 Y35.8872
G01 X14.0424 Y35.8688
G01 X14.0378 Y35.7755
G01 X14.0375 Y35.7632
G01 X14.0378 Y35.7509
G01 X14.0424 Y35.6576
G01 X14.0433 Y35.6453
G01 X14.0448 Y35.6332
G01 X14.0585 Y35.5407
G01 X14.0606 Y35.5286
G01 X14.0633 Y35.5166
G01 X14.0860 Y35.4260
G01 X14.0893 Y35.4141
G01 X14.0931 Y35.4025
G01 X14.1246 Y35.3145
G01 X14.1290 Y35.3030
G01 X14.1340 Y35.2918
G01 X14.1740 Y35.2073
G01 X14.1795 Y35.1963
G01 X14.1855 Y35.1857
G01 X14.2336 Y35.1055
G01 X14.2402 Y35.0951
G01 X14.2472 Y35.0851
G01 X14.3029 Y35.0100
G01 X14.3105 Y35.0003
G01 X14.3185 Y34.9911
G01 X14.3812 Y34.9218
G01 X14.3897 Y34.9129
G01 X14.3986 Y34.9044
G01 X14.4679 Y34.8417
G01 X14.4771 Y34.8337
G01 X14.4868 Y34.8261
G01 X14.5619 Y34.7704
G01 X14.5719 Y34.7634
G01 X14.5823 Y34.7568
G01 X14.6625 Y34.7087
G01 X14.6731 Y34.7027
G01 X14.6850 Y34.6967
G01 X14.6850 Y31.7497
G00 Z2.0000
G00 X22.3116 Y26.4192
G01 F60.00
G01 Z-0.6000
G01 F120.00
G01 X22.2517 Y26.3833
G01 X22.2413 Y26.3767
G01 X22.2313 Y26.3697
G01 X22.1632 Y26.3192
G01 X22.1535 Y26.3116
G01 X22.1442 Y26.3036
G01 X22.0815 Y26.2467
G01 X22.0726 Y26.2382
G01 X22.0641 Y26.2293
G01 X22.0072 Y26.1666
G01 X21.9992 Y26.1573
G01 X21.9916 Y26.1476
G01 X21.9411 Y26.0795
G01 X21.9341 Y26.0695
G01 X21.9275 Y26.0591
G01 X21.8839 Y25.9864
G01 X21.8779 Y25.9757
G01 X21.8724 Y25.9648
G01 X21.8361 Y25.8882
G01 X21.8312 Y25.8770
G01 X21.8268 Y25.8655
G01 X21.7982 Y25.7857
G01 X21.7944 Y25.7741
G01 X21.7911 Y25.7622
G01 X21.7705 Y25.6800
G01 X21.7678 Y25.6681
G01 X21.7657 Y25.6560
G01 X21.7533 Y25.5721
G01 X21.7518 Y25.5600
G01 X21.7509 Y25.5477
G01 X21.7467 Y25.4631
G01 X21.7464 Y25.4508
G01 X21.7467 Y25.4385
G01 X21.7509 Y25.3539
G01 X21.7518 Y25.3416
G01 X21.7533 Y25.3295
G01 X21.7657 Y25.2456
G01 X21.7678 Y25.2335
G01 X21.7705 Y25.2216
G01 X21.7911 Y25.1394
G01 X21.7944 Y25.1275
G01 X21.7982 Y25.1159
G01 X21.8268 Y25.0361
G01 X21.8312 Y25.0246
G01 X21.8361 Y25.0134
G01 X21.8724 Y24.9368
G01 X21.8779 Y24.9259
G01 X21.8839 Y24.9152
G01 X21.9275 Y24.8425
G01 X21.9341 Y24.8321
G01 X21.9411 Y24.8221
G01 X21.9916 Y24.7540
G01 X21.9992 Y24.7443
G01 X22.0072 Y24.7350
G01 X22.0641 Y24.6723
G01 X22.0726 Y24.6634
G01 X22.0815 Y24.6549
G01 X22.1442 Y24.5980
G01 X22.1535 Y24.5900
G01 X22.1632 Y24.5824
G01 X22.2313 Y24.5319
G01 X22.2413 Y24.5249
G01 X22.2517 Y24.5183
G01 X22.3244 Y24.4747
G01 X22.3351 Y24.4687
G01 X22.3460 Y24.4632
G01 X22.4226 Y24.4269
G01 X22.4338 Y24.4220
G01 X22.4453 Y24.4176
G01 X22.5251 Y24.3890
G01 X22.5367 Y24.3852
G01 X22.5486 Y24.3819
G01 X22.6308 Y24.3613
G01 X22.6427 Y24.3586
G01 X22.6548 Y24.3565
G01 X22.7387 Y24.3441
G01 X22.7508 Y24.3426
G01 X22.7631 Y24.3417
G01 X22.8477 Y24.3375
G01 X22.8600 Y24.3372
G01 X22.8723 Y24.3375
G01 X22.9569 Y24.3417
G01 X22.9692 Y24.3426
G01 X22.9813 Y24.3441
G01 X23.0652 Y24.3565
G01 X23.0773 Y24.3586
G01 X23.0892 Y24.3613
G01 X23.1714 Y24.3819
G01 X23.1833 Y24.3852
G01 X23.1949 Y24.3890
G01 X23.2747 Y24.4176
G01 X23.2862 Y24.4220
G01 X23.2974 Y24.4269
G01 X23.3740 Y24.4632
G01 X23.3849 Y24.4687
G01 X23.3956 Y24.4747
G01 X23.4683 Y24.5183
G01 X23.4787 Y24.5249
G01 X23.4887 Y24.5319
G01 X23.5568 Y24.5824
G01 X23.5665 Y24.5900
G01 X23.5758 Y24.5980
G01 X23.6385 Y24.6549
G01 X23.6474 Y24.6634
G01 X23.6559 Y24.6723
G01 X23.7128 Y24.7350
G01 X23.7208 Y24.7443
G01 X23.7284 Y24.7540
G01 X23.7789 Y24.8221
G01 X23.7859 Y24.8321
G01 X23.7925 Y24.8425
G01 X23.8361 Y24.9152
G01 X23.8421 Y24.9259
G01 X23.8476 Y24.9368
G01 X23.8839 Y25.0134
G01 X23.8888 Y25.0246
G01 X23.8932 Y25.0361
G01 X23.9218 Y25.1159
G01 X23.9256 Y25.1275
G01 X23.9289 Y25.1394
G01 X23.9495 Y25.2216
G01 X23.9522 Y25.2335
G01 X23.9543 Y25.2456
G01 X23.9676 Y25.3355
G01 X23.9691 Y25.3539
G01 X23.9733 Y25.4385
G01 X23.9736 Y25.4508
G01 X23.9733 Y25.4631
G01 X23.9691 Y25.5477
G01 X23.9682 Y25.5600
G01 X23.9667 Y25.5721
G01 X23.9543 Y25.6560
G01 X23.9522 Y25.6681
G01 X23.9495 Y25.6800
G01 X23.9289 Y25.7622
G01 X23.9256 Y25.7741
G01 X23.9218 Y25.7857
G01 X23.8932 Y25.8655
G01 X23.8888 Y25.8770
G01 X23.8839 Y25.8882
G01 X23.8449 Y25.9703
G01 X23.8361 Y25.9864
G01 X23.7925 Y26.0591
G01 X23.7859 Y26.0695
G01 X23.7789 Y26.0795
G01 X23.7284 Y26.1476
G01 X23.7208 Y26.1573
G01 X23.7128 Y26.1666
G01 X23.6517 Y26.2338
G01 X23.6385 Y26.2467
G01 X23.5758 Y26.3036
G01 X23.5617 Y26.3155
G01 X23.4887 Y26.3697
G01 X23.4787 Y26.3767
G01 X23.4215 Y26.4113
G01 X23.4338 Y27.4593
G01 X29.3704 Y27.4381
G01 X29.3831 Y27.4114
G01 X29.3888 Y27.4006
G01 X29.4419 Y27.3119
G01 X29.4520 Y27.2965
G01 X29.5135 Y27.2134
G01 X29.5210 Y27.2038
G01 X29.5290 Y27.1945
G01 X29.5985 Y27.1180
G01 X29.6117 Y27.1051
G01 X29.6837 Y27.0398
G01 X29.6930 Y27.0318
G01 X29.7026 Y27.0243
G01 X29.7807 Y26.9663
G01 X29.7908 Y26.9593
G01 X29.8011 Y26.9527
G01 X29.8898 Y26.8996
G01 X29.9061 Y26.8912
G01 X29.9940 Y26.8496
G01 X30.0052 Y26.8446
G01 X30.0167 Y26.8402
G01 X30.1082 Y26.8075
G01 X30.1199 Y26.8036
G01 X30.1317 Y26.8003
G01 X30.2260 Y26.7767
G01 X30.2380 Y26.7740
G01 X30.2501 Y26.7719
G01 X30.3462 Y26.7577
G01 X30.3584 Y26.7562
G01 X30.3706 Y26.7553
G01 X30.4677 Y26.7505
G01 X30.4800 Y26.7502
G01 X30.4923 Y26.7505
G01 X30.5894 Y26.7553
G01 X30.6016 Y26.7562
G01 X30.6138 Y26.7577
G01 X30.7099 Y26.7719
G01 X30.7220 Y26.7740
G01 X30.7340 Y26.7767
G01 X30.8283 Y26.8003
G01 X30.8401 Y26.8036
G01 X30.8518 Y26.8075
G01 X30.9433 Y26.8402
G01 X30.9548 Y26.8446
G01 X30.9660 Y26.8496
G01 X31.0539 Y26.8912
G01 X31.0648 Y26.8967
G01 X31.0755 Y26.9027
G01 X31.1589 Y26.9527
G01 X31.1692 Y26.9593
G01 X31.1793 Y26.9663
G01 X31.2574 Y27.0243
G01 X31.2670 Y27.0318
G01 X31.2763 Y27.0398
G01 X31.3483 Y27.1051
G01 X31.3572 Y27.1136
G01 X31.3657 Y27.1225
G01 X31.4310 Y27.1945
G01 X31.4390 Y27.2038
G01 X31.4465 Y27.2134
G01 X31.5045 Y27.2915
G01 X31.5115 Y27.3016
G01 X31.5181 Y27.3119
G01 X31.5681 Y27.3953
G01 X31.5741 Y27.4060
G01 X31.5796 Y27.4169
G01 X31.6212 Y27.5048
G01 X31.6262 Y27.5160
G01 X31.6306 Y27.5275
G01 X31.6633 Y27.6190
G01 X31.6672 Y27.6307
G01 X31.6705 Y27.6425
G01 X31.6941 Y27.7368
G01 X31.6968 Y27.7488
G01 X31.6989 Y27.7609
G01 X31.7131 Y27.8570
G01 X31.7146 Y27.8692
G01 X31.7155 Y27.8814
G01 X31.7203 Y27.9785
G01 X31.7206 Y27.9908
G01 X31.7203 Y28.0031
G01 X31.7155 Y28.1002
G01 X31.7146 Y28.1124
G01 X31.7131 Y28.1246
G01 X31.6989 Y28.2207
G01 X31.6968 Y28.2328
G01 X31.6941 Y28.2448
G01 X31.6705 Y28.3391
G01 X31.6672 Y28.3509
G01 X31.6633 Y28.3626
G01 X31.6306 Y28.4541
G01 X31.6262 Y28.4656
G01 X31.6212 Y28.4768
G01 X31.5796 Y28.5647
G01 X31.5741 Y28.5756
G01 X31.5681 Y28.5863
G01 X31.5181 Y28.6697
G01 X31.5115 Y28.6800
G01 X31.5045 Y28.6901
G01 X31.4465 Y28.7682
G01 X31.4390 Y28.7778
G01 X31.4310 Y28.7871
G01 X31.3657 Y28.8591
G01 X31.3572 Y28.8680
G01 X31.3483 Y28.8765
G01 X31.2763 Y28.9418
G01 X31.2670 Y28.9498
G01 X31.2574 Y28.9573
G01 X31.1793 Y29.0153
G01 X31.1692 Y29.0223
G01 X31.1589 Y29.0289
G01 X31.0755 Y29.0789
G01 X31.0648 Y29.0849
G01 X31.0539 Y29.0904
G01 X30.9660 Y29.1320
G01 X30.9548 Y29.1370
G01 X30.9433 Y29.1414
G01 X30.8518 Y29.1741
G01 X30.8401 Y29.1780
G01 X30.8283 Y29.1813
G01 X30.7340 Y29.2049
G01 X30.7220 Y29.2076
G01 X30.7099 Y29.2097
G01 X30.6138 Y29.2239
G01 X30.6016 Y29.2254
G01 X30.5894 Y29.2263
G01 X30.4861 Y29.2313
G01 X30.4677 Y29.2311
G01 X30.3706 Y29.2263
G01 X30.3584 Y29.2254
G01 X30.3462 Y29.2239
G01 X30.2501 Y29.2097
G01 X30.2380 Y29.2076
G01 X30.2260 Y29.2049
G01 X30.1317 Y29.1813
G01 X30.1199 Y29.1780
G01 X30.1082 Y29.1741
G01 X30.0167 Y29.1414
G01 X30.0052 Y29.1370
G01 X29.9940 Y29.1320
G01 X29.9061 Y29.0904
G01 X29.8952 Y29.0849
G01 X29.8845 Y29.0789
G01 X29.8011 Y29.0289
G01 X29.7908 Y29.0223
G01 X29.7807 Y29.0153
G01 X29.7026 Y28.9573
G01 X29.6930 Y28.9498
G01 X29.6837 Y28.9418
G01 X29.6117 Y28.8765
G01 X29.6028 Y28.8680
G01 X29.5943 Y28.8591
G01 X29.5290 Y28.7871
G01 X29.5210 Y28.7778
G01 X29.5135 Y28.7682
G01 X29.4555 Y28.6901
G01 X29.4485 Y28.6800
G01 X29.4419 Y28.6697
G01 X29.3888 Y28.5810
G01 X29.3831 Y28.5702
G01 X29.3725 Y28.5480
G01 X22.8874 Y28.5711
G01 X22.8498 Y28.5698
G01 X22.8340 Y28.5688
G01 X22.7957 Y28.5637
G01 X22.7801 Y28.5611
G01 X22.7671 Y28.5582
G01 X22.7296 Y28.5488
G01 X22.7208 Y28.5462
G01 X22.6906 Y28.5357
G01 X22.6697 Y28.5275
G01 X22.6406 Y28.5141
G01 X22.6265 Y28.5070
G01 X22.6148 Y28.5005
G01 X22.5817 Y28.4807
G01 X22.5741 Y28.4756
G01 X22.5482 Y28.4567
G01 X22.5306 Y28.4428
G01 X22.5066 Y28.4216
G01 X22.4951 Y28.4107
G01 X22.4859 Y28.4012
G01 X22.4599 Y28.3725
G01 X22.4541 Y28.3654
G01 X22.4348 Y28.3399
G01 X22.4220 Y28.3215
G01 X22.4053 Y28.2941
G01 X22.3974 Y28.2804
G01 X22.3775 Y28.2397
G01 X22.3690 Y28.2190
G01 X22.3580 Y28.1889
G01 X22.3552 Y28.1802
G01 X22.3516 Y28.1674
G01 X22.3422 Y28.1299
G01 X22.3394 Y28.1143
G01 X22.3337 Y28.0761
G01 X22.3324 Y28.0603
G01 X22.3305 Y28.0227
G01 X22.3116 Y26.4192
G00 Z2.0000
G00 X19.7787 Y18.8035
G01 F60.00
G01 Z-0.6000
G01 F120.00
G01 X19.7117 Y18.7633
G01 X19.7013 Y18.7567
G01 X19.6913 Y18.7497
G01 X19.6232 Y18.6992
G01 X19.6135 Y18.6916
G01 X19.6042 Y18.6836
G01 X19.5415 Y18.6267
G01 X19.5326 Y18.6182
G01 X19.5241 Y18.6093
G01 X19.4672 Y18.5466
G01 X19.4592 Y18.5373
G01 X19.4516 Y18.5276
G01 X19.4011 Y18.4595
G01 X19.3941 Y18.4495
G01 X19.3875 Y18.4391
G01 X19.3439 Y18.3664
G01 X19.3379 Y18.3557
G01 X19.3324 Y18.3448
G01 X19.2961 Y18.2682
G01 X19.2912 Y18.2570
G01 X19.2868 Y18.2455
G01 X19.2582 Y18.1657
G01 X19.2544 Y18.1541
G01 X19.2511 Y18.1422
G01 X19.2305 Y18.0600
G01 X19.2278 Y18.0481
G01 X19.2257 Y18.0360
G01 X19.2133 Y17.9521
G01 X19.2118 Y17.9400
G01 X19.2109 Y17.9277
G01 X19.2067 Y17.8431
G01 X19.2064 Y17.8308
G01 X19.2067 Y17.8185
G01 X19.2109 Y17.7339
G01 X19.2118 Y17.7216
G01 X19.2133 Y17.7095
G01 X19.2257 Y17.6256
G01 X19.2278 Y17.6135
G01 X19.2305 Y17.6016
G01 X19.2511 Y17.5194
G01 X19.2544 Y17.5075
G01 X19.2582 Y17.4959
G01 X19.2868 Y17.4161
G01 X19.2912 Y17.4046
G01 X19.2961 Y17.3934
G01 X19.3324 Y17.3168
G01 X19.3379 Y17.3059
G01 X19.3439 Y17.2952
G01 X19.3875 Y17.2225
G01 X19.3941 Y17.2121
G01 X19.4011 Y17.2021
G01 X19.4516 Y17.1340
G01 X19.4592 Y17.1243
G01 X19.4672 Y17.1150
G01 X19.5241 Y17.0523
G01 X19.5326 Y17.0434
G01 X19.5415 Y17.0349
G01 X19.6042 Y16.9780
G01 X19.6135 Y16.9700
G01 X19.6232 Y16.9624
G01 X19.6913 Y16.9119
G01 X19.7013 Y16.9049
G01 X19.7117 Y16.8983
G01 X19.7844 Y16.8547
G01 X19.7951 Y16.8487
G01 X19.8060 Y16.8432
G01 X19.8826 Y16.8069
G01 X19.8938 Y16.8020
G01 X19.9053 Y16.7976
G01 X19.9851 Y16.7690
G01 X19.9967 Y16.7652
G01 X20.0086 Y16.7619
G01 X20.0908 Y16.7413
G01 X20.1027 Y16.7386
G01 X20.1148 Y16.7365
G01 X20.1987 Y16.7241
G01 X20.2108 Y16.7226
G01 X20.2231 Y16.7217
G01 X20.3077 Y16.7175
G01 X20.3200 Y16.7172
G01 X20.3323 Y16.7175
G01 X20.4169 Y16.7217
G01 X20.4292 Y16.7226
G01 X20.4413 Y16.7241
G01 X20.5252 Y16.7365
G01 X20.5373 Y16.7386
G01 X20.5492 Y16.7413
G01 X20.6314 Y16.7619
G01 X20.6433 Y16.7652
G01 X20.6549 Y16.7690
G01 X20.7347 Y16.7976
G01 X20.7462 Y16.8020
G01 X20.7574 Y16.8069
G01 X20.8340 Y16.8432
G01 X20.8449 Y16.8487
G01 X20.8556 Y16.8547
G01 X20.9283 Y16.8983
G01 X20.9387 Y16.9049
G01 X20.9487 Y16.9119
G01 X21.0168 Y16.9624
G01 X21.0265 Y16.9700
G01 X21.0358 Y16.9780
G01 X21.0985 Y17.0349
G01 X21.1074 Y17.0434
G01 X21.1159 Y17.0523
G01 X21.1728 Y17.1150
G01 X21.1808 Y17.1243
G01 X21.1884 Y17.1340
G01 X21.2389 Y17.2021
G01 X21.2459 Y17.2121
G01 X21.2525 Y17.2225
G01 X21.2961 Y17.2952
G01 X21.3021 Y17.3059
G01 X21.3076 Y17.3168
G01 X21.3439 Y17.3934
G01 X21.3488 Y17.4046
G01 X21.3532 Y17.4161
G01 X21.3818 Y17.4959
G01 X21.3856 Y17.5075
G01 X21.3889 Y17.5194
G01 X21.4109 Y17.6075
G01 X21.4143 Y17.6256
G01 X21.4267 Y17.7095
G01 X21.4282 Y17.7216
G01 X21.4291 Y17.7339
G01 X21.4333 Y17.8185
G01 X21.4336 Y17.8308
G01 X21.4333 Y17.8431
G01 X21.4291 Y17.9277
G01 X21.4282 Y17.9400
G01 X21.4267 Y17.9521
G01 X21.4143 Y18.0360
G01 X21.4122 Y18.0481
G01 X21.4095 Y18.0600
G01 X21.3889 Y18.1422
G01 X21.3856 Y18.1541
G01 X21.3818 Y18.1657
G01 X21.3532 Y18.2455
G01 X21.3464 Y18.2626
G01 X21.3076 Y18.3448
G01 X21.3021 Y18.3557
G01 X21.2961 Y18.3664
G01 X21.2525 Y18.4391
G01 X21.2459 Y18.4495
G01 X21.2389 Y18.4595
G01 X21.1884 Y18.5276
G01 X21.1769 Y18.5420
G01 X21.1159 Y18.6093
G01 X21.1074 Y18.6182
G01 X21.0985 Y18.6267
G01 X21.0312 Y18.6877
G01 X21.0168 Y18.6992
G01 X20.9437 Y18.7533
G01 X20.9283 Y18.7633
G01 X20.8885 Y18.7871
G01 X20.9124 Y19.7651
G01 X29.9250 Y19.7650
G01 X29.9250 Y18.9394
G01 X29.9006 Y18.9277
G01 X29.8898 Y18.9220
G01 X29.7959 Y18.8657
G01 X29.7807 Y18.8553
G01 X29.7026 Y18.7973
G01 X29.6883 Y18.7858
G01 X29.6117 Y18.7165
G01 X29.6028 Y18.7080
G01 X29.5943 Y18.6991
G01 X29.5290 Y18.6271
G01 X29.5210 Y18.6178
G01 X29.5135 Y18.6082
G01 X29.4520 Y18.5251
G01 X29.4419 Y18.5097
G01 X29.3919 Y18.4263
G01 X29.3859 Y18.4156
G01 X29.3804 Y18.4047
G01 X29.3388 Y18.3168
G01 X29.3338 Y18.3056
G01 X29.3294 Y18.2941
G01 X29.2967 Y18.2026
G01 X29.2928 Y18.1909
G01 X29.2895 Y18.1791
G01 X29.2659 Y18.0848
G01 X29.2632 Y18.0728
G01 X29.2611 Y18.0607
G01 X29.2469 Y17.9646
G01 X29.2454 Y17.9524
G01 X29.2445 Y17.9402
G01 X29.2397 Y17.8431
G01 X29.2394 Y17.8308
G01 X29.2397 Y17.8185
G01 X29.2445 Y17.7214
G01 X29.2454 Y17.7092
G01 X29.2469 Y17.6970
G01 X29.2611 Y17.6009
G01 X29.2632 Y17.5888
G01 X29.2659 Y17.5768
G01 X29.2895 Y17.4825
G01 X29.2928 Y17.4707
G01 X29.2967 Y17.4590
G01 X29.3294 Y17.3675
G01 X29.3338 Y17.3560
G01 X29.3388 Y17.3448
G01 X29.3804 Y17.2569
G01 X29.3859 Y17.2460
G01 X29.3919 Y17.2353
G01 X29.4419 Y17.1519
G01 X29.4485 Y17.1416
G01 X29.4555 Y17.1315
G01 X29.5135 Y17.0534
G01 X29.5250 Y17.0391
G01 X29.5943 Y16.9625
G01 X29.6028 Y16.9536
G01 X29.6117 Y16.9451
G01 X29.6837 Y16.8798
G01 X29.6930 Y16.8718
G01 X29.7026 Y16.8643
G01 X29.7807 Y16.8063
G01 X29.7908 Y16.7993
G01 X29.8011 Y16.7927
G01 X29.8845 Y16.7427
G01 X29.8952 Y16.7367
G01 X29.9061 Y16.7312
G01 X29.9940 Y16.6896
G01 X30.0052 Y16.6846
G01 X30.0167 Y16.6802
G01 X30.1082 Y16.6475
G01 X30.1199 Y16.6436
G01 X30.1317 Y16.6403
G01 X30.2260 Y16.6167
G01 X30.2380 Y16.6140
G01 X30.2501 Y16.6119
G01 X30.3462 Y16.5977
G01 X30.3584 Y16.5962
G01 X30.3706 Y16.5953
G01 X30.4677 Y16.5905
G01 X30.4800 Y16.5902
G01 X30.4923 Y16.5905
G01 X30.5894 Y16.5953
G01 X30.6016 Y16.5962
G01 X30.6138 Y16.5977
G01 X30.7099 Y16.6119
G01 X30.7220 Y16.6140
G01 X30.7340 Y16.6167
G01 X30.8283 Y16.6403
G01 X30.8401 Y16.6436
G01 X30.8518 Y16.6475
G01 X30.9433 Y16.6802
G01 X30.9548 Y16.6846
G01 X30.9660 Y16.6896
G01 X31.0539 Y16.7312
G01 X31.0648 Y16.7367
G01 X31.0755 Y16.7427
G01 X31.1589 Y16.7927
G01 X31.1692 Y16.7993
G01 X31.1793 Y16.8063
G01 X31.2574 Y16.8643
G01 X31.2670 Y16.8718
G01 X31.2763 Y16.8798
G01 X31.3483 Y16.9451
G01 X31.3572 Y16.9536
G01 X31.3657 Y16.9625
G01 X31.4310 Y17.0345
G01 X31.4390 Y17.0438
G01 X31.4465 Y17.0534
G01 X31.5045 Y17.1315
G01 X31.5115 Y17.1416
G01 X31.5181 Y17.1519
G01 X31.5681 Y17.2353
G01 X31.5741 Y17.2460
G01 X31.5796 Y17.2569
G01 X31.6212 Y17.3448
G01 X31.6262 Y17.3560
G01 X31.6306 Y17.3675
G01 X31.6633 Y17.4590
G01 X31.6672 Y17.4707
G01 X31.6705 Y17.4825
G01 X31.6941 Y17.5768
G01 X31.6968 Y17.5888
G01 X31.6989 Y17.6009
G01 X31.7131 Y17.6970
G01 X31.7146 Y17.7092
G01 X31.7155 Y17.7214
G01 X31.7203 Y17.8185
G01 X31.7206 Y17.8308
G01 X31.7203 Y17.8431
G01 X31.7155 Y17.9402
G01 X31.7146 Y17.9524
G01 X31.7131 Y17.9646
G01 X31.6989 Y18.0607
G01 X31.6968 Y18.0728
G01 X31.6941 Y18.0848
G01 X31.6705 Y18.1791
G01 X31.6672 Y18.1909
G01 X31.6633 Y18.2026
G01 X31.6306 Y18.2941
G01 X31.6262 Y18.3056
G01 X31.6212 Y18.3168
G01 X31.5796 Y18.4047
G01 X31.5712 Y18.4210
G01 X31.5181 Y18.5097
G01 X31.5115 Y18.5200
G01 X31.5045 Y18.5301
G01 X31.4465 Y18.6082
G01 X31.4390 Y18.6178
G01 X31.4310 Y18.6271
G01 X31.3657 Y18.6991
G01 X31.3528 Y18.7123
G01 X31.2763 Y18.7818
G01 X31.2670 Y18.7898
G01 X31.2574 Y18.7973
G01 X31.1743 Y18.8588
G01 X31.1589 Y18.8689
G01 X31.0702 Y18.9220
G01 X31.0594 Y18.9277
G01 X31.0349 Y18.9394
G01 X31.0349 Y20.3261
G01 X31.0323 Y20.3744
G01 X31.0308 Y20.3866
G01 X31.0243 Y20.4283
G01 X31.0216 Y20.4402
G01 X31.0111 Y20.4811
G01 X30.9950 Y20.5267
G01 X30.9903 Y20.5380
G01 X30.9749 Y20.5706
G01 X30.9665 Y20.5870
G01 X30.9414 Y20.6283
G01 X30.9165 Y20.6624
G01 X30.9050 Y20.6768
G01 X30.8724 Y20.7124
G01 X30.8368 Y20.7450
G01 X30.8224 Y20.7565
G01 X30.7883 Y20.7814
G01 X30.7523 Y20.8034
G01 X30.7362 Y20.8122
G01 X30.6924 Y20.8327
G01 X30.6469 Y20.8492
G01 X30.6293 Y20.8543
G01 X30.5883 Y20.8643
G01 X30.5762 Y20.8664
G01 X30.5344 Y20.8723
G01 X30.4923 Y20.8746
G01 X30.4800 Y20.8749
G01 X20.3708 Y20.8749
G01 X20.3360 Y20.8738
G01 X20.3164 Y20.8723
G01 X20.2819 Y20.8677
G01 X20.2625 Y20.8643
G01 X20.2227 Y20.8548
G01 X20.2039 Y20.8492
G01 X20.1767 Y20.8399
G01 X20.1528 Y20.8303
G01 X20.1267 Y20.8183
G01 X20.1092 Y20.8094
G01 X20.0738 Y20.7888
G01 X20.0574 Y20.7780
G01 X20.0342 Y20.7612
G01 X20.0140 Y20.7450
G01 X19.9926 Y20.7260
G01 X19.9784 Y20.7124
G01 X19.9505 Y20.6824
G01 X19.9380 Y20.6673
G01 X19.9206 Y20.6444
G01 X19.9060 Y20.6232
G01 X19.8910 Y20.5988
G01 X19.8814 Y20.5816
G01 X19.8634 Y20.5448
G01 X19.8537 Y20.5209
G01 X19.8458 Y20.4998
G01 X19.8397 Y20.4811
G01 X19.8293 Y20.4415
G01 X19.8254 Y20.4222
G01 X19.8200 Y20.3878
G01 X19.8180 Y20.3683
G01 X19.8160 Y20.3335
G01 X19.7787 Y18.8035
G00 Z2.0000
G00 X19.7397 Y15.2908
G01 F60.00
G01 Z-0.6000
G01 F120.00
G01 X19.7397 Y10.2616
G01 X19.7418 Y10.2133
G01 X19.7430 Y10.2011
G01 X19.7482 Y10.1654
G01 X19.7503 Y10.1533
G01 X19.7530 Y10.1414
G01 X19.7635 Y10.1005
G01 X19.7775 Y10.0607
G01 X19.7819 Y10.0492
G01 X19.7869 Y10.0380
G01 X19.8052 Y10.0000
G01 X19.8266 Y9.9637
G01 X19.8366 Y9.9482
G01 X19.8656 Y9.9095
G01 X19.8979 Y9.8736
G01 X19.9111 Y9.8607
G01 X19.9425 Y9.8326
G01 X19.9763 Y9.8072
G01 X19.9863 Y9.8002
G01 X20.0276 Y9.7751
G01 X20.0440 Y9.7667
G01 X20.0822 Y9.7489
G01 X20.1277 Y9.7324
G01 X20.1394 Y9.7288
G01 X20.1744 Y9.7200
G01 X20.1863 Y9.7173
G01 X20.1984 Y9.7152
G01 X20.2402 Y9.7093
G01 X20.2823 Y9.7070
G01 X20.2946 Y9.7067
G01 X25.3993 Y9.7067
G01 X35.5343 Y9.6813
G01 X35.5754 Y9.6829
G01 X35.5949 Y9.6846
G01 X35.6356 Y9.6906
G01 X35.6548 Y9.6946
G01 X35.6954 Y9.7051
G01 X35.7342 Y9.7186
G01 X35.7525 Y9.7258
G01 X35.7840 Y9.7406
G01 X35.8014 Y9.7497
G01 X35.8367 Y9.7708
G01 X35.8529 Y9.7818
G01 X35.8858 Y9.8065
G01 X35.8959 Y9.8152
G01 X35.9268 Y9.8436
G01 X35.9547 Y9.8738
G01 X35.9673 Y9.8888
G01 X35.9882 Y9.9167
G01 X35.9958 Y9.9276
G01 X36.0026 Y9.9383
G01 X36.0235 Y9.9736
G01 X36.0295 Y9.9856
G01 X36.0469 Y10.0228
G01 X36.0614 Y10.0621
G01 X36.0656 Y10.0748
G01 X36.0689 Y10.0869
G01 X36.0774 Y10.1207
G01 X36.0800 Y10.1338
G01 X36.0852 Y10.1682
G01 X36.0868 Y10.1815
G01 X36.0878 Y10.1940
G01 X36.0895 Y10.2351
G01 X36.0895 Y35.5854
G01 X36.0880 Y35.6245
G01 X36.0869 Y35.6391
G01 X36.0815 Y35.6785
G01 X36.0777 Y35.6993
G01 X36.0681 Y35.7380
G01 X36.0618 Y35.7581
G01 X36.0482 Y35.7956
G01 X36.0309 Y35.8333
G01 X36.0212 Y35.8521
G01 X36.0009 Y35.8863
G01 X35.9890 Y35.9037
G01 X35.9651 Y35.9356
G01 X35.9556 Y35.9467
G01 X35.9275 Y35.9773
G01 X35.8983 Y36.0044
G01 X35.8821 Y36.0180
G01 X35.8449 Y36.0455
G01 X35.8325 Y36.0534
G01 X35.8040 Y36.0705
G01 X35.7911 Y36.0775
G01 X35.7610 Y36.0919
G01 X35.7492 Y36.0972
G01 X35.7355 Y36.1025
G01 X35.6964 Y36.1163
G01 X35.6578 Y36.1263
G01 X35.6435 Y36.1296
G01 X35.6308 Y36.1318
G01 X35.5914 Y36.1374
G01 X35.5768 Y36.1386
G01 X35.5438 Y36.1402
G01 X31.5902 Y36.1623
G01 X31.5769 Y36.1902
G01 X31.5712 Y36.2010
G01 X31.5181 Y36.2897
G01 X31.5080 Y36.3051
G01 X31.4465 Y36.3882
G01 X31.4390 Y36.3978
G01 X31.4310 Y36.4071
G01 X31.3615 Y36.4836
G01 X31.3483 Y36.4965
G01 X31.2763 Y36.5618
G01 X31.2670 Y36.5698
G01 X31.2574 Y36.5773
G01 X31.1793 Y36.6353
G01 X31.1692 Y36.6423
G01 X31.1589 Y36.6489
G01 X31.0702 Y36.7020
G01 X31.0539 Y36.7104
G01 X30.9660 Y36.7520
G01 X30.9548 Y36.7570
G01 X30.9433 Y36.7614
G01 X30.8518 Y36.7941
G01 X30.8401 Y36.7980
G01 X30.8283 Y36.8013
G01 X30.7340 Y36.8249
G01 X30.7220 Y36.8276
G01 X30.7099 Y36.8297
G01 X30.6138 Y36.8439
G01 X30.6016 Y36.8454
G01 X30.5894 Y36.8463
G01 X30.4923 Y36.8511
G01 X30.4800 Y36.8514
G01 X30.4677 Y36.8511
G01 X30.3706 Y36.8463
G01 X30.3584 Y36.8454
G01 X30.3462 Y36.8439
G01 X30.2501 Y36.8297
G01 X30.2380 Y36.8276
G01 X30.2260 Y36.8249
G01 X30.1317 Y36.8013
G01 X30.1199 Y36.7980
G01 X30.1082 Y36.7941
G01 X30.0167 Y36.7614
G01 X30.0052 Y36.7570
G01 X29.9940 Y36.7520
G01 X29.9061 Y36.7104
G01 X29.8952 Y36.7049
G01 X29.8845 Y36.6989
G01 X29.8011 Y36.6489
G01 X29.7908 Y36.6423
G01 X29.7807 Y36.6353
G01 X29.7026 Y36.5773
G01 X29.6930 Y36.5698
G01 X29.6837 Y36.5618
G01 X29.6117 Y36.4965
G01 X29.6028 Y36.4880
G01 X29.5943 Y36.4791
G01 X29.5290 Y36.4071
G01 X29.5210 Y36.3978
G01 X29.5135 Y36.3882
G01 X29.4555 Y36.3101
G01 X29.4485 Y36.3000
G01 X29.4419 Y36.2897
G01 X29.3919 Y36.2063
G01 X29.3859 Y36.1956
G01 X29.3804 Y36.1847
G01 X29.3388 Y36.0968
G01 X29.3338 Y36.0856
G01 X29.3294 Y36.0741
G01 X29.2967 Y35.9826
G01 X29.2928 Y35.9709
G01 X29.2895 Y35.9591
G01 X29.2659 Y35.8648
G01 X29.2632 Y35.8528
G01 X29.2611 Y35.8407
G01 X29.2469 Y35.7446
G01 X29.2454 Y35.7324
G01 X29.2445 Y35.7202
G01 X29.2395 Y35.6169
G01 X29.2397 Y35.5985
G01 X29.2445 Y35.5014
G01 X29.2454 Y35.4892
G01 X29.2469 Y35.4770
G01 X29.2611 Y35.3809
G01 X29.2632 Y35.3688
G01 X29.2659 Y35.3568
G01 X29.2895 Y35.2625
G01 X29.2928 Y35.2507
G01 X29.2967 Y35.2390
G01 X29.3294 Y35.1475
G01 X29.3338 Y35.1360
G01 X29.3388 Y35.1248
G01 X29.3804 Y35.0369
G01 X29.3859 Y35.0260
G01 X29.3919 Y35.0153
G01 X29.4419 Y34.9319
G01 X29.4485 Y34.9216
G01 X29.4555 Y34.9115
G01 X29.5135 Y34.8334
G01 X29.5210 Y34.8238
G01 X29.5290 Y34.8145
G01 X29.5943 Y34.7425
G01 X29.6028 Y34.7336
G01 X29.6117 Y34.7251
G01 X29.6837 Y34.6598
G01 X29.6930 Y34.6518
G01 X29.7026 Y34.6443
G01 X29.7807 Y34.5863
G01 X29.7908 Y34.5793
G01 X29.8011 Y34.5727
G01 X29.8845 Y34.5227
G01 X29.8952 Y34.5167
G01 X29.9061 Y34.5112
G01 X29.9940 Y34.4696
G01 X30.0052 Y34.4646
G01 X30.0167 Y34.4602
G01 X30.1082 Y34.4275
G01 X30.1199 Y34.4236
G01 X30.1317 Y34.4203
G01 X30.2260 Y34.3967
G01 X30.2380 Y34.3940
G01 X30.2501 Y34.3919
G01 X30.3462 Y34.3777
G01 X30.3584 Y34.3762
G01 X30.3706 Y34.3753
G01 X30.4677 Y34.3705
G01 X30.4800 Y34.3702
G01 X30.4923 Y34.3705
G01 X30.5894 Y34.3753
G01 X30.6016 Y34.3762
G01 X30.6138 Y34.3777
G01 X30.7099 Y34.3919
G01 X30.7220 Y34.3940
G01 X30.7340 Y34.3967
G01 X30.8283 Y34.4203
G01 X30.8401 Y34.4236
G01 X30.8518 Y34.4275
G01 X30.9433 Y34.4602
G01 X30.9548 Y34.4646
G01 X30.9660 Y34.4696
G01 X31.0539 Y34.5112
G01 X31.0702 Y34.5196
G01 X31.1589 Y34.5727
G01 X31.1692 Y34.5793
G01 X31.1793 Y34.5863
G01 X31.2574 Y34.6443
G01 X31.2670 Y34.6518
G01 X31.2763 Y34.6598
G01 X31.3483 Y34.7251
G01 X31.3615 Y34.7380
G01 X31.4310 Y34.8145
G01 X31.4390 Y34.8238
G01 X31.4465 Y34.8334
G01 X31.5080 Y34.9165
G01 X31.5181 Y34.9319
G01 X31.5712 Y35.0206
G01 X31.5769 Y35.0314
G01 X31.5869 Y35.0524
G01 X34.9797 Y35.0335
G01 X34.9796 Y10.7925
G01 X25.4011 Y10.8165
G01 X20.8496 Y10.8166
G01 X20.8496 Y14.7359
G01 X22.8600 Y14.7359
G01 X22.8723 Y14.7362
G01 X22.9144 Y14.7385
G01 X22.9562 Y14.7444
G01 X22.9743 Y14.7478
G01 X23.0211 Y14.7597
G01 X23.0667 Y14.7758
G01 X23.0836 Y14.7831
G01 X23.1216 Y14.8014
G01 X23.1632 Y14.8260
G01 X23.1734 Y14.8328
G01 X23.2024 Y14.8543
G01 X23.2121 Y14.8618
G01 X23.2213 Y14.8698
G01 X23.2524 Y14.8984
G01 X23.2850 Y14.9340
G01 X23.2928 Y14.9435
G01 X23.3144 Y14.9725
G01 X23.3248 Y14.9876
G01 X23.3494 Y15.0292
G01 X23.3677 Y15.0672
G01 X23.3727 Y15.0784
G01 X23.3771 Y15.0899
G01 X23.3892 Y15.1239
G01 X23.3928 Y15.1356
G01 X23.4030 Y15.1765
G01 X23.4064 Y15.1946
G01 X23.4123 Y15.2364
G01 X23.4149 Y15.2847
G01 X23.4150 Y16.8663
G01 X23.4683 Y16.8983
G01 X23.4787 Y16.9049
G01 X23.4887 Y16.9119
G01 X23.5617 Y16.9661
G01 X23.5758 Y16.9780
G01 X23.6385 Y17.0349
G01 X23.6517 Y17.0478
G01 X23.7128 Y17.1150
G01 X23.7208 Y17.1243
G01 X23.7284 Y17.1340
G01 X23.7789 Y17.2021
G01 X23.7859 Y17.2121
G01 X23.7925 Y17.2225
G01 X23.8361 Y17.2952
G01 X23.8421 Y17.3059
G01 X23.8476 Y17.3168
G01 X23.8839 Y17.3934
G01 X23.8888 Y17.4046
G01 X23.8932 Y17.4161
G01 X23.9218 Y17.4959
G01 X23.9256 Y17.5075
G01 X23.9289 Y17.5194
G01 X23.9495 Y17.6016
G01 X23.9522 Y17.6135
G01 X23.9543 Y17.6256
G01 X23.9667 Y17.7095
G01 X23.9682 Y17.7216
G01 X23.9691 Y17.7339
G01 X23.9733 Y17.8185
G01 X23.9736 Y17.8308
G01 X23.9733 Y17.8431
G01 X23.9691 Y17.9277
G01 X23.9682 Y17.9400
G01 X23.9667 Y17.9521
G01 X23.9543 Y18.0360
G01 X23.9522 Y18.0481
G01 X23.9495 Y18.0600
G01 X23.9289 Y18.1422
G01 X23.9256 Y18.1541
G01 X23.9218 Y18.1657
G01 X23.8932 Y18.2455
G01 X23.8888 Y18.2570
G01 X23.8839 Y18.2682
G01 X23.8476 Y18.3448
G01 X23.8421 Y18.3557
G01 X23.8361 Y18.3664
G01 X23.7925 Y18.4391
G01 X23.7859 Y18.4495
G01 X23.7789 Y18.4595
G01 X23.7284 Y18.5276
G01 X23.7208 Y18.5373
G01 X23.7128 Y18.5466
G01 X23.6559 Y18.6093
G01 X23.6474 Y18.6182
G01 X23.6385 Y18.6267
G01 X23.5758 Y18.6836
G01 X23.5665 Y18.6916
G01 X23.5568 Y18.6992
G01 X23.4887 Y18.7497
G01 X23.4787 Y18.7567
G01 X23.4683 Y18.7633
G01 X23.3956 Y18.8069
G01 X23.3849 Y18.8129
G01 X23.3740 Y18.8184
G01 X23.2974 Y18.8547
G01 X23.2862 Y18.8596
G01 X23.2747 Y18.8640
G01 X23.1949 Y18.8926
G01 X23.1833 Y18.8964
G01 X23.1714 Y18.8997
G01 X23.0892 Y18.9203
G01 X23.0773 Y18.9230
G01 X23.0652 Y18.9251
G01 X22.9813 Y18.9375
G01 X22.9692 Y18.9390
G01 X22.9569 Y18.9399
G01 X22.8723 Y18.9441
G01 X22.8600 Y18.9444
G01 X22.8477 Y18.9441
G01 X22.7631 Y18.9399
G01 X22.7508 Y18.9390
G01 X22.7387 Y18.9375
G01 X22.6548 Y18.9251
G01 X22.6427 Y18.9230
G01 X22.6308 Y18.9203
G01 X22.5486 Y18.8997
G01 X22.5367 Y18.8964
G01 X22.5251 Y18.8926
G01 X22.4453 Y18.8640
G01 X22.4338 Y18.8596
G01 X22.4226 Y18.8547
G01 X22.3460 Y18.8184
G01 X22.3351 Y18.8129
G01 X22.3244 Y18.8069
G01 X22.2517 Y18.7633
G01 X22.2413 Y18.7567
G01 X22.2313 Y18.7497
G01 X22.1632 Y18.6992
G01 X22.1535 Y18.6916
G01 X22.1442 Y18.6836
G01 X22.0815 Y18.6267
G01 X22.0726 Y18.6182
G01 X22.0641 Y18.6093
G01 X22.0072 Y18.5466
G01 X21.9992 Y18.5373
G01 X21.9916 Y18.5276
G01 X21.9411 Y18.4595
G01 X21.9341 Y18.4495
G01 X21.9275 Y18.4391
G01 X21.8839 Y18.3664
G01 X21.8779 Y18.3557
G01 X21.8724 Y18.3448
G01 X21.8361 Y18.2682
G01 X21.8312 Y18.2570
G01 X21.8268 Y18.2455
G01 X21.7982 Y18.1657
G01 X21.7926 Y18.1482
G01 X21.7705 Y18.0600
G01 X21.7678 Y18.0481
G01 X21.7657 Y18.0360
G01 X21.7533 Y17.9521
G01 X21.7518 Y17.9400
G01 X21.7509 Y17.9277
G01 X21.7467 Y17.8431
G01 X21.7464 Y17.8308
G01 X21.7467 Y17.8185
G01 X21.7509 Y17.7339
G01 X21.7518 Y17.7216
G01 X21.7533 Y17.7095
G01 X21.7657 Y17.6256
G01 X21.7678 Y17.6135
G01 X21.7705 Y17.6016
G01 X21.7911 Y17.5194
G01 X21.7944 Y17.5075
G01 X21.7982 Y17.4959
G01 X21.8289 Y17.4103
G01 X21.8361 Y17.3934
G01 X21.8724 Y17.3168
G01 X21.8779 Y17.3059
G01 X21.8839 Y17.2952
G01 X21.9275 Y17.2225
G01 X21.9341 Y17.2121
G01 X21.9411 Y17.2021
G01 X21.9916 Y17.1340
G01 X22.0031 Y17.1196
G01 X22.0641 Y17.0523
G01 X22.0726 Y17.0434
G01 X22.0815 Y17.0349
G01 X22.1442 Y16.9780
G01 X22.1535 Y16.9700
G01 X22.1632 Y16.9624
G01 X22.2313 Y16.9119
G01 X22.2413 Y16.9049
G01 X22.2517 Y16.8983
G01 X22.3050 Y16.8663
G01 X22.3050 Y15.8457
G01 X20.2946 Y15.8457
G01 X20.2823 Y15.8454
G01 X20.2402 Y15.8431
G01 X20.1984 Y15.8372
G01 X20.1803 Y15.8338
G01 X20.1335 Y15.8219
G01 X20.0937 Y15.8079
G01 X20.0822 Y15.8035
G01 X20.0440 Y15.7857
G01 X20.0330 Y15.7802
G01 X19.9967 Y15.7588
G01 X19.9863 Y15.7522
G01 X19.9763 Y15.7452
G01 X19.9473 Y15.7236
G01 X19.9333 Y15.7118
G01 X19.9022 Y15.6832
G01 X19.8937 Y15.6743
G01 X19.8656 Y15.6429
G01 X19.8478 Y15.6194
G01 X19.8332 Y15.5991
G01 X19.8112 Y15.5631
G01 X19.8052 Y15.5524
G01 X19.7997 Y15.5414
G01 X19.7819 Y15.5032
G01 X19.7674 Y15.4635
G01 X19.7635 Y15.4519
G01 X19.7603 Y15.4401
G01 X19.7516 Y15.4051
G01 X19.7482 Y15.3870
G01 X19.7423 Y15.3452
G01 X19.7400 Y15.3031
G01 X19.7397 Y15.2908
G00 Z2.0000
G00 X14.6850 Y8.8897
G01 F60.00
G01 Z-0.6000
G01 F120.00
G01 X14.6731 Y8.8837
G01 X14.6625 Y8.8777
G01 X14.5823 Y8.8296
G01 X14.5719 Y8.8230
G01 X14.5619 Y8.8160
G01 X14.4868 Y8.7603
G01 X14.4771 Y8.7527
G01 X14.4679 Y8.7447
G01 X14.3986 Y8.6820
G01 X14.3897 Y8.6735
G01 X14.3812 Y8.6646
G01 X14.3185 Y8.5953
G01 X14.3105 Y8.5861
G01 X14.3029 Y8.5764
G01 X14.2472 Y8.5013
G01 X14.2402 Y8.4913
G01 X14.2336 Y8.4809
G01 X14.1855 Y8.4007
G01 X14.1795 Y8.3901
G01 X14.1740 Y8.3791
G01 X14.1340 Y8.2946
G01 X14.1290 Y8.2834
G01 X14.1246 Y8.2719
G01 X14.0931 Y8.1839
G01 X14.0893 Y8.1723
G01 X14.0860 Y8.1604
G01 X14.0633 Y8.0698
G01 X14.0606 Y8.0578
G01 X14.0585 Y8.0457
G01 X14.0448 Y7.9532
G01 X14.0433 Y7.9411
G01 X14.0424 Y7.9288
G01 X14.0378 Y7.8355
G01 X14.0375 Y7.8232
G01 X14.0378 Y7.8109
G01 X14.0424 Y7.7176
G01 X14.0433 Y7.7053
G01 X14.0448 Y7.6932
G01 X14.0585 Y7.6007
G01 X14.0606 Y7.5886
G01 X14.0633 Y7.5766
G01 X14.0860 Y7.4860
G01 X14.0893 Y7.4741
G01 X14.0931 Y7.4625
G01 X14.1246 Y7.3745
G01 X14.1290 Y7.3630
G01 X14.1340 Y7.3518
G01 X14.1740 Y7.2673
G01 X14.1795 Y7.2563
G01 X14.1855 Y7.2457
G01 X14.2336 Y7.1655
G01 X14.2402 Y7.1551
G01 X14.2472 Y7.1451
G01 X14.3029 Y7.0700
G01 X14.3105 Y7.0603
G01 X14.3185 Y7.0511
G01 X14.3812 Y6.9818
G01 X14.3897 Y6.9729
G01 X14.3986 Y6.9644
G01 X14.4679 Y6.9017
G01 X14.4771 Y6.8937
G01 X14.4868 Y6.8861
G01 X14.5619 Y6.8304
G01 X14.5719 Y6.8234
G01 X14.5823 Y6.8168
G01 X14.6625 Y6.7687
G01 X14.6731 Y6.7627
G01 X14.6841 Y6.7572
G01 X14.7686 Y6.7172
G01 X14.7798 Y6.7122
G01 X14.7913 Y6.7078
G01 X14.8793 Y6.6763
G01 X14.8909 Y6.6725
G01 X14.9028 Y6.6692
G01 X14.9934 Y6.6465
G01 X15.0054 Y6.6438
G01 X15.0175 Y6.6417
G01 X15.1100 Y6.6280
G01 X15.1221 Y6.6265
G01 X15.1344 Y6.6256
G01 X15.2277 Y6.6210
G01 X15.2400 Y6.6207
G01 X15.2523 Y6.6210
G01 X15.3456 Y6.6256
G01 X15.3579 Y6.6265
G01 X15.3700 Y6.6280
G01 X15.4625 Y6.6417
G01 X15.4746 Y6.6438
G01 X15.4866 Y6.6465
G01 X15.5772 Y6.6692
G01 X15.5891 Y6.6725
G01 X15.6007 Y6.6763
G01 X15.6887 Y6.7078
G01 X15.7002 Y6.7122
G01 X15.7114 Y6.7172
G01 X15.7959 Y6.7572
G01 X15.8069 Y6.7627
G01 X15.8175 Y6.7687
G01 X15.8977 Y6.8168
G01 X15.9081 Y6.8234
G01 X15.9181 Y6.8304
G01 X15.9932 Y6.8861
G01 X16.0029 Y6.8937
G01 X16.0121 Y6.9017
G01 X16.0814 Y6.9644
G01 X16.0903 Y6.9729
G01 X16.0988 Y6.9818
G01 X16.1615 Y7.0511
G01 X16.1695 Y7.0603
G01 X16.1771 Y7.0700
G01 X16.2328 Y7.1451
G01 X16.2398 Y7.1551
G01 X16.2464 Y7.1655
G01 X16.2945 Y7.2457
G01 X16.3005 Y7.2563
G01 X16.3060 Y7.2673
G01 X16.3460 Y7.3518
G01 X16.3510 Y7.3630
G01 X16.3554 Y7.3745
G01 X16.3869 Y7.4625
G01 X16.3907 Y7.4741
G01 X16.3940 Y7.4860
G01 X16.4167 Y7.5766
G01 X16.4194 Y7.5886
G01 X16.4215 Y7.6007
G01 X16.4352 Y7.6932
G01 X16.4367 Y7.7053
G01 X16.4376 Y7.7176
G01 X16.4422 Y7.8109
G01 X16.4425 Y7.8232
G01 X16.4422 Y7.8355
G01 X16.4376 Y7.9288
G01 X16.4367 Y7.9411
G01 X16.4352 Y7.9532
G01 X16.4215 Y8.0457
G01 X16.4194 Y8.0578
G01 X16.4167 Y8.0698
G01 X16.3940 Y8.1604
G01 X16.3907 Y8.1723
G01 X16.3869 Y8.1839
G01 X16.3554 Y8.2719
G01 X16.3510 Y8.2834
G01 X16.3460 Y8.2946
G01 X16.3060 Y8.3791
G01 X16.3005 Y8.3901
G01 X16.2945 Y8.4007
G01 X16.2464 Y8.4809
G01 X16.2398 Y8.4913
G01 X16.2328 Y8.5013
G01 X16.1771 Y8.5764
G01 X16.1695 Y8.5861
G01 X16.1615 Y8.5953
G01 X16.0988 Y8.6646
G01 X16.0903 Y8.6735
G01 X16.0814 Y8.6820
G01 X16.0121 Y8.7447
G01 X16.0029 Y8.7527
G01 X15.9932 Y8.7603
G01 X15.9181 Y8.8160
G01 X15.9081 Y8.8230
G01 X15.8977 Y8.8296
G01 X15.8175 Y8.8777
G01 X15.8069 Y8.8837
G01 X15.7950 Y8.8897
G01 X15.7950 Y11.8367
G01 X15.8069 Y11.8427
G01 X15.8175 Y11.8487
G01 X15.8977 Y11.8968
G01 X15.9081 Y11.9034
G01 X15.9181 Y11.9104
G01 X15.9932 Y11.9661
G01 X16.0029 Y11.9737
G01 X16.0121 Y11.9817
G01 X16.0859 Y12.0486
G01 X16.0988 Y12.0618
G01 X16.1615 Y12.1311
G01 X16.1734 Y12.1451
G01 X16.2364 Y12.2301
G01 X16.2464 Y12.2455
G01 X16.2706 Y12.2859
G01 X17.7007 Y12.1966
G01 X17.7232 Y12.1959
G01 X17.7490 Y12.1962
G01 X17.7776 Y12.1980
G01 X17.8033 Y12.2008
G01 X17.8315 Y12.2054
G01 X17.8569 Y12.2107
G01 X17.8845 Y12.2180
G01 X17.9033 Y12.2239
G01 X17.9360 Y12.2358
G01 X17.9653 Y12.2486
G01 X17.9855 Y12.2586
G01 X18.0028 Y12.2680
G01 X18.0325 Y12.2861
G01 X18.0587 Y12.3043
G01 X18.0766 Y12.3180
G01 X18.0917 Y12.3307
G01 X18.1173 Y12.3541
G01 X18.1395 Y12.3772
G01 X18.1543 Y12.3941
G01 X18.1667 Y12.4095
G01 X18.1872 Y12.4375
G01 X18.2045 Y12.4644
G01 X18.2157 Y12.4839
G01 X18.2277 Y12.5069
G01 X18.2419 Y12.5385
G01 X18.2492 Y12.5569
G01 X18.2566 Y12.5781
G01 X18.2657 Y12.6088
G01 X18.2735 Y12.6426
G01 X18.2770 Y12.6621
G01 X18.2809 Y12.6904
G01 X18.2831 Y12.7162
G01 X18.2841 Y12.7448
G01 X18.3289 Y16.8627
G01 X18.3883 Y16.8983
G01 X18.3987 Y16.9049
G01 X18.4087 Y16.9119
G01 X18.4768 Y16.9624
G01 X18.4865 Y16.9700
G01 X18.4958 Y16.9780
G01 X18.5585 Y17.0349
G01 X18.5674 Y17.0434
G01 X18.5759 Y17.0523
G01 X18.6328 Y17.1150
G01 X18.6408 Y17.1243
G01 X18.6484 Y17.1340
G01 X18.6989 Y17.2021
G01 X18.7059 Y17.2121
G01 X18.7125 Y17.2225
G01 X18.7591 Y17.3005
G01 X18.7676 Y17.3168
G01 X18.8039 Y17.3934
G01 X18.8088 Y17.4046
G01 X18.8132 Y17.4161
G01 X18.8418 Y17.4959
G01 X18.8456 Y17.5075
G01 X18.8489 Y17.5194
G01 X18.8695 Y17.6016
G01 X18.8722 Y17.6135
G01 X18.8743 Y17.6256
G01 X18.8867 Y17.7095
G01 X18.8882 Y17.7216
G01 X18.8891 Y17.7339
G01 X18.8933 Y17.8185
G01 X18.8935 Y17.8369
G01 X18.8891 Y17.9277
G01 X18.8882 Y17.9400
G01 X18.8867 Y17.9521
G01 X18.8743 Y18.0360
G01 X18.8722 Y18.0481
G01 X18.8695 Y18.0600
G01 X18.8489 Y18.1422
G01 X18.8456 Y18.1541
G01 X18.8418 Y18.1657
G01 X18.8132 Y18.2455
G01 X18.8088 Y18.2570
G01 X18.8039 Y18.2682
G01 X18.7676 Y18.3448
G01 X18.7621 Y18.3557
G01 X18.7561 Y18.3664
G01 X18.7125 Y18.4391
G01 X18.7059 Y18.4495
G01 X18.6989 Y18.4595
G01 X18.6484 Y18.5276
G01 X18.6408 Y18.5373
G01 X18.6328 Y18.5466
G01 X18.5759 Y18.6093
G01 X18.5674 Y18.6182
G01 X18.5585 Y18.6267
G01 X18.4958 Y18.6836
G01 X18.4865 Y18.6916
G01 X18.4768 Y18.6992
G01 X18.4087 Y18.7497
G01 X18.3987 Y18.7567
G01 X18.3883 Y18.7633
G01 X18.3156 Y18.8069
G01 X18.3049 Y18.8129
G01 X18.2940 Y18.8184
G01 X18.2174 Y18.8547
G01 X18.2062 Y18.8596
G01 X18.1947 Y18.8640
G01 X18.1091 Y18.8946
G01 X18.0914 Y18.8997
G01 X18.0092 Y18.9203
G01 X17.9973 Y18.9230
G01 X17.9852 Y18.9251
G01 X17.9013 Y18.9375
G01 X17.8892 Y18.9390
G01 X17.8769 Y18.9399
G01 X17.7923 Y18.9441
G01 X17.7800 Y18.9444
G01 X17.7677 Y18.9441
G01 X17.6831 Y18.9399
G01 X17.6708 Y18.9390
G01 X17.6587 Y18.9375
G01 X17.5748 Y18.9251
G01 X17.5627 Y18.9230
G01 X17.5508 Y18.9203
G01 X17.4686 Y18.8997
G01 X17.4567 Y18.8964
G01 X17.4451 Y18.8926
G01 X17.3653 Y18.8640
G01 X17.3538 Y18.8596
G01 X17.3426 Y18.8547
G01 X17.2660 Y18.8184
G01 X17.2551 Y18.8129
G01 X17.2444 Y18.8069
G01 X17.1717 Y18.7633
G01 X17.1613 Y18.7567
G01 X17.1513 Y18.7497
G01 X17.0832 Y18.6992
G01 X17.0735 Y18.6916
G01 X17.0642 Y18.6836
G01 X17.0015 Y18.6267
G01 X16.9926 Y18.6182
G01 X16.9841 Y18.6093
G01 X16.9272 Y18.5466
G01 X16.9192 Y18.5373
G01 X16.9116 Y18.5276
G01 X16.8611 Y18.4595
G01 X16.8541 Y18.4495
G01 X16.8475 Y18.4391
G01 X16.8039 Y18.3664
G01 X16.7979 Y18.3557
G01 X16.7924 Y18.3448
G01 X16.7561 Y18.2682
G01 X16.7512 Y18.2570
G01 X16.7468 Y18.2455
G01 X16.7182 Y18.1657
G01 X16.7144 Y18.1541
G01 X16.7111 Y18.1422
G01 X16.6905 Y18.0600
G01 X16.6867 Y18.0420
G01 X16.6733 Y17.9521
G01 X16.6718 Y17.9400
G01 X16.6709 Y17.9277
G01 X16.6667 Y17.8431
G01 X16.6664 Y17.8308
G01 X16.6667 Y17.8185
G01 X16.6709 Y17.7339
G01 X16.6718 Y17.7216
G01 X16.6733 Y17.7095
G01 X16.6857 Y17.6256
G01 X16.6878 Y17.6135
G01 X16.6905 Y17.6016
G01 X16.7111 Y17.5194
G01 X16.7144 Y17.5075
G01 X16.7182 Y17.4959
G01 X16.7468 Y17.4161
G01 X16.7536 Y17.3990
G01 X16.7924 Y17.3168
G01 X16.7979 Y17.3059
G01 X16.8039 Y17.2952
G01 X16.8475 Y17.2225
G01 X16.8541 Y17.2121
G01 X16.8611 Y17.2021
G01 X16.9116 Y17.1340
G01 X16.9231 Y17.1196
G01 X16.9841 Y17.0523
G01 X16.9926 Y17.0434
G01 X17.0015 Y17.0349
G01 X17.0688 Y16.9739
G01 X17.0832 Y16.9624
G01 X17.1563 Y16.9083
G01 X17.1717 Y16.8983
G01 X17.2190 Y16.8700
G01 X17.1806 Y13.3411
G01 X16.3369 Y13.3939
G01 X16.3060 Y13.4591
G01 X16.3005 Y13.4701
G01 X16.2945 Y13.4807
G01 X16.2432 Y13.5661
G01 X16.2328 Y13.5813
G01 X16.1771 Y13.6564
G01 X16.1656 Y13.6708
G01 X16.0988 Y13.7446
G01 X16.0903 Y13.7535
G01 X16.0814 Y13.7620
G01 X16.0121 Y13.8247
G01 X16.0029 Y13.8327
G01 X15.9932 Y13.8403
G01 X15.9181 Y13.8960
G01 X15.9029 Y13.9064
G01 X15.8175 Y13.9577
G01 X15.8069 Y13.9637
G01 X15.7959 Y13.9692
G01 X15.7114 Y14.0092
G01 X15.7002 Y14.0142
G01 X15.6887 Y14.0186
G01 X15.6007 Y14.0501
G01 X15.5891 Y14.0539
G01 X15.5772 Y14.0572
G01 X15.4866 Y14.0799
G01 X15.4746 Y14.0826
G01 X15.4625 Y14.0847
G01 X15.3700 Y14.0984
G01 X15.3579 Y14.0999
G01 X15.3456 Y14.1008
G01 X15.2523 Y14.1054
G01 X15.2339 Y14.1056
G01 X15.1344 Y14.1008
G01 X15.1221 Y14.0999
G01 X15.1100 Y14.0984
